;Generated by Cura LulzBot Edition GCodeWriter Version: 2.6.69
;FLAVOR:RepRap
;TIME:668
;Filament used: 0.751238m
;Layer height: 1
;Generated with Cura_SteamEngine 2.6.69
;This G-Code has been generated specifically for the LulzBot TAZ 6 with standard extruder
G26 ; clear potential 'probe fail' condition
G21 ; set units to Millimetres
M107 ; disable fans
G90 ; absolute positioning
M82 ; set extruder to absolute mode
G92 E0 ; set extruder position to 0
M140 S60 ; start bed heating up
G28 XY ; home X and Y
G1 X-19 Y258 F1000 ; move to safe homing position
M109 R140 ; soften filament before homing Z
G28 Z ; home Z
G1 E-30 F100 ; retract filament
M109 R140 ; wait for extruder to reach wiping temp
G1 X-15 Y100 F3000 ; move above wiper pad
G1 Z1 ; push nozzle into wiper
G1 X-17 Y95 F1000 ; slow wipe
G1 X-17 Y90 F1000 ; slow wipe
G1 X-17 Y85 F1000 ; slow wipe
G1 X-15 Y90 F1000 ; slow wipe
G1 X-17 Y80 F1000 ; slow wipe
G1 X-15 Y95 F1000 ; slow wipe
G1 X-17 Y75 F2000 ; fast wipe
G1 X-15 Y65 F2000 ; fast wipe
G1 X-17 Y70 F2000 ; fast wipe
G1 X-15 Y60 F2000 ; fast wipe
G1 X-17 Y55 F2000 ; fast wipe
G1 X-15 Y50 F2000 ; fast wipe
G1 X-17 Y40 F2000 ; fast wipe
G1 X-15 Y45 F2000 ; fast wipe
G1 X-17 Y35 F2000 ; fast wipe
G1 X-15 Y40 F2000 ; fast wipe
G1 X-17 Y70 F2000 ; fast wipe
G1 X-15 Y30 Z2 F2000 ; fast wipe
G1 X-17 Y35 F2000 ; fast wipe
G1 X-15 Y25 F2000 ; fast wipe
G1 X-17 Y30 F2000 ; fast wipe
G1 X-15 Y25 Z1.5 F1000 ; slow wipe
G1 X-17 Y23 F1000 ; slow wipe
G1 Z10 ; raise extruder
M109 R140 ; wait for extruder to reach probe temp
G1 X-9 Y-9 ; move above first probe point
M204 S100 ; set probing acceleration
G29 ; start auto-leveling sequence
M204 S500 ; restore standard acceleration
G1 X0 Y0 Z15 F5000 ; move up off last probe point
G4 S1 ; pause
M400 ; wait for moves to finish
M117 Heating... ; progress indicator message on LCD
M109 R220 ; wait for extruder to reach printing temp
M190 S60 ; wait for bed to reach printing temp
G1 Z2 E0 F75 ; prime tiny bit of filament into the nozzle
M117 TAZ 6 Printing... ; progress indicator message on LCD

M221 S100
;LAYER_COUNT:21
;LAYER:0
M107
G0 F2625 X110.054 Y110.249 Z0.424
G0 X109.713 Y110.677
;TYPE:SKIRT
G1 F900 X110.054 Y110.249 E0.01823
G1 X110.454 Y109.875 E0.03647
G1 X110.736 Y109.669 E0.0481
G1 X111.05 Y109.461 E0.06065
G1 X111.527 Y109.193 E0.07887
G1 X112.038 Y108.997 E0.0971
G1 X112.834 Y108.848 E0.12408
G1 X113.968 Y108.761 E0.16197
G1 X114.259 Y108.75 E0.17167
G1 X152.697 Y108.796 E1.45205
G1 X153.243 Y108.837 E1.47029
G1 X153.961 Y109.017 E1.49495
G1 X154.256 Y109.123 E1.50539
G1 X154.756 Y109.345 E1.52361
G1 X155.219 Y109.638 E1.54186
G1 X155.434 Y109.81 E1.55103
G1 X155.714 Y110.051 E1.56334
G1 X156.102 Y110.437 E1.58157
G1 X156.372 Y110.789 E1.59635
G1 X157.598 Y112.597 E1.66911
G1 X160.858 Y117.021 E1.85217
G1 X164.322 Y121.204 E2.03308
G1 X168.059 Y125.23 E2.21605
G1 X169.934 Y127.095 E2.30415
G1 X170.293 Y127.508 E2.32237
G1 X170.588 Y127.969 E2.34061
G1 X170.813 Y128.468 E2.35884
G1 X170.911 Y128.78 E2.36973
G1 X171.105 Y129.501 E2.3946
G1 X171.208 Y130.038 E2.41282
G1 X171.234 Y130.471 E2.42727
G1 X171.24 Y135.472 E2.59385
G1 X171.201 Y136.017 E2.61205
G1 X171.112 Y136.448 E2.62671
G1 X170.903 Y137.227 E2.65358
G1 X170.723 Y137.744 E2.67181
G1 X170.47 Y138.229 E2.69004
G1 X169.969 Y138.87 E2.71714
G1 X165.81 Y143.144 E2.91578
G1 X162.24 Y147.257 E3.0972
G1 X158.901 Y151.574 E3.279
G1 X156.146 Y155.452 E3.43745
G1 X155.797 Y155.874 E3.45569
G1 X155.197 Y156.382 E3.48188
G1 X153.675 Y157.416 E3.54317
G1 X149.274 Y160.649 E3.72508
G1 X145.055 Y164.13 E3.90727
G1 X143.079 Y165.907 E3.9958
G1 X138.85 Y169.987 E4.19154
G1 X138.429 Y170.337 E4.20977
G1 X137.962 Y170.622 E4.228
G1 X137.227 Y170.907 E4.25426
G1 X136.504 Y171.103 E4.27921
G1 X135.967 Y171.208 E4.29744
G1 X135.528 Y171.234 E4.31209
G1 X130.53 Y171.24 E4.47857
G1 X129.984 Y171.201 E4.4968
G1 X129.554 Y171.112 E4.51143
G1 X128.774 Y170.903 E4.53833
G1 X128.257 Y170.723 E4.55657
G1 X127.772 Y170.47 E4.57479
G1 X127.13 Y169.969 E4.60191
G1 X122.856 Y165.81 E4.80056
G1 X118.743 Y162.24 E4.98198
G1 X114.429 Y158.904 E5.16363
G1 X110.574 Y156.178 E5.32091
G1 X110.151 Y155.83 E5.33915
G1 X109.784 Y155.425 E5.35736
G1 X109.387 Y154.797 E5.38211
G1 X109.208 Y154.44 E5.39541
G1 X108.999 Y153.934 E5.41365
G1 X108.866 Y153.403 E5.43188
G1 X108.816 Y152.974 E5.44627
G1 X108.756 Y151.929 E5.48113
G1 X108.75 Y151.713 E5.48833
G1 X108.76 Y113.515 E6.76072
G1 X108.831 Y112.788 E6.78505
G1 X108.911 Y112.384 E6.79877
G1 X109.057 Y111.856 E6.81702
G1 X109.277 Y111.355 E6.83525
G1 X109.496 Y110.994 E6.84931
G1 X109.713 Y110.677 E6.86211
G0 F2625 X109.908 Y111.276
G1 F900 X110.125 Y110.959 E6.8749
G1 X110.445 Y110.563 E6.89186
G1 X111.012 Y110.086 E6.91654
G1 X111.326 Y109.878 E6.92909
G1 X111.772 Y109.63 E6.94609
G1 X112.25 Y109.456 E6.96303
G1 X112.872 Y109.347 E6.98407
G1 X114.006 Y109.26 E7.02195
G1 X114.259 Y109.25 E7.03039
G1 X152.697 Y109.296 E8.31077
G1 X153.205 Y109.337 E8.32775
G1 X153.792 Y109.487 E8.34793
G1 X154.087 Y109.593 E8.35837
G1 X154.552 Y109.803 E8.37537
G1 X155.108 Y110.189 E8.39791
G1 X155.388 Y110.43 E8.41022
G1 X155.747 Y110.791 E8.42718
G1 X155.958 Y111.069 E8.4388
G1 X157.202 Y112.903 E8.51262
G1 X160.457 Y117.32 E8.69539
G1 X163.949 Y121.538 E8.8778
G1 X167.681 Y125.559 E9.06054
G1 X169.582 Y127.449 E9.14983
G1 X169.914 Y127.836 E9.16681
G1 X170.181 Y128.269 E9.18376
G1 X170.428 Y128.91 E9.20664
G1 X170.622 Y129.631 E9.23151
G1 X170.716 Y130.131 E9.24846
G1 X170.734 Y130.471 E9.2598
G1 X170.74 Y135.472 E9.42639
G1 X170.701 Y135.98 E9.44336
G1 X170.629 Y136.318 E9.45487
G1 X170.42 Y137.097 E9.48174
G1 X170.25 Y137.577 E9.4987
G1 X170.007 Y138.025 E9.51567
G1 X169.61 Y138.522 E9.53686
G1 X165.435 Y142.812 E9.73627
G1 X161.862 Y146.929 E9.91785
G1 X158.486 Y151.294 E10.10166
G1 X155.738 Y155.162 E10.25971
G1 X155.412 Y155.553 E10.27667
G1 X154.916 Y155.968 E10.29821
G1 X153.394 Y157.002 E10.3595
G1 X148.976 Y160.247 E10.5421
G1 X144.732 Y163.75 E10.72541
G1 X142.721 Y165.557 E10.81546
G1 X138.503 Y169.627 E11.01071
G1 X138.109 Y169.951 E11.0277
G1 X137.67 Y170.209 E11.04466
G1 X137.096 Y170.425 E11.06509
G1 X136.373 Y170.621 E11.09005
G1 X135.873 Y170.715 E11.10699
G1 X135.527 Y170.734 E11.11853
G1 X130.529 Y170.74 E11.28502
G1 X130.021 Y170.701 E11.30199
G1 X129.684 Y170.629 E11.31347
G1 X128.904 Y170.42 E11.34037
G1 X128.424 Y170.25 E11.35733
G1 X127.976 Y170.007 E11.37431
G1 X127.478 Y169.61 E11.39552
G1 X123.188 Y165.435 E11.59493
G1 X119.071 Y161.862 E11.77651
G1 X114.72 Y158.497 E11.95973
G1 X110.863 Y155.77 E12.11708
G1 X110.471 Y155.444 E12.13406
G1 X110.135 Y155.061 E12.15103
G1 X109.834 Y154.573 E12.17013
G1 X109.655 Y154.216 E12.18343
G1 X109.463 Y153.744 E12.20041
G1 X109.347 Y153.248 E12.21737
G1 X109.315 Y152.945 E12.22752
G1 X109.255 Y151.9 E12.26239
G1 X109.25 Y151.713 E12.26862
G1 X109.26 Y113.515 E13.54101
G1 X109.322 Y112.885 E13.5621
G1 X109.402 Y112.481 E13.57582
G1 X109.54 Y111.99 E13.5928
G1 X109.753 Y111.527 E13.60978
G1 X109.908 Y111.276 E13.61961
G1 F600 E12.61961
G0 F2625 X112.113 Y112.611
G0 X113.303 Y113.41
G0 X113.349 Y113.585
G0 X113.25 Y113.576
;TYPE:WALL-INNER
G1 F600 E13.61961
G1 F900 X113.285 Y113.403 E13.62549
G1 X113.332 Y113.333 E13.6283
G1 X113.405 Y113.284 E13.63122
G1 X113.574 Y113.25 E13.63697
G1 X152.429 Y113.25 E14.93124
G1 X152.594 Y113.283 E14.93685
G1 X152.667 Y113.332 E14.93977
G1 X152.716 Y113.405 E14.9427
G1 X152.75 Y113.574 E14.94845
G1 X152.75 Y129.75 E15.48727
G1 X165.931 Y129.75 E15.92634
G1 X166.147 Y129.792 E15.93367
G1 X166.254 Y129.844 E15.93763
G1 X166.359 Y129.872 E15.94125
G1 X166.628 Y130.141 E15.95392
G1 X166.75 Y130.596 E15.96961
G1 X166.75 Y135.404 E16.12977
G1 X166.628 Y135.859 E16.14546
G1 X166.334 Y136.153 E16.15931
G1 X166.061 Y136.206 E16.16857
G1 X165.901 Y136.25 E16.1741
G1 X152.75 Y136.25 E16.61217
G1 X152.75 Y152.424 E17.15093
G1 X152.715 Y152.597 E17.15681
G1 X152.668 Y152.667 E17.15962
G1 X152.595 Y152.716 E17.16254
G1 X152.426 Y152.75 E17.16829
G1 X136.25 Y152.75 E17.70712
G1 X136.25 Y165.903 E18.14525
G1 X136.114 Y166.412 E18.1628
G1 X136.1 Y166.43 E18.16356
G1 X135.925 Y166.564 E18.1709
G1 X135.862 Y166.626 E18.17384
G1 X135.402 Y166.75 E18.18971
G1 X130.596 Y166.75 E18.3498
G1 X130.141 Y166.628 E18.36549
G1 X129.872 Y166.359 E18.37817
G1 X129.75 Y165.904 E18.39386
G1 X129.75 Y152.75 E18.83202
G1 X113.576 Y152.75 E19.37078
G1 X113.403 Y152.715 E19.37666
G1 X113.333 Y152.668 E19.37947
G1 X113.284 Y152.595 E19.3824
G1 X113.25 Y152.426 E19.38814
G1 X113.25 Y113.576 E20.68225
G0 F2625 X113.349 Y113.585
G0 X123.626 Y123.495
G0 X123.696 Y123.566
G1 F900 X122.922 Y124.396 E20.72005
G1 X122.124 Y125.431 E20.76359
G1 X121.521 Y126.382 E20.8011
G1 X120.801 Y127.829 E20.85493
G1 X120.545 Y128.481 E20.87827
G1 X120.106 Y129.943 E20.92911
G1 X119.839 Y131.46 E20.98042
G1 X119.749 Y133.007 E21.03204
G1 X119.839 Y134.54 E21.08319
G1 X120.106 Y136.057 E21.1345
G1 X120.545 Y137.519 E21.18535
G1 X120.801 Y138.171 E21.20868
G1 X121.521 Y139.618 E21.26252
G1 X122.123 Y140.567 E21.29996
G1 X122.85 Y141.519 E21.33986
G1 X123.732 Y142.465 E21.38294
G1 X124.493 Y143.161 E21.41729
G1 X124.626 Y143.255 E21.42272
G1 X125.143 Y143.661 E21.44461
G1 X126.38 Y144.479 E21.49401
G1 X126.535 Y144.553 E21.49973
G1 X127.214 Y144.917 E21.5254
G1 X128.175 Y145.34 E21.56037
G1 X129.251 Y145.71 E21.59827
G1 X130.692 Y146.048 E21.64758
G1 X131.505 Y146.163 E21.67493
G1 X132.488 Y146.24 E21.70777
G1 X133.638 Y146.234 E21.74608
G1 X135.285 Y146.052 E21.80128
G1 X135.782 Y145.952 E21.81816
G1 X136.792 Y145.696 E21.85287
G1 X137.874 Y145.322 E21.891
G1 X139.609 Y144.484 E21.95519
G1 X140.031 Y144.225 E21.97168
G1 X141.506 Y143.161 E22.03226
G1 X142.099 Y142.632 E22.05873
G1 X143.153 Y141.516 E22.10986
G1 X144.156 Y140.147 E22.1664
G1 X144.479 Y139.617 E22.18707
G1 X145.027 Y138.559 E22.22676
G1 X145.454 Y137.526 E22.26399
G1 X145.894 Y136.057 E22.31507
G1 X146.161 Y134.54 E22.36638
G1 X146.251 Y133 E22.41777
G1 X146.161 Y131.46 E22.46915
G1 X145.894 Y129.943 E22.52046
G1 X145.454 Y128.474 E22.57154
G1 X145.027 Y127.441 E22.60878
G1 X144.479 Y126.383 E22.64847
G1 X144.156 Y125.853 E22.66914
G1 X143.153 Y124.484 E22.72567
G1 X142.099 Y123.368 E22.7768
G1 X141.506 Y122.839 E22.80327
G1 X140.031 Y121.775 E22.86386
G1 X139.609 Y121.516 E22.88035
G1 X137.874 Y120.678 E22.94453
G1 X136.791 Y120.303 E22.98271
G1 X135.669 Y120.022 E23.02124
G1 X135.23 Y119.941 E23.03611
G1 X133.561 Y119.761 E23.09202
G1 X132.485 Y119.76 E23.12787
G1 X131.373 Y119.852 E23.16503
G1 X130.665 Y119.956 E23.18887
G1 X129.251 Y120.291 E23.23728
G1 X128.173 Y120.66 E23.27523
G1 X127.084 Y121.146 E23.31495
G1 X126.347 Y121.541 E23.34281
G1 X125.005 Y122.434 E23.3965
G1 X124.441 Y122.886 E23.42058
G1 X123.696 Y123.566 E23.45418
G0 F2625 X123.626 Y123.495
G0 X124.982 Y122.402
G0 X126.327 Y121.507
G0 X128.159 Y120.623
G0 X129.24 Y120.253
G0 X130.658 Y119.917
G0 X132.484 Y119.721
G0 X133.563 Y119.722
G0 X135.677 Y119.983
G0 X136.802 Y120.265
G0 X137.889 Y120.642
G0 X139.628 Y121.481
G0 X141.531 Y122.808
G0 X142.126 Y123.34
G0 X143.183 Y124.459
G0 X144.189 Y125.831
G0 X145.063 Y127.425
G0 X161.111 Y133
G0 X161.211 Y133
G1 F900 X161.622 Y134.265 E23.49848
G1 X161.963 Y134.642 E23.51542
G1 X162.402 Y134.891 E23.53223
G1 X162.792 Y135.176 E23.54832
G1 X164.179 Y135.176 E23.59452
G1 X164.888 Y134.733 E23.62237
G1 X164.996 Y134.604 E23.62797
G1 X165.353 Y134.344 E23.64268
G1 X165.789 Y133 E23.68975
G1 X165.383 Y131.75 E23.73353
G1 X165.122 Y131.437 E23.7471
G1 X164.612 Y131.118 E23.76714
G1 X164.208 Y130.824 E23.78378
G1 X162.838 Y130.824 E23.82942
G1 X162.196 Y131.188 E23.854
G1 X162.013 Y131.39 E23.86308
G1 X161.647 Y131.656 E23.87815
G1 X161.211 Y133 E23.92522
G0 F2625 X161.111 Y133
G0 X152.722 Y136.222
G0 X136.222 Y152.722
G0 X134.402 Y161.568
G0 X134.344 Y161.648
G1 F900 X133.055 Y161.229 E23.97037
G1 X132.408 Y161.341 E23.99224
G1 X132.103 Y161.502 E24.00373
G1 X131.654 Y161.65 E24.01948
G1 X130.824 Y162.793 E24.06653
G1 X130.824 Y164.207 E24.11363
G1 X131.615 Y165.296 E24.15846
G1 X132.085 Y165.543 E24.17615
G1 X132.469 Y165.668 E24.1896
G1 X133.054 Y165.771 E24.20939
G1 X134.344 Y165.352 E24.25457
G1 X135.176 Y164.207 E24.30172
G1 X135.176 Y162.793 E24.34882
G1 X134.344 Y161.648 E24.39596
G0 F2625 X134.035 Y162.073
;TYPE:WALL-OUTER
G1 F900 X133.018 Y161.743 E24.43158
G1 X132.571 Y161.82 E24.44669
G1 X132.298 Y161.964 E24.45697
G1 X131.964 Y162.074 E24.46868
G1 X131.324 Y162.955 E24.50495
G1 X131.324 Y164.045 E24.54126
G1 X131.951 Y164.908 E24.5768
G1 X132.28 Y165.081 E24.58918
G1 X132.59 Y165.182 E24.60004
G1 X133.018 Y165.257 E24.61451
G1 X134.035 Y164.927 E24.65013
G1 X134.676 Y164.045 E24.68645
G1 X134.676 Y162.955 E24.72275
G1 X134.035 Y162.073 E24.75907
G0 F2625 X133.798 Y161.996
G0 X133.984 Y161.426
G0 X134.367 Y161.616
G0 X135.214 Y162.781
G0 X136.151 Y165.89
G0 X136.75 Y165.969
G1 F900 X136.571 Y166.637 E24.78211
G1 X136.457 Y166.786 E24.78836
G1 X136.255 Y166.941 E24.79684
G1 X136.12 Y167.075 E24.80318
G1 X135.469 Y167.25 E24.82563
G1 X130.531 Y167.25 E24.99012
G1 X129.881 Y167.076 E25.01253
G1 X129.424 Y166.619 E25.03406
G1 X129.25 Y165.969 E25.05647
G1 X129.25 Y153.25 E25.48015
G1 X113.525 Y153.25 E26.00395
G1 X113.206 Y153.185 E26.0148
G1 X112.974 Y153.029 E26.02411
G1 X112.814 Y152.792 E26.03364
G1 X112.75 Y152.475 E26.04441
G1 X112.75 Y113.525 E27.34185
G1 X112.815 Y113.206 E27.35269
G1 X112.971 Y112.974 E27.362
G1 X113.208 Y112.814 E27.37153
G1 X113.525 Y112.75 E27.3823
G1 X152.477 Y112.75 E28.67981
G1 X152.791 Y112.813 E28.69048
G1 X153.027 Y112.972 E28.69995
G1 X153.186 Y113.208 E28.70943
G1 X153.25 Y113.525 E28.72021
G1 X153.25 Y129.25 E29.24401
G1 X165.979 Y129.25 E29.66802
G1 X166.306 Y129.313 E29.67911
G1 X166.43 Y129.373 E29.6837
G1 X166.619 Y129.424 E29.69022
G1 X167.076 Y129.881 E29.71175
G1 X167.25 Y130.531 E29.73416
G1 X167.25 Y135.469 E29.89865
G1 X167.076 Y136.119 E29.92106
G1 X166.602 Y136.593 E29.94339
G1 X166.541 Y136.622 E29.94564
G1 X166.175 Y136.693 E29.95806
G1 X165.967 Y136.75 E29.96525
G1 X153.25 Y136.75 E30.38885
G1 X153.25 Y152.475 E30.91266
G1 X153.185 Y152.794 E30.9235
G1 X153.029 Y153.026 E30.93282
G1 X152.792 Y153.186 E30.94234
G1 X152.475 Y153.25 E30.95311
G1 X136.75 Y153.25 E31.47692
G1 X136.75 Y165.969 E31.90059
G0 F2625 X136.686 Y166.21
G0 X136.107 Y166.056
G0 X135.325 Y146.146
G0 X135.208 Y145.557
G1 F900 X135.672 Y145.464 E31.91636
G1 X136.649 Y145.217 E31.94993
G1 X137.683 Y144.859 E31.98637
G1 X139.369 Y144.045 E32.04874
G1 X139.754 Y143.809 E32.06378
G1 X141.192 Y142.771 E32.12286
G1 X141.75 Y142.273 E32.14777
G1 X142.768 Y141.195 E32.19716
G1 X143.74 Y139.869 E32.25192
G1 X144.043 Y139.372 E32.27131
G1 X144.573 Y138.348 E32.30972
G1 X144.982 Y137.358 E32.3454
G1 X145.407 Y135.941 E32.39468
G1 X145.664 Y134.482 E32.44403
G1 X145.75 Y133 E32.49348
G1 X145.664 Y131.518 E32.54293
G1 X145.407 Y130.059 E32.59227
G1 X144.982 Y128.642 E32.64155
G1 X144.573 Y127.652 E32.67723
G1 X144.043 Y126.628 E32.71564
G1 X143.74 Y126.131 E32.73503
G1 X142.768 Y124.805 E32.7898
G1 X141.75 Y123.727 E32.83918
G1 X141.192 Y123.229 E32.8641
G1 X139.754 Y122.191 E32.92317
G1 X139.369 Y121.955 E32.93822
G1 X137.683 Y121.141 E33.00058
G1 X136.648 Y120.783 E33.03706
G1 X135.563 Y120.511 E33.07432
G1 X135.158 Y120.436 E33.08804
G1 X133.534 Y120.261 E33.14245
G1 X132.505 Y120.26 E33.17673
G1 X131.43 Y120.349 E33.21266
G1 X130.759 Y120.448 E33.23525
G1 X129.39 Y120.772 E33.28211
G1 X128.356 Y121.126 E33.31852
G1 X127.304 Y121.595 E33.35688
G1 X126.604 Y121.97 E33.38334
G1 X125.3 Y122.838 E33.43552
G1 X124.766 Y123.266 E33.45831
G1 X124.048 Y123.922 E33.49071
G1 X123.304 Y124.72 E33.52705
G1 X122.534 Y125.718 E33.56904
G1 X121.957 Y126.628 E33.60493
G1 X121.258 Y128.032 E33.65718
G1 X121.018 Y128.644 E33.67907
G1 X120.593 Y130.059 E33.72829
G1 X120.336 Y131.518 E33.77764
G1 X120.25 Y133.007 E33.82732
G1 X120.336 Y134.482 E33.87653
G1 X120.593 Y135.941 E33.92588
G1 X121.018 Y137.356 E33.9751
G1 X121.258 Y137.968 E33.99699
G1 X121.957 Y139.372 E34.04924
