;Generated by Cura LulzBot Edition GCodeWriter Version: 3.2.27
;FLAVOR:Marlin
;TIME:2430
;Filament used: 1.11268m
;Layer height: 0.25
;Generated with Cura_SteamEngine 3.2.27
M82 ;absolute extrusion mode
;This G-Code has been generated specifically for the LulzBot TAZ 6 with standard extruder
M75 ; start GLCD timer
G26 ; clear potential 'probe fail' condition
G21 ; set units to Millimetres
M107 ; disable fans
M420 S0 ; disable previous leveling matrix
G90 ; absolute positioning
M82 ; set extruder to absolute mode
G92 E0 ; set extruder position to 0
M140 S60 ; start bed heating up
M109 R140 ; soften filament before homing Z
G28 ; Home all axis
G1 E-30 F100 ; retract filament
M109 R140 ; wait for extruder to reach wiping temp
G1 X-15 Y100 F3000 ; move above wiper pad
G1 Z1 ; push nozzle into wiper
G1 X-17 Y95 F1000 ; slow wipe
G1 X-17 Y90 F1000 ; slow wipe
G1 X-17 Y85 F1000 ; slow wipe
G1 X-15 Y90 F1000 ; slow wipe
G1 X-17 Y80 F1000 ; slow wipe
G1 X-15 Y95 F1000 ; slow wipe
G1 X-17 Y75 F2000 ; fast wipe
G1 X-15 Y65 F2000 ; fast wipe
G1 X-17 Y70 F2000 ; fast wipe
G1 X-15 Y60 F2000 ; fast wipe
G1 X-17 Y55 F2000 ; fast wipe
G1 X-15 Y50 F2000 ; fast wipe
G1 X-17 Y40 F2000 ; fast wipe
G1 X-15 Y45 F2000 ; fast wipe
G1 X-17 Y35 F2000 ; fast wipe
G1 X-15 Y40 F2000 ; fast wipe
G1 X-17 Y70 F2000 ; fast wipe
G1 X-15 Y30 Z2 F2000 ; fast wipe
G1 X-17 Y35 F2000 ; fast wipe
G1 X-15 Y25 F2000 ; fast wipe
G1 X-17 Y30 F2000 ; fast wipe
G1 X-15 Y25 Z1.5 F1000 ; slow wipe
G1 X-17 Y23 F1000 ; slow wipe
G1 Z10 ; raise extruder
M109 R140 ; wait for extruder to reach probe temp
G1 X-9 Y-9 ; move above first probe point
M204 S100 ; set probing acceleration
G29 ; start auto-leveling sequence
M420 S1 ; activate bed level matrix
M425 Z			     ; use measured Z backlash for compensation
M425 Z F0		     ; turn off measured Z backlash compensation. (if activated in the quality settings, this command will automatically be ignored)
M204 S500 ; restore standard acceleration
G1 X0 Y0 Z15 F5000 ; move up off last probe point
G4 S1 ; pause
M400 ; wait for moves to finish
M117 Heating... ; progress indicator message on LCD
M109 R220 ; wait for extruder to reach printing temp
M190 S60 ; wait for bed to reach printing temp
G1 Z2 E0 F75 ; prime tiny bit of filament into the nozzle
M117 TAZ 6 Printing... ; progress indicator message on LCD

M221 S100
;LAYER_COUNT:67
;LAYER:0
M107
G0 F2625 X98.364 Y109.029 Z0.424
;TYPE:SKIRT
G1 F900 X98.834 Y108.618 E0.02075
G1 X101.06 Y106.913 E0.11393
G1 X101.572 Y106.571 E0.13439
G1 X102.138 Y106.292 E0.15536
G1 X104.734 Y105.222 E0.24867
G1 X105.318 Y105.025 E0.26915
G1 X105.931 Y104.904 E0.28992
G1 X108.712 Y104.542 E0.38312
G1 X109.327 Y104.502 E0.4036
G1 X109.952 Y104.544 E0.42441
G1 X112.737 Y104.915 E0.51778
G1 X113.341 Y105.035 E0.53825
G1 X113.933 Y105.237 E0.55903
G1 X116.524 Y106.314 E0.65228
G1 X117.077 Y106.587 E0.67278
G1 X117.599 Y106.936 E0.69364
G1 X119.82 Y108.646 E0.78679
G1 X120.283 Y109.053 E0.80728
G1 X120.694 Y109.522 E0.828
G1 X122.399 Y111.749 E0.92121
G1 X122.741 Y112.262 E0.9417
G1 X123.019 Y112.827 E0.96262
G1 X124.089 Y115.423 E1.05593
G1 X124.286 Y116.007 E1.07642
G1 X124.407 Y116.62 E1.09718
G1 X124.769 Y119.401 E1.19038
G1 X124.809 Y120.016 E1.21086
G1 X124.768 Y120.64 E1.23164
G1 X124.398 Y123.423 E1.32494
G1 X124.277 Y124.027 E1.34541
G1 X124.075 Y124.621 E1.36626
G1 X122.997 Y127.213 E1.45955
G1 X122.724 Y127.765 E1.48002
G1 X122.375 Y128.286 E1.50085
G1 X120.665 Y130.508 E1.59403
G1 X120.259 Y130.971 E1.6145
G1 X119.789 Y131.382 E1.63524
G1 X117.563 Y133.087 E1.72842
G1 X117.051 Y133.429 E1.74889
G1 X116.485 Y133.708 E1.76986
G1 X113.889 Y134.778 E1.86317
G1 X113.305 Y134.975 E1.88365
G1 X112.692 Y135.096 E1.90441
G1 X109.91 Y135.458 E1.99764
G1 X109.295 Y135.498 E2.01812
G1 X108.671 Y135.457 E2.03891
G1 X105.887 Y135.087 E2.13224
G1 X105.283 Y134.966 E2.15271
G1 X104.688 Y134.764 E2.17359
G1 X102.097 Y133.686 E2.26685
G1 X101.545 Y133.413 E2.28731
G1 X101.024 Y133.063 E2.30817
G1 X98.801 Y131.351 E2.40142
G1 X98.338 Y130.945 E2.42188
G1 X97.927 Y130.474 E2.44265
G1 X96.223 Y128.247 E2.53584
G1 X95.881 Y127.735 E2.5563
G1 X95.603 Y127.171 E2.5772
G1 X94.534 Y124.577 E2.67043
G1 X94.337 Y123.993 E2.69092
G1 X94.216 Y123.382 E2.71162
G1 X93.853 Y120.601 E2.80482
G1 X93.813 Y119.986 E2.8253
G1 X93.855 Y119.358 E2.84621
G1 X94.226 Y116.575 E2.93952
G1 X94.347 Y115.971 E2.95999
G1 X94.548 Y115.379 E2.98076
G1 X95.626 Y112.787 E3.07405
G1 X95.899 Y112.235 E3.09452
G1 X96.248 Y111.714 E3.11536
G1 X97.958 Y109.492 E3.20854
G1 X98.364 Y109.029 E3.229
G0 F2625 X98.74 Y109.361
G1 F900 X99.138 Y109.015 E3.24653
G1 X101.364 Y107.31 E3.33971
G1 X101.85 Y106.988 E3.35908
G1 X102.328 Y106.755 E3.37675
G1 X104.924 Y105.685 E3.47006
G1 X105.477 Y105.5 E3.48944
G1 X105.995 Y105.4 E3.50697
G1 X108.776 Y105.038 E3.60017
G1 X109.358 Y105.002 E3.61955
G1 X109.886 Y105.039 E3.63714
G1 X112.671 Y105.41 E3.73051
G1 X113.242 Y105.527 E3.74988
G1 X113.741 Y105.699 E3.76742
G1 X116.332 Y106.776 E3.86066
G1 X116.854 Y107.036 E3.88004
G1 X117.294 Y107.332 E3.89767
G1 X119.515 Y109.042 E3.99082
G1 X119.951 Y109.429 E4.01019
G1 X120.297 Y109.826 E4.02769
G1 X122.002 Y112.053 E4.1209
G1 X122.323 Y112.539 E4.14025
G1 X122.556 Y113.017 E4.15792
G1 X123.626 Y115.613 E4.25123
G1 X123.811 Y116.166 E4.27061
G1 X123.911 Y116.684 E4.28815
G1 X124.273 Y119.465 E4.38134
G1 X124.309 Y120.047 E4.40072
G1 X124.272 Y120.574 E4.41828
G1 X123.902 Y123.357 E4.51158
G1 X123.786 Y123.928 E4.53094
G1 X123.613 Y124.429 E4.54855
G1 X122.535 Y127.021 E4.64184
G1 X122.275 Y127.542 E4.66119
G1 X121.979 Y127.981 E4.67879
G1 X120.269 Y130.203 E4.77196
G1 X119.883 Y130.639 E4.79132
G1 X119.485 Y130.985 E4.80884
G1 X117.259 Y132.69 E4.90202
G1 X116.773 Y133.012 E4.9214
G1 X116.295 Y133.245 E4.93907
G1 X113.699 Y134.315 E5.03238
G1 X113.146 Y134.5 E5.05176
G1 X112.627 Y134.6 E5.06932
G1 X109.845 Y134.962 E5.16255
G1 X109.264 Y134.998 E5.1819
G1 X108.737 Y134.961 E5.19945
G1 X105.953 Y134.591 E5.29278
G1 X105.382 Y134.475 E5.31215
G1 X104.88 Y134.302 E5.32979
G1 X102.289 Y133.224 E5.42305
G1 X101.768 Y132.964 E5.4424
G1 X101.329 Y132.667 E5.46002
G1 X99.106 Y130.955 E5.55326
G1 X98.67 Y130.569 E5.57261
G1 X98.324 Y130.171 E5.59014
G1 X96.62 Y127.944 E5.68332
G1 X96.298 Y127.458 E5.7027
G1 X96.066 Y126.98 E5.72035
G1 X94.997 Y124.386 E5.81359
G1 X94.812 Y123.834 E5.83294
G1 X94.712 Y123.317 E5.85044
G1 X94.349 Y120.536 E5.94364
G1 X94.313 Y119.954 E5.96302
G1 X94.35 Y119.424 E5.98067
G1 X94.721 Y116.641 E6.07398
G1 X94.838 Y116.07 E6.09335
G1 X95.01 Y115.571 E6.11089
G1 X96.088 Y112.979 E6.20418
G1 X96.348 Y112.458 E6.22353
G1 X96.644 Y112.019 E6.24112
G1 X98.354 Y109.797 E6.3343
G1 X98.74 Y109.361 E6.35365
G0 F2625 X99.115 Y109.694
G1 F900 X99.442 Y109.412 E6.368
G1 X101.668 Y107.707 E6.46118
G1 X102.125 Y107.407 E6.47935
G1 X102.519 Y107.217 E6.49388
G1 X105.115 Y106.147 E6.58719
G1 X105.635 Y105.976 E6.60539
G1 X106.06 Y105.895 E6.61976
G1 X108.841 Y105.533 E6.71296
G1 X109.387 Y105.503 E6.73113
G1 X109.82 Y105.535 E6.74556
G1 X112.605 Y105.906 E6.83893
G1 X113.141 Y106.018 E6.85713
G1 X113.549 Y106.16 E6.87148
G1 X116.14 Y107.237 E6.96473
G1 X116.629 Y107.484 E6.98294
G1 X116.989 Y107.729 E6.99741
G1 X119.21 Y109.439 E7.09056
G1 X119.618 Y109.803 E7.10873
G1 X119.9 Y110.13 E7.12308
G1 X121.605 Y112.357 E7.21628
G1 X121.905 Y112.815 E7.23448
G1 X122.094 Y113.208 E7.24897
G1 X123.164 Y115.804 E7.34228
G1 X123.335 Y116.324 E7.36047
G1 X123.416 Y116.749 E7.37485
G1 X123.778 Y119.53 E7.46805
G1 X123.808 Y120.076 E7.48622
G1 X123.776 Y120.508 E7.50062
G1 X123.406 Y123.291 E7.59391
G1 X123.295 Y123.827 E7.6121
G1 X123.151 Y124.237 E7.62655
G1 X122.073 Y126.829 E7.71984
G1 X121.827 Y127.318 E7.73803
G1 X121.583 Y127.676 E7.75242
G1 X119.873 Y129.898 E7.8456
G1 X119.508 Y130.306 E7.86379
G1 X119.181 Y130.588 E7.87814
G1 X116.955 Y132.293 E7.97132
G1 X116.498 Y132.593 E7.98949
G1 X116.104 Y132.783 E8.00403
G1 X113.508 Y133.853 E8.09734
G1 X112.988 Y134.024 E8.11553
G1 X112.563 Y134.105 E8.12991
G1 X109.781 Y134.467 E8.22314
G1 X109.234 Y134.497 E8.24134
G1 X108.803 Y134.465 E8.2557
G1 X106.019 Y134.095 E8.34904
G1 X105.483 Y133.984 E8.36723
G1 X105.072 Y133.84 E8.3817
G1 X102.481 Y132.762 E8.47496
G1 X101.993 Y132.516 E8.49312
G1 X101.634 Y132.271 E8.50756
G1 X99.411 Y130.559 E8.60081
G1 X99.003 Y130.194 E8.619
G1 X98.721 Y129.867 E8.63335
G1 X97.017 Y127.64 E8.72653
G1 X96.717 Y127.182 E8.74473
G1 X96.528 Y126.79 E8.75919
G1 X95.459 Y124.196 E8.85243
G1 X95.288 Y123.676 E8.87062
G1 X95.208 Y123.252 E8.88496
G1 X94.845 Y120.471 E8.97816
G1 X94.813 Y119.925 E8.99634
G1 X94.846 Y119.49 E9.01083
G1 X95.217 Y116.707 E9.10414
G1 X95.329 Y116.172 E9.1223
G1 X95.472 Y115.763 E9.1367
G1 X96.55 Y113.171 E9.22999
G1 X96.796 Y112.682 E9.24818
G1 X97.04 Y112.324 E9.26258
G1 X98.75 Y110.102 E9.35575
G1 X99.115 Y109.694 E9.37395
G0 F2625 X99.488 Y110.029
G1 F900 X99.746 Y109.809 E9.38521
G1 X101.972 Y108.104 E9.4784
G1 X102.399 Y107.827 E9.49531
G1 X102.71 Y107.679 E9.50676
G1 X105.306 Y106.609 E9.60007
G1 X105.79 Y106.453 E9.61697
G1 X106.124 Y106.391 E9.62825
G1 X108.905 Y106.029 E9.72145
G1 X109.414 Y106.003 E9.73839
G1 X109.754 Y106.03 E9.74972
G1 X112.539 Y106.401 E9.84309
G1 X113.037 Y106.508 E9.86002
G1 X113.357 Y106.622 E9.87131
G1 X115.948 Y107.699 E9.96456
G1 X116.402 Y107.931 E9.9815
G1 X116.684 Y108.125 E9.99287
G1 X118.905 Y109.835 E10.08602
G1 X119.283 Y110.176 E10.10294
G1 X119.503 Y110.434 E10.11421
G1 X121.208 Y112.661 E10.20742
G1 X121.485 Y113.089 E10.22436
G1 X121.632 Y113.399 E10.23576
G1 X122.702 Y115.995 E10.32907
G1 X122.858 Y116.479 E10.34597
G1 X122.92 Y116.813 E10.35726
G1 X123.282 Y119.594 E10.45046
G1 X123.308 Y120.103 E10.46739
G1 X123.281 Y120.442 E10.47869
G1 X122.911 Y123.225 E10.57199
G1 X122.804 Y123.724 E10.58895
G1 X122.69 Y124.045 E10.60027
G1 X121.612 Y126.637 E10.69356
G1 X121.38 Y127.091 E10.71051
G1 X121.187 Y127.371 E10.72181
G1 X119.477 Y129.593 E10.81498
G1 X119.135 Y129.971 E10.83192
G1 X118.877 Y130.191 E10.84319
G1 X116.651 Y131.896 E10.93637
G1 X116.224 Y132.173 E10.95329
G1 X115.913 Y132.321 E10.96473
G1 X113.317 Y133.391 E11.05804
G1 X112.833 Y133.547 E11.07494
G1 X112.498 Y133.609 E11.08626
G1 X109.716 Y133.971 E11.17949
G1 X109.208 Y133.997 E11.1964
G1 X108.869 Y133.97 E11.2077
G1 X106.085 Y133.6 E11.30103
G1 X105.587 Y133.493 E11.31796
G1 X105.265 Y133.379 E11.32931
G1 X102.674 Y132.301 E11.42257
G1 X102.22 Y132.069 E11.43951
G1 X101.939 Y131.875 E11.45086
G1 X99.716 Y130.163 E11.5441
G1 X99.338 Y129.821 E11.56104
G1 X99.118 Y129.563 E11.57231
G1 X97.414 Y127.336 E11.6655
G1 X97.137 Y126.908 E11.68244
G1 X96.99 Y126.599 E11.69381
G1 X95.921 Y124.005 E11.78705
G1 X95.765 Y123.52 E11.80398
G1 X95.703 Y123.188 E11.8152
G1 X95.34 Y120.407 E11.90841
G1 X95.314 Y119.898 E11.92534
G1 X95.341 Y119.557 E11.93671
G1 X95.712 Y116.774 E12.03001
G1 X95.819 Y116.275 E12.04697
G1 X95.933 Y115.955 E12.05826
G1 X97.011 Y113.363 E12.15155
G1 X97.243 Y112.909 E12.16849
G1 X97.436 Y112.629 E12.1798
G1 X99.146 Y110.407 E12.27297
G1 X99.488 Y110.029 E12.28991
G0 F2625 X99.859 Y110.366
G1 F900 X100.05 Y110.206 E12.29819
G1 X102.276 Y108.501 E12.39137
G1 X102.671 Y108.249 E12.40694
G1 X102.9 Y108.142 E12.41534
G1 X105.496 Y107.072 E12.50865
G1 X105.943 Y106.93 E12.52424
G1 X106.189 Y106.887 E12.53254
G1 X108.97 Y106.525 E12.62574
G1 X109.438 Y106.504 E12.64131
G1 X109.688 Y106.526 E12.64965
G1 X112.473 Y106.897 E12.74301
G1 X112.931 Y106.998 E12.7586
G1 X113.166 Y107.084 E12.76692
G1 X115.757 Y108.161 E12.86016
G1 X116.172 Y108.377 E12.87571
G1 X116.379 Y108.521 E12.88409
G1 X118.6 Y110.231 E12.97724
G1 X118.945 Y110.547 E12.99279
G1 X119.106 Y110.738 E13.00109
G1 X120.811 Y112.965 E13.0943
G1 X121.063 Y113.36 E13.10987
G1 X121.169 Y113.589 E13.11825
G1 X122.239 Y116.185 E13.21156
G1 X122.381 Y116.632 E13.22715
G1 X122.424 Y116.878 E13.23545
G1 X122.786 Y119.659 E13.32865
G1 X122.807 Y120.127 E13.34421
G1 X122.785 Y120.376 E13.35252
G1 X122.415 Y123.159 E13.44582
G1 X122.314 Y123.617 E13.46141
G1 X122.228 Y123.853 E13.46975
G1 X121.15 Y126.445 E13.56304
G1 X120.934 Y126.861 E13.57862
G1 X120.79 Y127.066 E13.58695
G1 X119.08 Y129.288 E13.68012
G1 X118.764 Y129.634 E13.69569
G1 X118.573 Y129.794 E13.70397
G1 X116.347 Y131.499 E13.79715
G1 X115.952 Y131.751 E13.81272
G1 X115.723 Y131.858 E13.82112
G1 X113.127 Y132.928 E13.91444
G1 X112.68 Y133.07 E13.93002
G1 X112.434 Y133.113 E13.93832
G1 X109.652 Y133.475 E14.03155
G1 X109.184 Y133.496 E14.04712
G1 X108.935 Y133.474 E14.05543
G1 X106.151 Y133.104 E14.14876
G1 X105.693 Y133.003 E14.16434
G1 X105.457 Y132.917 E14.17269
G1 X102.866 Y131.839 E14.26595
G1 X102.45 Y131.623 E14.28153
G1 X102.244 Y131.479 E14.28988
G1 X100.021 Y129.767 E14.38312
G1 X99.676 Y129.45 E14.39869
G1 X99.515 Y129.259 E14.40699
G1 X97.811 Y127.032 E14.50018
G1 X97.559 Y126.637 E14.51575
G1 X97.452 Y126.409 E14.52412
G1 X96.383 Y123.815 E14.61736
G1 X96.242 Y123.368 E14.63293
G1 X96.199 Y123.123 E14.6412
G1 X95.836 Y120.342 E14.7344
G1 X95.815 Y119.874 E14.74997
G1 X95.837 Y119.623 E14.75834
G1 X96.208 Y116.84 E14.85165
G1 X96.309 Y116.382 E14.86723
G1 X96.395 Y116.147 E14.87555
G1 X97.473 Y113.555 E14.96884
G1 X97.689 Y113.139 E14.98442
G1 X97.833 Y112.934 E14.99274
G1 X99.543 Y110.712 E15.08592
G1 X99.859 Y110.366 E15.10149
G0 F2625 X99.939 Y111.017
G1 F900 X100.354 Y110.603 E15.12097
G1 X102.58 Y108.898 E15.21415
G1 X103.091 Y108.604 E15.23374
G1 X105.687 Y107.534 E15.32705
G1 X106.254 Y107.383 E15.34655
G1 X109.035 Y107.021 E15.43975
G1 X109.622 Y107.022 E15.45926
G1 X112.407 Y107.393 E15.55263
G1 X112.974 Y107.545 E15.57213
G1 X115.565 Y108.622 E15.66538
G1 X116.074 Y108.917 E15.68493
G1 X118.295 Y110.627 E15.77808
G1 X118.709 Y111.042 E15.79756
G1 X120.414 Y113.269 E15.89077
G1 X120.707 Y113.78 E15.91034
G1 X121.777 Y116.376 E16.00365
G1 X121.928 Y116.943 E16.02315
G1 X122.29 Y119.724 E16.11635
G1 X122.289 Y120.311 E16.13586
G1 X121.919 Y123.094 E16.22916
G1 X121.766 Y123.661 E16.24867
G1 X120.688 Y126.253 E16.34196
G1 X120.394 Y126.761 E16.36147
G1 X118.684 Y128.983 E16.45465
G1 X118.269 Y129.397 E16.47413
G1 X116.043 Y131.102 E16.56731
G1 X115.532 Y131.396 E16.5869
G1 X112.936 Y132.466 E16.68021
G1 X112.369 Y132.617 E16.69971
G1 X109.587 Y132.979 E16.79294
G1 X109.001 Y132.978 E16.81241
G1 X106.217 Y132.608 E16.90574
G1 X105.649 Y132.455 E16.92529
G1 X103.058 Y131.377 E17.01855
G1 X102.549 Y131.083 E17.03809
G1 X100.326 Y129.371 E17.13133
G1 X99.912 Y128.955 E17.15083
G1 X98.208 Y126.728 E17.24402
G1 X97.915 Y126.218 E17.26357
G1 X96.846 Y123.624 E17.3568
G1 X96.695 Y123.058 E17.37627
G1 X96.332 Y120.277 E17.46947
G1 X96.333 Y119.689 E17.48901
G1 X96.704 Y116.906 E17.58232
G1 X96.857 Y116.339 E17.60183
G1 X97.935 Y113.747 E17.69512
G1 X98.229 Y113.239 E17.71463
G1 X99.939 Y111.017 E17.8078
G0 F2625 X100.335 Y111.322
G1 F900 X100.658 Y111 E17.82296
G1 X102.884 Y109.295 E17.91614
G1 X103.281 Y109.066 E17.93137
G1 X105.877 Y107.996 E18.02468
G1 X106.318 Y107.879 E18.03984
G1 X109.099 Y107.517 E18.13304
G1 X109.556 Y107.517 E18.14823
G1 X112.341 Y107.888 E18.2416
G1 X112.782 Y108.007 E18.25678
G1 X115.373 Y109.084 E18.35002
G1 X115.769 Y109.313 E18.36523
G1 X117.99 Y111.023 E18.45838
G1 X118.312 Y111.346 E18.47353
G1 X120.017 Y113.573 E18.56674
G1 X120.245 Y113.97 E18.58195
G1 X121.315 Y116.566 E18.67526
G1 X121.432 Y117.007 E18.69043
G1 X121.794 Y119.788 E18.78362
G1 X121.794 Y120.245 E18.79881
G1 X121.424 Y123.028 E18.89211
G1 X121.305 Y123.469 E18.90729
G1 X120.227 Y126.061 E19.00058
G1 X119.998 Y126.456 E19.01575
G1 X118.288 Y128.678 E19.10893
G1 X117.965 Y129 E19.12409
G1 X115.739 Y130.705 E19.21727
G1 X115.342 Y130.934 E19.2325
G1 X112.746 Y132.004 E19.32581
G1 X112.305 Y132.121 E19.34097
G1 X109.523 Y132.483 E19.4342
G1 X109.066 Y132.483 E19.44939
G1 X106.282 Y132.113 E19.54272
G1 X105.841 Y131.994 E19.5579
G1 X103.25 Y130.916 E19.65116
G1 X102.854 Y130.686 E19.66638
G1 X100.631 Y128.974 E19.75962
G1 X100.309 Y128.651 E19.77478
G1 X98.605 Y126.424 E19.86796
G1 X98.377 Y126.028 E19.88315
