;Generated by Cura LulzBot Edition GCodeWriter Version: 3.2.27
;FLAVOR:Marlin
;TIME:422
;Filament used: 0.165501m
;Layer height: 0.25
;Generated with Cura_SteamEngine 3.2.27
M82 ;absolute extrusion mode
;This G-Code has been generated specifically for the LulzBot TAZ 6 with standard extruder
M75 ; start GLCD timer
G26 ; clear potential 'probe fail' condition
G21 ; set units to Millimetres
M107 ; disable fans
M420 S0 ; disable previous leveling matrix
G90 ; absolute positioning
M82 ; set extruder to absolute mode
G92 E0 ; set extruder position to 0
M140 S60 ; start bed heating up
M109 R140 ; soften filament before homing Z
G28 ; Home all axis
G1 E-30 F100 ; retract filament
M109 R140 ; wait for extruder to reach wiping temp
G1 X-15 Y100 F3000 ; move above wiper pad
G1 Z1 ; push nozzle into wiper
G1 X-17 Y95 F1000 ; slow wipe
G1 X-17 Y90 F1000 ; slow wipe
G1 X-17 Y85 F1000 ; slow wipe
G1 X-15 Y90 F1000 ; slow wipe
G1 X-17 Y80 F1000 ; slow wipe
G1 X-15 Y95 F1000 ; slow wipe
G1 X-17 Y75 F2000 ; fast wipe
G1 X-15 Y65 F2000 ; fast wipe
G1 X-17 Y70 F2000 ; fast wipe
G1 X-15 Y60 F2000 ; fast wipe
G1 X-17 Y55 F2000 ; fast wipe
G1 X-15 Y50 F2000 ; fast wipe
G1 X-17 Y40 F2000 ; fast wipe
G1 X-15 Y45 F2000 ; fast wipe
G1 X-17 Y35 F2000 ; fast wipe
G1 X-15 Y40 F2000 ; fast wipe
G1 X-17 Y70 F2000 ; fast wipe
G1 X-15 Y30 Z2 F2000 ; fast wipe
G1 X-17 Y35 F2000 ; fast wipe
G1 X-15 Y25 F2000 ; fast wipe
G1 X-17 Y30 F2000 ; fast wipe
G1 X-15 Y25 Z1.5 F1000 ; slow wipe
G1 X-17 Y23 F1000 ; slow wipe
G1 Z10 ; raise extruder
M109 R140 ; wait for extruder to reach probe temp
G1 X-9 Y-9 ; move above first probe point
M204 S100 ; set probing acceleration
G29 ; start auto-leveling sequence
M420 S1 ; activate bed level matrix
M425 Z			     ; use measured Z backlash for compensation
M425 Z F0		     ; turn off measured Z backlash compensation. (if activated in the quality settings, this command will automatically be ignored)
M204 S500 ; restore standard acceleration
G1 X0 Y0 Z15 F5000 ; move up off last probe point
G4 S1 ; pause
M400 ; wait for moves to finish
M117 Heating... ; progress indicator message on LCD
M109 R220 ; wait for extruder to reach printing temp
M190 S60 ; wait for bed to reach printing temp
G1 Z2 E0 F75 ; prime tiny bit of filament into the nozzle
M117 TAZ 6 Printing... ; progress indicator message on LCD

M221 S100
;LAYER_COUNT:20
;LAYER:0
M107
G0 F2625 X138.973 Y114.869 Z0.424
;TYPE:WALL-INNER
G1 F900 X139.407 Y114.893 E0.01444
G1 X139.917 Y114.95 E0.0315
G1 X140.332 Y115.022 E0.0455
G1 X140.879 Y115.148 E0.06415
G1 X141.305 Y115.27 E0.07888
G1 X141.792 Y115.445 E0.09607
G1 X142.233 Y115.629 E0.11195
G1 X142.605 Y115.812 E0.12573
G1 X143.084 Y116.076 E0.14391
G1 X143.238 Y116.171 E0.14992
G1 X143.978 Y116.697 E0.18009
G1 X144.22 Y116.893 E0.19044
G1 X144.949 Y117.592 E0.224
G1 X145.167 Y117.84 E0.23498
G1 X145.479 Y118.225 E0.25144
G1 X145.858 Y118.769 E0.27348
G1 X146.261 Y119.465 E0.3002
G1 X146.602 Y120.211 E0.32746
G1 X146.769 Y120.666 E0.34357
G1 X146.862 Y120.964 E0.35394
G1 X147.054 Y121.756 E0.38102
G1 X147.169 Y122.551 E0.40772
G1 X147.208 Y123.364 E0.43477
G1 X147.169 Y124.172 E0.46165
G1 X147.054 Y124.972 E0.48851
G1 X146.864 Y125.759 E0.51541
G1 X146.776 Y126.039 E0.52517
G1 X146.6 Y126.522 E0.54225
G1 X146.261 Y127.262 E0.5693
G1 X145.847 Y127.979 E0.59681
G1 X145.494 Y128.483 E0.61726
G1 X145.167 Y128.887 E0.63454
G1 X144.948 Y129.136 E0.64556
G1 X144.261 Y129.799 E0.67728
G1 X144.023 Y129.997 E0.68757
G1 X143.348 Y130.485 E0.71525
G1 X143.098 Y130.642 E0.72506
G1 X142.711 Y130.862 E0.73986
G1 X142.178 Y131.125 E0.75961
G1 X141.681 Y131.327 E0.77744
G1 X141.277 Y131.466 E0.79163
G1 X140.786 Y131.605 E0.80859
G1 X140.334 Y131.706 E0.82398
G1 X139.917 Y131.778 E0.83805
G1 X139.407 Y131.835 E0.8551
G1 X138.973 Y131.859 E0.86954
G1 X138.484 Y131.861 E0.8858
G1 X138.079 Y131.84 E0.89927
G1 X137.503 Y131.777 E0.91853
G1 X136.631 Y131.605 E0.94806
G1 X136.231 Y131.493 E0.96187
G1 X135.747 Y131.332 E0.97882
G1 X135.269 Y131.134 E0.99601
G1 X134.748 Y130.883 E1.01523
G1 X134.066 Y130.483 E1.04151
G1 X133.869 Y130.351 E1.04939
G1 X133.544 Y130.114 E1.06275
G1 X133.143 Y129.788 E1.07993
G1 X132.952 Y129.617 E1.08845
G1 X132.605 Y129.28 E1.10452
G1 X132.249 Y128.887 E1.12214
G1 X132.037 Y128.629 E1.13324
G1 X131.558 Y127.958 E1.16064
G1 X131.123 Y127.199 E1.18971
G1 X130.82 Y126.529 E1.21415
G1 X130.554 Y125.759 E1.24122
G1 X130.362 Y124.967 E1.2683
G1 X130.249 Y124.176 E1.29486
G1 X130.21 Y123.364 E1.32187
G1 X130.249 Y122.549 E1.34899
G1 X130.362 Y121.761 E1.37544
G1 X130.555 Y120.963 E1.40272
G1 X130.818 Y120.204 E1.42942
G1 X131.156 Y119.465 E1.45642
G1 X131.555 Y118.774 E1.48294
G1 X132.042 Y118.091 E1.51082
G1 X132.239 Y117.851 E1.52114
G1 X132.606 Y117.448 E1.53925
G1 X132.958 Y117.104 E1.55561
G1 X133.151 Y116.932 E1.5642
G1 X133.532 Y116.623 E1.5805
G1 X133.885 Y116.365 E1.59503
G1 X134.158 Y116.186 E1.60588
G1 X134.797 Y115.818 E1.63038
G1 X135.175 Y115.634 E1.64435
G1 X135.73 Y115.404 E1.66432
G1 X136.125 Y115.267 E1.67821
G1 X136.617 Y115.125 E1.69523
G1 X137.561 Y114.944 E1.72717
G1 X138.076 Y114.889 E1.74438
G1 X138.486 Y114.867 E1.75803
G1 X138.973 Y114.869 E1.77421
G0 F2625 X138.971 Y114.968
G0 X141.85 Y122.393
G0 X142.007 Y123.392
G0 X141.86 Y124.31
G0 X141.617 Y124.899
G0 X141.083 Y125.649
G0 X140.253 Y126.266
G0 X139.988 Y126.384
G0 X138.691 Y126.725
G0 X138.693 Y126.626
G1 F900 X139.387 Y126.515 E1.79757
G1 X139.771 Y126.44 E1.81057
G1 X140.234 Y126.232 E1.82744
G1 X140.556 Y126.016 E1.84032
G1 X141.055 Y125.622 E1.86145
G1 X141.367 Y125.202 E1.87884
G1 X141.582 Y124.881 E1.89168
G1 X141.822 Y124.3 E1.91257
G1 X141.893 Y123.761 E1.93064
G1 X141.968 Y123.391 E1.94318
G1 X141.891 Y122.788 E1.96338
G1 X141.812 Y122.404 E1.97641
G1 X141.576 Y121.831 E1.997
G1 X141.285 Y121.439 E2.01323
G1 X141.071 Y121.118 E2.02605
G1 X140.557 Y120.713 E2.0478
G1 X140.235 Y120.497 E2.06068
G1 X139.759 Y120.284 E2.07801
G1 X139.124 Y120.183 E2.09938
G1 X138.767 Y120.111 E2.11148
G1 X138.44 Y120.125 E2.12236
G1 X137.658 Y120.286 E2.14889
G1 X137.167 Y120.502 E2.16672
G1 X136.762 Y120.813 E2.18369
G1 X136.424 Y121.04 E2.19722
G1 X136.03 Y121.551 E2.21866
G1 X135.949 Y121.704 E2.22441
G1 X135.759 Y121.988 E2.23577
G1 X135.593 Y122.444 E2.25189
G1 X135.525 Y122.962 E2.26926
G1 X135.45 Y123.337 E2.28197
G1 X135.527 Y123.939 E2.30213
G1 X135.601 Y124.307 E2.31461
G1 X135.745 Y124.703 E2.32861
G1 X135.855 Y124.91 E2.3364
G1 X136.053 Y125.206 E2.34824
G1 X136.408 Y125.668 E2.3676
G1 X136.871 Y126.022 E2.38697
G1 X137.188 Y126.235 E2.39966
G1 X137.656 Y126.44 E2.41664
G1 X138.149 Y126.543 E2.43337
G1 X138.329 Y126.552 E2.43936
G1 X138.693 Y126.626 E2.45171
G0 F2625 X138.704 Y126.118
;TYPE:WALL-OUTER
G1 F900 X139.299 Y126.023 E2.47173
G1 X139.618 Y125.96 E2.48254
G1 X139.991 Y125.793 E2.49612
G1 X140.261 Y125.612 E2.50692
G1 X140.693 Y125.271 E2.52521
G1 X140.958 Y124.914 E2.53999
G1 X141.139 Y124.644 E2.55079
G1 X141.335 Y124.17 E2.56783
G1 X141.399 Y123.684 E2.58412
G1 X141.462 Y123.373 E2.59467
G1 X141.397 Y122.87 E2.61152
G1 X141.332 Y122.551 E2.62234
G1 X141.137 Y122.079 E2.63931
G1 X140.877 Y121.728 E2.65383
G1 X140.699 Y121.462 E2.66447
G1 X140.262 Y121.117 E2.68297
G1 X139.992 Y120.936 E2.69377
G1 X139.615 Y120.767 E2.7075
G1 X139.04 Y120.676 E2.72685
G1 X138.728 Y120.613 E2.73742
G1 X138.502 Y120.623 E2.74494
G1 X137.811 Y120.765 E2.76838
G1 X137.424 Y120.935 E2.78243
G1 X137.048 Y121.224 E2.79819
G1 X136.77 Y121.41 E2.80931
G1 X136.453 Y121.822 E2.82658
G1 X136.382 Y121.957 E2.83165
G1 X136.208 Y122.216 E2.84202
G1 X136.082 Y122.563 E2.85429
G1 X136.02 Y123.036 E2.87014
G1 X135.956 Y123.355 E2.88095
G1 X136.021 Y123.858 E2.89781
G1 X136.084 Y124.172 E2.90845
G1 X136.203 Y124.499 E2.92002
G1 X136.285 Y124.653 E2.92581
G1 X136.46 Y124.915 E2.93628
G1 X136.764 Y125.311 E2.95287
G1 X137.162 Y125.615 E2.96952
G1 X137.43 Y125.795 E2.98025
G1 X137.809 Y125.961 E2.994
G1 X138.213 Y126.046 E3.00772
G1 X138.393 Y126.055 E3.01371
G1 X138.704 Y126.118 E3.02425
G0 F2625 X138.951 Y126.079
G0 X139.045 Y126.671
G0 X140.315 Y131.608
G0 X140.426 Y132.198
G1 F900 X139.99 Y132.273 E3.03895
G1 X139.456 Y132.333 E3.05681
G1 X138.982 Y132.359 E3.07259
G1 X138.478 Y132.361 E3.08933
G1 X138.035 Y132.338 E3.10408
G1 X137.421 Y132.271 E3.1246
G1 X136.522 Y132.094 E3.15505
G1 X136.089 Y131.972 E3.17
G1 X135.569 Y131.799 E3.18821
G1 X135.056 Y131.587 E3.20666
G1 X134.52 Y131.329 E3.22643
G1 X133.804 Y130.909 E3.25401
G1 X133.574 Y130.755 E3.26321
G1 X133.249 Y130.518 E3.27658
G1 X132.809 Y130.161 E3.29541
G1 X132.618 Y129.99 E3.30393
G1 X132.247 Y129.629 E3.32113
G1 X131.867 Y129.21 E3.33993
G1 X131.643 Y128.938 E3.35164
G1 X131.136 Y128.227 E3.38066
G1 X130.68 Y127.43 E3.41117
G1 X130.352 Y126.706 E3.43759
G1 X130.074 Y125.902 E3.46586
G1 X129.87 Y125.062 E3.49458
G1 X129.751 Y124.228 E3.52258
G1 X129.71 Y123.364 E3.55132
G1 X129.751 Y122.497 E3.58017
G1 X129.87 Y121.666 E3.60807
G1 X130.074 Y120.826 E3.63679
G1 X130.356 Y120.012 E3.66542
G1 X130.71 Y119.238 E3.6937
G1 X131.133 Y118.505 E3.72183
G1 X131.643 Y117.79 E3.75101
G1 X131.869 Y117.515 E3.76284
G1 X132.248 Y117.098 E3.78157
G1 X132.618 Y116.738 E3.79872
G1 X132.818 Y116.559 E3.80764
G1 X133.237 Y116.219 E3.82558
G1 X133.59 Y115.961 E3.84011
G1 X133.892 Y115.763 E3.85211
G1 X134.578 Y115.368 E3.87841
G1 X134.967 Y115.179 E3.89279
G1 X135.542 Y114.94 E3.91348
G1 X135.975 Y114.79 E3.92871
G1 X136.502 Y114.638 E3.94693
G1 X137.486 Y114.449 E3.98023
G1 X138.034 Y114.391 E3.99855
G1 X138.478 Y114.367 E4.01332
G1 X138.982 Y114.369 E4.03007
G1 X139.456 Y114.395 E4.04585
G1 X139.99 Y114.455 E4.0637
G1 X140.425 Y114.53 E4.07837
G1 X141.013 Y114.666 E4.09843
G1 X141.459 Y114.794 E4.11385
G1 X141.971 Y114.978 E4.13193
G1 X142.442 Y115.174 E4.14888
G1 X142.826 Y115.363 E4.16311
G1 X143.334 Y115.643 E4.18238
G1 X143.528 Y115.763 E4.18996
G1 X144.268 Y116.289 E4.22013
G1 X144.553 Y116.52 E4.23233
G1 X145.306 Y117.242 E4.26699
G1 X145.555 Y117.525 E4.27952
G1 X145.88 Y117.926 E4.29667
G1 X146.281 Y118.501 E4.31997
G1 X146.707 Y119.238 E4.34826
G1 X147.061 Y120.012 E4.37654
G1 X147.246 Y120.517 E4.39442
G1 X147.345 Y120.833 E4.40542
G1 X147.546 Y121.665 E4.43386
G1 X147.667 Y122.497 E4.4618
G1 X147.708 Y123.364 E4.49065
G1 X147.667 Y124.226 E4.51933
G1 X147.546 Y125.063 E4.54743
G1 X147.345 Y125.895 E4.57588
G1 X147.246 Y126.21 E4.58685
G1 X147.062 Y126.714 E4.60468
G1 X146.707 Y127.489 E4.63301
G1 X146.268 Y128.249 E4.66217
G1 X145.883 Y128.798 E4.68446
G1 X145.556 Y129.202 E4.70173
G1 X145.306 Y129.486 E4.7143
G1 X144.595 Y130.172 E4.74714
G1 X144.331 Y130.391 E4.75854
G1 X143.63 Y130.898 E4.78729
G1 X143.345 Y131.077 E4.79847
G1 X142.956 Y131.298 E4.81334
G1 X142.376 Y131.584 E4.83483
G1 X141.859 Y131.795 E4.85338
G1 X141.424 Y131.944 E4.86867
G1 X140.911 Y132.09 E4.88639
G1 X140.426 Y132.198 E4.9029
G0 F2625 X140.18 Y132.24
G0 X140.079 Y131.649
G0 X139.852 Y131.292
;TYPE:SKIN
G1 F900 X139.37 Y131.346 E4.91902
G1 X138.946 Y131.369 E4.93313
G1 X138.508 Y131.371 E4.94769
G1 X138.121 Y131.35 E4.96057
G1 X137.558 Y131.289 E4.97939
G1 X136.757 Y131.131 E5.00652
G1 X136.375 Y131.024 E5.0197
G1 X135.921 Y130.873 E5.0356
G1 X135.461 Y130.683 E5.05214
G1 X134.979 Y130.451 E5.06992
G1 X134.334 Y130.072 E5.09478
G1 X134.141 Y129.943 E5.10249
G1 X133.843 Y129.726 E5.11474
G1 X133.461 Y129.415 E5.13111
G1 X133.279 Y129.252 E5.13923
G1 X132.964 Y128.945 E5.15385
G1 X132.615 Y128.561 E5.17109
G1 X132.42 Y128.325 E5.18127
G1 X131.974 Y127.699 E5.20681
G1 X131.564 Y126.984 E5.2342
G1 X131.273 Y126.341 E5.25766
G1 X131.025 Y125.622 E5.28293
G1 X130.843 Y124.873 E5.30855
G1 X130.738 Y124.136 E5.33328
G1 X130.702 Y123.364 E5.35897
G1 X130.738 Y122.585 E5.38488
G1 X130.843 Y121.854 E5.40943
G1 X131.025 Y121.104 E5.43507
G1 X131.276 Y120.38 E5.46054
G1 X131.591 Y119.691 E5.48571
G1 X131.965 Y119.043 E5.51058
G1 X132.431 Y118.389 E5.53726
G1 X132.617 Y118.163 E5.54699
G1 X132.949 Y117.799 E5.56336
G1 X133.301 Y117.455 E5.57972
G1 X133.468 Y117.306 E5.58716
G1 X133.822 Y117.019 E5.6023
G1 X134.165 Y116.768 E5.61643
G1 X134.415 Y116.604 E5.62636
G1 X135.037 Y116.246 E5.65021
G1 X135.372 Y116.083 E5.66259
G1 X135.911 Y115.86 E5.68198
G1 X136.278 Y115.732 E5.69489
G1 X136.724 Y115.604 E5.71031
G1 X137.633 Y115.43 E5.74107
G1 X138.116 Y115.379 E5.75721
G1 X138.51 Y115.357 E5.77032
G1 X138.946 Y115.359 E5.78481
G1 X139.37 Y115.382 E5.79892
G1 X139.852 Y115.436 E5.81504
G1 X140.222 Y115.5 E5.82752
G1 X140.761 Y115.624 E5.8459
G1 X141.155 Y115.736 E5.85951
G1 X141.615 Y115.902 E5.87576
G1 X142.031 Y116.075 E5.89074
G1 X142.368 Y116.241 E5.90322
G1 X142.847 Y116.505 E5.9214
G1 X142.958 Y116.574 E5.92574
G1 X143.694 Y117.097 E5.95574
G1 X143.894 Y117.258 E5.96428
G1 X144.587 Y117.924 E5.99622
G1 X144.799 Y118.164 E6.00686
G1 X145.077 Y118.505 E6.02148
G1 X145.446 Y119.034 E6.04291
G1 X145.826 Y119.692 E6.06817
G1 X146.145 Y120.389 E6.09364
G1 X146.301 Y120.811 E6.10859
G1 X146.394 Y121.109 E6.11896
G1 X146.574 Y121.854 E6.14443
G1 X146.679 Y122.574 E6.16861
G1 X146.716 Y123.363 E6.19486
G1 X146.68 Y124.126 E6.22025
G1 X146.572 Y124.879 E6.24553
G1 X146.392 Y125.628 E6.27113
G1 X146.315 Y125.871 E6.2796
G1 X146.147 Y126.334 E6.29597
G1 X145.832 Y127.024 E6.32117
G1 X145.433 Y127.716 E6.34772
G1 X145.094 Y128.199 E6.36733
G1 X144.799 Y128.564 E6.38292
G1 X144.602 Y128.788 E6.39284
G1 X143.926 Y129.44 E6.42405
G1 X143.721 Y129.611 E6.43292
G1 X143.08 Y130.075 E6.45922
G1 X142.837 Y130.227 E6.46874
G1 X142.484 Y130.429 E6.48226
G1 X141.98 Y130.677 E6.50092
G1 X141.509 Y130.868 E6.51781
G1 X141.143 Y130.994 E6.53068
G1 X140.652 Y131.133 E6.54764
G1 X140.228 Y131.228 E6.56208
G1 X139.852 Y131.292 E6.57475
G0 F2625 X139.473 Y126.997
G1 F900 X139.92 Y126.91 E6.58988
G1 X140.473 Y126.662 E6.61003
G1 X140.844 Y126.412 E6.62489
G1 X141.41 Y125.967 E6.64882
G1 X141.767 Y125.484 E6.66878
G1 X142.017 Y125.113 E6.68365
G1 X142.3 Y124.428 E6.70828
G1 X142.379 Y123.825 E6.72849
G1 X142.464 Y123.409 E6.7426
G1 X142.375 Y122.708 E6.76608
G1 X142.282 Y122.26 E6.78128
G1 X142.006 Y121.588 E6.80543
G1 X141.679 Y121.147 E6.82367
G1 X141.436 Y120.781 E6.83827
G1 X140.845 Y120.317 E6.86324
G1 X140.474 Y120.067 E6.87811
G1 X139.9 Y119.81 E6.89901
G1 X139.201 Y119.699 E6.92253
G1 X138.806 Y119.619 E6.93592
G1 X138.38 Y119.637 E6.95009
G1 X137.509 Y119.816 E6.97964
G1 X136.916 Y120.077 E7.00117
G1 X136.489 Y120.406 E7.01908
G1 X136.085 Y120.678 E7.03527
G1 X135.616 Y121.285 E7.06076
G1 X135.529 Y121.451 E7.06699
G1 X135.318 Y121.765 E7.07956
G1 X135.115 Y122.327 E7.09942
G1 X135.039 Y122.894 E7.11843
G1 X134.954 Y123.32 E7.13287
G1 X135.043 Y124.019 E7.15628
G1 X135.128 Y124.44 E7.17055
G1 X135.296 Y124.903 E7.18692
G1 X135.434 Y125.161 E7.19665
G1 X135.655 Y125.492 E7.20987
G1 X136.059 Y126.018 E7.23191
G1 X136.585 Y126.42 E7.25391
G1 X136.951 Y126.666 E7.26857
G1 X137.505 Y126.909 E7.28867
G1 X138.086 Y127.031 E7.3084
G1 X138.272 Y127.04 E7.31459
G1 X138.683 Y127.124 E7.32853
G1 X139.473 Y126.997 E7.35512
G0 F2625 X131.708 Y126.758
G1 F900 X135.311 Y130.361 E7.52445
G1 X135.399 Y130.449
G0 F2625 X136.475 Y130.818
G1 F900 X131.253 Y125.596 E7.76987
G1 X131.165 Y125.508
G0 F2625 X131.041 Y124.677
G1 F900 X137.39 Y131.026 E8.06825
G1 X137.478 Y131.114
G0 F2625 X138.198 Y131.127
G1 F900 X130.95 Y123.879 E8.40889
G1 X130.862 Y123.791
G0 F2625 X130.936 Y123.158
G1 F900 X138.922 Y131.144 E8.78421
G1 X139.01 Y131.232
G0 F2625 X139.581 Y131.096
G1 F900 X130.976 Y122.491 E9.18862
G1 X130.888 Y122.403
G0 F2625 X131.067 Y121.875
G1 F900 X140.196 Y131.004 E9.61766
G1 X140.284 Y131.092
G0 F2625 X140.765 Y130.865
G1 F900 X136.602 Y126.702 E9.81331
G1 X136.514 Y126.614
G0 F2625 X137.81 Y127.204
G1 F900 X141.305 Y130.698 E9.97754
G1 X141.393 Y130.786
G0 F2625 X141.813 Y130.5
G1 F900 X138.664 Y127.35 E10.12555
G1 X138.576 Y127.262
G0 F2625 X139.277 Y127.256
G1 F900 X142.292 Y130.271 E10.26725
G1 X142.38 Y130.359
G0 F2625 X142.745 Y130.017
G1 F900 X139.875 Y127.147 E10.40213
G1 X139.787 Y127.059
G0 F2625 X140.383 Y126.948
G1 F900 X143.167 Y129.732 E10.53297
