;Generated by Cura LulzBot Edition GCodeWriter Version: 3.2.27
;FLAVOR:Marlin
;TIME:202
;Filament used: 0.0917246m
;Layer height: 0.38
;Generated with Cura_SteamEngine 3.2.27
M82 ;absolute extrusion mode
;This G-Code has been generated specifically for the LulzBot TAZ 6 with standard extruder
M75 ; start GLCD timer
G26 ; clear potential 'probe fail' condition
G21 ; set units to Millimetres
M107 ; disable fans
M420 S0 ; disable previous leveling matrix
G90 ; absolute positioning
M82 ; set extruder to absolute mode
G92 E0 ; set extruder position to 0
M140 S60 ; start bed heating up
M109 R140 ; soften filament before homing Z
G28 ; Home all axis
G1 E-30 F100 ; retract filament
M109 R140 ; wait for extruder to reach wiping temp
G1 X-15 Y100 F3000 ; move above wiper pad
G1 Z1 ; push nozzle into wiper
G1 X-17 Y95 F1000 ; slow wipe
G1 X-17 Y90 F1000 ; slow wipe
G1 X-17 Y85 F1000 ; slow wipe
G1 X-15 Y90 F1000 ; slow wipe
G1 X-17 Y80 F1000 ; slow wipe
G1 X-15 Y95 F1000 ; slow wipe
G1 X-17 Y75 F2000 ; fast wipe
G1 X-15 Y65 F2000 ; fast wipe
G1 X-17 Y70 F2000 ; fast wipe
G1 X-15 Y60 F2000 ; fast wipe
G1 X-17 Y55 F2000 ; fast wipe
G1 X-15 Y50 F2000 ; fast wipe
G1 X-17 Y40 F2000 ; fast wipe
G1 X-15 Y45 F2000 ; fast wipe
G1 X-17 Y35 F2000 ; fast wipe
G1 X-15 Y40 F2000 ; fast wipe
G1 X-17 Y70 F2000 ; fast wipe
G1 X-15 Y30 Z2 F2000 ; fast wipe
G1 X-17 Y35 F2000 ; fast wipe
G1 X-15 Y25 F2000 ; fast wipe
G1 X-17 Y30 F2000 ; fast wipe
G1 X-15 Y25 Z1.5 F1000 ; slow wipe
G1 X-17 Y23 F1000 ; slow wipe
G1 Z10 ; raise extruder
M109 R140 ; wait for extruder to reach probe temp
G1 X-9 Y-9 ; move above first probe point
M204 S100 ; set probing acceleration
G29 ; start auto-leveling sequence
M420 S1 ; activate bed level matrix
M425 Z			     ; use measured Z backlash for compensation
M425 Z F0		     ; turn off measured Z backlash compensation. (if activated in the quality settings, this command will automatically be ignored)
M204 S500 ; restore standard acceleration
G1 X0 Y0 Z15 F5000 ; move up off last probe point
G4 S1 ; pause
M400 ; wait for moves to finish
M117 Heating... ; progress indicator message on LCD
M109 R200 ; wait for extruder to reach printing temp
M190 S60 ; wait for bed to reach printing temp
G1 Z2 E0 F75 ; prime tiny bit of filament into the nozzle
M117 TAZ 6 Printing... ; progress indicator message on LCD

M221 S100
;LAYER_COUNT:9
;LAYER:0
M107
G0 F2625 X129.893 Y130.339 Z0.424
;TYPE:SKIRT
G1 F900 X130.304 Y129.932 E0.01922
G1 X131.356 Y129.01 E0.06571
G1 X132.079 Y128.488 E0.09534
G1 X133.75 Y127.505 E0.15977
G1 X134.403 Y127.185 E0.18394
G1 X135.296 Y126.83 E0.21587
G1 X135.877 Y126.641 E0.23617
G1 X137.132 Y126.321 E0.27922
G1 X137.674 Y126.216 E0.29756
G1 X138.725 Y126.075 E0.3328
G1 X139.282 Y126.034 E0.35136
G1 X140.297 Y126.018 E0.3851
G1 X140.89 Y126.045 E0.40482
G1 X142.112 Y126.179 E0.44568
G1 X142.871 Y126.326 E0.47137
G1 X144.637 Y126.819 E0.5323
G1 X145.354 Y127.083 E0.55769
G1 X146.394 Y127.564 E0.59577
G1 X146.987 Y127.891 E0.61827
G1 X148.151 Y128.647 E0.6644
G1 X148.634 Y129.007 E0.68442
G1 X149.432 Y129.683 E0.71917
G1 X149.791 Y130.02 E0.73554
G1 X150.461 Y130.719 E0.76771
G1 X150.845 Y131.173 E0.78747
G1 X151.579 Y132.161 E0.82838
G1 X151.968 Y132.778 E0.85261
G1 X152.7 Y134.166 E0.90476
G1 X152.935 Y134.687 E0.92376
G1 X153.233 Y135.467 E0.9515
G1 X153.394 Y135.968 E0.96899
G1 X153.637 Y136.904 E1.00113
G1 X153.76 Y137.573 E1.02373
G1 X153.956 Y139.337 E1.08271
G1 X153.97 Y140.237 E1.11263
G1 X153.833 Y141.969 E1.17036
G1 X153.745 Y142.578 E1.19081
G1 X153.669 Y142.886 E1.20136
G1 X153.149 Y144.726 E1.2649
G1 X152.909 Y145.386 E1.28824
G1 X152.626 Y146.014 E1.31113
G1 X152.391 Y146.467 E1.32809
G1 X151.671 Y147.693 E1.37533
G1 X151.282 Y148.258 E1.39813
G1 X150.496 Y149.239 E1.4399
G1 X150.078 Y149.696 E1.46049
G1 X149.259 Y150.482 E1.49821
G1 X148.726 Y150.924 E1.52122
G1 X147.488 Y151.806 E1.57173
G1 X146.697 Y152.261 E1.60206
G1 X144.84 Y153.105 E1.66985
G1 X144.157 Y153.355 E1.69402
G1 X143.358 Y153.579 E1.72159
G1 X142.871 Y153.688 E1.73818
G1 X141.828 Y153.865 E1.77333
G1 X141.229 Y153.928 E1.79335
G1 X139.923 Y153.982 E1.83679
G1 X139.325 Y153.969 E1.85666
G1 X138.3 Y153.882 E1.89085
G1 X137.609 Y153.772 E1.9141
G1 X135.98 Y153.387 E1.96973
G1 X135.209 Y153.133 E1.9967
G1 X133.847 Y152.552 E2.04591
G1 X133.266 Y152.255 E2.0676
G1 X132.32 Y151.687 E2.10427
G1 X131.872 Y151.382 E2.12228
G1 X131.126 Y150.809 E2.15354
G1 X130.599 Y150.339 E2.177
G1 X129.313 Y149.005 E2.23858
G1 X128.81 Y148.387 E2.26506
G1 X128.134 Y147.397 E2.3049
G1 X127.733 Y146.684 E2.33208
G1 X126.912 Y144.878 E2.39801
G1 X126.654 Y144.164 E2.42324
G1 X126.378 Y143.154 E2.45803
G1 X126.242 Y142.452 E2.4818
G1 X126.052 Y140.822 E2.53633
G1 X126.03 Y139.958 E2.56505
G1 X126.147 Y138.19 E2.62394
G1 X126.293 Y137.297 E2.65401
G1 X126.733 Y135.623 E2.71153
G1 X126.957 Y134.969 E2.7345
G1 X127.351 Y134.044 E2.76791
G1 X127.701 Y133.375 E2.793
G1 X128.728 Y131.743 E2.85708
G1 X129.206 Y131.108 E2.88349
G1 X129.893 Y130.339 E2.91776
G0 F2625 X130.266 Y130.673
G1 F900 X130.634 Y130.308 E2.93499
G1 X131.686 Y129.386 E2.98147
G1 X132.332 Y128.919 E3.00796
G1 X134.003 Y127.936 E3.07239
G1 X134.588 Y127.65 E3.09403
G1 X135.481 Y127.295 E3.12597
G1 X136.001 Y127.126 E3.14414
G1 X137.256 Y126.806 E3.18718
G1 X137.741 Y126.712 E3.20359
G1 X138.792 Y126.571 E3.23883
G1 X139.29 Y126.534 E3.25543
G1 X140.305 Y126.518 E3.28916
G1 X140.835 Y126.542 E3.30679
G1 X142.057 Y126.676 E3.34765
G1 X142.737 Y126.808 E3.37067
G1 X144.503 Y127.301 E3.4316
G1 X145.144 Y127.537 E3.4543
G1 X146.184 Y128.018 E3.49238
G1 X146.715 Y128.311 E3.51253
G1 X147.879 Y129.067 E3.55866
G1 X148.311 Y129.388 E3.57654
G1 X149.109 Y130.064 E3.6113
G1 X149.43 Y130.366 E3.62594
G1 X150.1 Y131.065 E3.65812
G1 X150.444 Y131.471 E3.6758
G1 X151.178 Y132.459 E3.71671
G1 X151.525 Y133.011 E3.73837
G1 X152.257 Y134.399 E3.79052
G1 X152.468 Y134.865 E3.80752
G1 X152.766 Y135.645 E3.83527
G1 X152.91 Y136.094 E3.85094
G1 X153.153 Y137.03 E3.88307
G1 X153.263 Y137.629 E3.90331
G1 X153.459 Y139.393 E3.9623
G1 X153.472 Y140.197 E3.98902
G1 X153.335 Y141.929 E4.04676
G1 X153.188 Y142.75 E4.07447
G1 X152.668 Y144.59 E4.13801
G1 X152.453 Y145.18 E4.15888
G1 X152.17 Y145.808 E4.18177
G1 X151.96 Y146.214 E4.19696
G1 X151.24 Y147.44 E4.24421
G1 X150.892 Y147.945 E4.26459
G1 X150.106 Y148.926 E4.30637
G1 X149.732 Y149.335 E4.32478
G1 X148.913 Y150.121 E4.36251
G1 X148.436 Y150.516 E4.38309
G1 X147.198 Y151.398 E4.4336
G1 X146.491 Y151.806 E4.46073
G1 X144.634 Y152.65 E4.52852
G1 X144.022 Y152.873 E4.55016
G1 X143.223 Y153.097 E4.57774
G1 X142.787 Y153.195 E4.59259
G1 X141.744 Y153.372 E4.62775
G1 X141.209 Y153.428 E4.64562
G1 X139.903 Y153.482 E4.68906
G1 X139.368 Y153.471 E4.70684
G1 X138.343 Y153.384 E4.74103
G1 X137.724 Y153.285 E4.76186
G1 X136.095 Y152.9 E4.81749
G1 X135.405 Y152.673 E4.84163
G1 X134.043 Y152.092 E4.89083
G1 X133.523 Y151.827 E4.91023
G1 X132.577 Y151.259 E4.9469
G1 X132.176 Y150.985 E4.96304
G1 X131.43 Y150.412 E4.9943
G1 X130.959 Y149.992 E5.01527
G1 X129.673 Y148.658 E5.07685
G1 X129.223 Y148.105 E5.10054
G1 X128.547 Y147.115 E5.14038
G1 X128.188 Y146.477 E5.16471
G1 X127.367 Y144.671 E5.23063
G1 X127.136 Y144.032 E5.25321
G1 X126.86 Y143.022 E5.28801
G1 X126.739 Y142.394 E5.30926
G1 X126.549 Y140.764 E5.3638
G1 X126.529 Y139.991 E5.38949
G1 X126.646 Y138.223 E5.44838
G1 X126.777 Y137.424 E5.47528
G1 X127.217 Y135.75 E5.5328
G1 X127.417 Y135.165 E5.55335
G1 X127.811 Y134.24 E5.58676
G1 X128.124 Y133.641 E5.60922
G1 X129.151 Y132.009 E5.6733
G1 X129.579 Y131.442 E5.69691
G1 X130.266 Y130.673 E5.73118
G0 F2625 X130.638 Y131.006
G1 F900 X130.963 Y130.684 E5.74638
G1 X132.015 Y129.762 E5.79287
G1 X132.586 Y129.35 E5.81627
G1 X134.257 Y128.367 E5.88069
G1 X134.773 Y128.114 E5.89979
G1 X135.666 Y127.759 E5.93172
G1 X136.124 Y127.61 E5.94773
G1 X137.379 Y127.29 E5.99077
G1 X137.807 Y127.207 E6.00526
G1 X138.858 Y127.066 E6.0405
G1 X139.298 Y127.033 E6.05516
G1 X140.313 Y127.017 E6.0889
G1 X140.781 Y127.039 E6.10447
G1 X142.003 Y127.173 E6.14532
G1 X142.602 Y127.289 E6.16559
G1 X144.368 Y127.782 E6.22653
G1 X144.934 Y127.99 E6.24657
G1 X145.974 Y128.471 E6.28464
G1 X146.443 Y128.73 E6.30245
G1 X147.607 Y129.486 E6.34857
G1 X147.988 Y129.77 E6.36437
G1 X148.786 Y130.446 E6.39912
G1 X149.069 Y130.712 E6.41203
G1 X149.739 Y131.411 E6.4442
G1 X150.042 Y131.77 E6.45982
G1 X150.776 Y132.758 E6.50072
G1 X151.083 Y133.245 E6.51985
G1 X151.815 Y134.633 E6.572
G1 X152.001 Y135.044 E6.58699
G1 X152.299 Y135.824 E6.61474
G1 X152.426 Y136.22 E6.62856
G1 X152.669 Y137.156 E6.66069
G1 X152.766 Y137.684 E6.67853
G1 X152.962 Y139.448 E6.73752
G1 X152.973 Y140.158 E6.76111
G1 X152.836 Y141.89 E6.81885
G1 X152.707 Y142.614 E6.84329
G1 X152.187 Y144.454 E6.90683
G1 X151.997 Y144.975 E6.92526
G1 X151.714 Y145.603 E6.94815
G1 X151.529 Y145.961 E6.96154
G1 X150.809 Y147.187 E7.00879
G1 X150.502 Y147.633 E7.02679
G1 X149.716 Y148.614 E7.06856
G1 X149.386 Y148.975 E7.08481
G1 X148.567 Y149.761 E7.12254
G1 X148.146 Y150.109 E7.14069
G1 X146.908 Y150.991 E7.1912
G1 X146.284 Y151.351 E7.21514
G1 X144.427 Y152.195 E7.28293
G1 X143.887 Y152.392 E7.30203
G1 X143.088 Y152.616 E7.32961
G1 X142.703 Y152.702 E7.34272
G1 X141.66 Y152.879 E7.37787
G1 X141.188 Y152.929 E7.39365
G1 X139.882 Y152.983 E7.43709
G1 X139.41 Y152.973 E7.45277
G1 X138.385 Y152.886 E7.48696
G1 X137.839 Y152.798 E7.50534
G1 X136.21 Y152.413 E7.56096
G1 X135.602 Y152.213 E7.58223
G1 X134.24 Y151.632 E7.63144
G1 X133.781 Y151.398 E7.64856
G1 X132.835 Y150.83 E7.68523
G1 X132.481 Y150.589 E7.69946
G1 X131.735 Y150.016 E7.73072
G1 X131.319 Y149.645 E7.74925
G1 X130.033 Y148.311 E7.81082
G1 X129.636 Y147.823 E7.83173
G1 X128.96 Y146.833 E7.87157
G1 X128.643 Y146.27 E7.89304
G1 X127.822 Y144.464 E7.95897
G1 X127.619 Y143.901 E7.97886
G1 X127.343 Y142.891 E8.01365
G1 X127.235 Y142.336 E8.03244
G1 X127.045 Y140.706 E8.08698
G1 X127.028 Y140.024 E8.10965
G1 X127.145 Y138.256 E8.16853
G1 X127.26 Y137.551 E8.19227
G1 X127.7 Y135.877 E8.24979
G1 X127.877 Y135.36 E8.26795
G1 X128.271 Y134.435 E8.30136
G1 X128.547 Y133.908 E8.32113
G1 X129.574 Y132.276 E8.38521
G1 X129.951 Y131.775 E8.40605
G1 X130.638 Y131.006 E8.44031
G0 F2625 X131.011 Y131.339
G1 F900 X131.293 Y131.06 E8.4535
G1 X132.345 Y130.138 E8.49998
G1 X132.839 Y129.781 E8.52024
G1 X134.51 Y128.798 E8.58466
G1 X134.957 Y128.579 E8.60121
G1 X135.85 Y128.224 E8.63314
G1 X136.248 Y128.095 E8.64704
G1 X137.503 Y127.775 E8.69009
G1 X137.874 Y127.703 E8.70264
G1 X138.925 Y127.562 E8.73788
G1 X139.306 Y127.533 E8.75058
G1 X140.321 Y127.517 E8.78432
G1 X140.726 Y127.536 E8.79779
G1 X141.948 Y127.67 E8.83864
G1 X142.468 Y127.771 E8.85625
G1 X144.234 Y128.264 E8.91718
G1 X144.724 Y128.444 E8.93453
G1 X145.764 Y128.925 E8.9726
G1 X146.17 Y129.149 E8.98801
G1 X147.334 Y129.905 E9.03414
G1 X147.665 Y130.151 E9.04784
G1 X148.463 Y130.827 E9.0826
G1 X148.708 Y131.058 E9.09379
G1 X149.378 Y131.757 E9.12597
G1 X149.641 Y132.068 E9.1395
G1 X150.375 Y133.056 E9.1804
G1 X150.641 Y133.478 E9.19698
G1 X151.373 Y134.866 E9.24913
G1 X151.534 Y135.222 E9.26211
G1 X151.832 Y136.002 E9.28986
G1 X151.942 Y136.345 E9.30183
G1 X152.185 Y137.281 E9.33397
G1 X152.269 Y137.739 E9.34944
G1 X152.465 Y139.503 E9.40842
G1 X152.475 Y140.118 E9.42886
G1 X152.338 Y141.85 E9.4866
G1 X152.226 Y142.478 E9.5078
G1 X151.706 Y144.318 E9.57134
G1 X151.541 Y144.769 E9.5873
G1 X151.258 Y145.397 E9.61019
G1 X151.097 Y145.708 E9.62183
G1 X150.377 Y146.934 E9.66908
G1 X150.111 Y147.32 E9.68466
G1 X149.325 Y148.301 E9.72643
G1 X149.039 Y148.614 E9.74052
G1 X148.22 Y149.4 E9.77824
G1 X147.856 Y149.702 E9.79396
G1 X146.618 Y150.584 E9.84448
G1 X146.077 Y150.896 E9.86523
G1 X144.22 Y151.74 E9.93302
G1 X143.752 Y151.91 E9.94956
G1 X142.953 Y152.134 E9.97714
G1 X142.62 Y152.209 E9.98848
G1 X141.577 Y152.386 E10.02364
G1 X141.167 Y152.429 E10.03734
G1 X139.861 Y152.483 E10.08078
G1 X139.452 Y152.474 E10.09437
G1 X138.427 Y152.387 E10.12856
G1 X137.954 Y152.312 E10.14447
G1 X136.325 Y151.927 E10.2001
G1 X135.798 Y151.753 E10.21854
G1 X134.436 Y151.172 E10.26775
G1 X134.038 Y150.969 E10.2826
G1 X133.092 Y150.401 E10.31927
G1 X132.785 Y150.192 E10.33161
G1 X132.039 Y149.619 E10.36287
G1 X131.679 Y149.298 E10.3789
G1 X130.393 Y147.964 E10.44048
G1 X130.049 Y147.541 E10.45859
G1 X129.373 Y146.551 E10.49843
G1 X129.098 Y146.063 E10.51705
G1 X128.277 Y144.257 E10.58297
G1 X128.101 Y143.769 E10.60021
G1 X127.825 Y142.759 E10.63501
G1 X127.732 Y142.278 E10.65129
G1 X127.542 Y140.648 E10.70582
G1 X127.527 Y140.057 E10.72547
G1 X127.644 Y138.289 E10.78435
G1 X127.744 Y137.678 E10.80493
G1 X128.184 Y136.004 E10.86245
G1 X128.337 Y135.556 E10.87818
G1 X128.731 Y134.631 E10.91159
G1 X128.97 Y134.174 E10.92873
G1 X129.997 Y132.542 E10.99281
G1 X130.324 Y132.108 E11.01087
G1 X131.011 Y131.339 E11.04514
G1 F600 E10.04514
G0 F2625 X136.452 Y130.745
G0 X137.002 Y132.067
G0 X140.648 Y131.625
G0 X140.655 Y131.526
;TYPE:WALL-INNER
G1 F600 E11.04514
G1 F900 X141.149 Y131.579 E11.06165
G1 X141.676 Y131.668 E11.07941
G1 X142.161 Y131.781 E11.09596
G1 X142.576 Y131.9 E11.11031
G1 X143.076 Y132.078 E11.12794
G1 X143.518 Y132.263 E11.14387
G1 X143.906 Y132.452 E11.15821
G1 X144.381 Y132.716 E11.17627
G1 X144.554 Y132.823 E11.18303
G1 X145.261 Y133.328 E11.2119
G1 X145.536 Y133.551 E11.22367
G1 X146.231 Y134.22 E11.25572
G1 X146.451 Y134.468 E11.26674
G1 X146.842 Y134.96 E11.28763
G1 X147.145 Y135.398 E11.30533
G1 X147.557 Y136.109 E11.33263
G1 X147.891 Y136.842 E11.3594
G1 X148.06 Y137.302 E11.37569
G1 X148.152 Y137.597 E11.38596
G1 X148.347 Y138.397 E11.41332
G1 X148.46 Y139.185 E11.43978
G1 X148.499 Y140 E11.46689
G1 X148.46 Y140.812 E11.49391
G1 X148.347 Y141.603 E11.52046
G1 X148.154 Y142.398 E11.54765
G1 X148.067 Y142.675 E11.55729
G1 X147.891 Y143.158 E11.57438
G1 X147.555 Y143.894 E11.60127
G1 X147.134 Y144.621 E11.62918
G1 X146.79 Y145.112 E11.64911
G1 X146.447 Y145.538 E11.66728
G1 X146.243 Y145.769 E11.67752
G1 X145.554 Y146.434 E11.70935
G1 X145.313 Y146.634 E11.71975
G1 X144.631 Y147.127 E11.74772
G1 X144.39 Y147.278 E11.75717
G1 X144.005 Y147.496 E11.77187
G1 X143.459 Y147.764 E11.79209
G1 X142.982 Y147.958 E11.8092
G1 X142.564 Y148.104 E11.82391
G1 X142.084 Y148.239 E11.84048
G1 X141.626 Y148.342 E11.85608
G1 X141.209 Y148.414 E11.87015
G1 X140.698 Y148.471 E11.88723
G1 X140.258 Y148.495 E11.90188
G1 X139.776 Y148.497 E11.91789
G1 X139.361 Y148.475 E11.9317
G1 X138.792 Y148.413 E11.95073
G1 X137.925 Y148.243 E11.98009
G1 X137.507 Y148.124 E11.99453
G1 X137.028 Y147.963 E12.01132
G1 X136.533 Y147.758 E12.02913
G1 X136.053 Y147.526 E12.04684
G1 X135.369 Y147.126 E12.07318
G1 X135.156 Y146.984 E12.08168
G1 X134.83 Y146.746 E12.0951
G1 X134.435 Y146.425 E12.11201
G1 X134.244 Y146.253 E12.12055
G1 X133.897 Y145.915 E12.13665
G1 X133.549 Y145.534 E12.1538
G1 X133.328 Y145.267 E12.16532
G1 X132.85 Y144.595 E12.19272
G1 X132.417 Y143.839 E12.22167
G1 X132.109 Y143.156 E12.24657
G1 X131.847 Y142.397 E12.27326
G1 X131.652 Y141.6 E12.30052
G1 X131.54 Y140.812 E12.32697
G1 X131.501 Y140 E12.35399
G1 X131.54 Y139.185 E12.3811
G1 X131.652 Y138.4 E12.40746
G1 X131.848 Y137.597 E12.43492
G1 X132.112 Y136.836 E12.46169
G1 X132.445 Y136.104 E12.48842
G1 X132.844 Y135.412 E12.51496
G1 X133.328 Y134.733 E12.54267
G1 X133.55 Y134.465 E12.55424
G1 X133.899 Y134.083 E12.57143
G1 X134.251 Y133.74 E12.58777
G1 X134.436 Y133.573 E12.59605
G1 X134.825 Y133.258 E12.61268
G1 X135.158 Y133.015 E12.62638
G1 X135.448 Y132.824 E12.63792
G1 X136.089 Y132.454 E12.66252
G1 X136.478 Y132.265 E12.67689
G1 X136.995 Y132.049 E12.69551
G1 X137.438 Y131.896 E12.71108
G1 X137.907 Y131.761 E12.7273
G1 X138.849 Y131.58 E12.75918
G1 X139.254 Y131.537 E12.77271
G1 X139.763 Y131.505 E12.78966
G1 X140.182 Y131.503 E12.80359
G1 X140.655 Y131.526 E12.81932
G0 F2625 X140.648 Y131.625
G0 X143.216 Y139.376
G0 X143.298 Y140.028
G0 X143.158 Y140.927
G0 X142.899 Y141.554
G0 X142.378 Y142.282
G0 X141.563 Y142.893
G0 X141.159 Y143.073
G0 X139.983 Y143.361
G0 X139.985 Y143.262
