;Generated by Cura LulzBot Edition GCodeWriter Version: 3.2.27
;FLAVOR:Marlin
;TIME:481
;Filament used: 0.188681m
;Layer height: 0.25
;Generated with Cura_SteamEngine 3.2.27
M82 ;absolute extrusion mode
;This G-Code has been generated specifically for the LulzBot TAZ 6 with standard extruder
M75 ; start GLCD timer
G26 ; clear potential 'probe fail' condition
G21 ; set units to Millimetres
M107 ; disable fans
M420 S0 ; disable previous leveling matrix
G90 ; absolute positioning
M82 ; set extruder to absolute mode
G92 E0 ; set extruder position to 0
M140 S60 ; start bed heating up
M109 R140 ; soften filament before homing Z
G28 ; Home all axis
G1 E-30 F100 ; retract filament
M109 R140 ; wait for extruder to reach wiping temp
G1 X-15 Y100 F3000 ; move above wiper pad
G1 Z1 ; push nozzle into wiper
G1 X-17 Y95 F1000 ; slow wipe
G1 X-17 Y90 F1000 ; slow wipe
G1 X-17 Y85 F1000 ; slow wipe
G1 X-15 Y90 F1000 ; slow wipe
G1 X-17 Y80 F1000 ; slow wipe
G1 X-15 Y95 F1000 ; slow wipe
G1 X-17 Y75 F2000 ; fast wipe
G1 X-15 Y65 F2000 ; fast wipe
G1 X-17 Y70 F2000 ; fast wipe
G1 X-15 Y60 F2000 ; fast wipe
G1 X-17 Y55 F2000 ; fast wipe
G1 X-15 Y50 F2000 ; fast wipe
G1 X-17 Y40 F2000 ; fast wipe
G1 X-15 Y45 F2000 ; fast wipe
G1 X-17 Y35 F2000 ; fast wipe
G1 X-15 Y40 F2000 ; fast wipe
G1 X-17 Y70 F2000 ; fast wipe
G1 X-15 Y30 Z2 F2000 ; fast wipe
G1 X-17 Y35 F2000 ; fast wipe
G1 X-15 Y25 F2000 ; fast wipe
G1 X-17 Y30 F2000 ; fast wipe
G1 X-15 Y25 Z1.5 F1000 ; slow wipe
G1 X-17 Y23 F1000 ; slow wipe
G1 Z10 ; raise extruder
M109 R140 ; wait for extruder to reach probe temp
G1 X-9 Y-9 ; move above first probe point
M204 S100 ; set probing acceleration
G29 ; start auto-leveling sequence
M420 S1 ; activate bed level matrix
M425 Z			     ; use measured Z backlash for compensation
M425 Z F0		     ; turn off measured Z backlash compensation. (if activated in the quality settings, this command will automatically be ignored)
M204 S500 ; restore standard acceleration
G1 X0 Y0 Z15 F5000 ; move up off last probe point
G4 S1 ; pause
M400 ; wait for moves to finish
M117 Heating... ; progress indicator message on LCD
M109 R220 ; wait for extruder to reach printing temp
M190 S60 ; wait for bed to reach printing temp
G1 Z2 E0 F75 ; prime tiny bit of filament into the nozzle
M117 TAZ 6 Printing... ; progress indicator message on LCD

M221 S100
;LAYER_COUNT:20
;LAYER:0
M107
G0 F2625 X136.847 Y106.401 Z0.424
;TYPE:SKIRT
G1 F900 X137.11 Y106.067 E0.01413
G1 X138.313 Y104.806 E0.07204
G1 X138.561 Y104.582 E0.08315
G1 X139.362 Y103.96 E0.11685
G1 X139.586 Y103.807 E0.12587
G1 X140.593 Y103.204 E0.16487
G1 X140.833 Y103.079 E0.17386
G1 X141.832 Y102.634 E0.21021
G1 X142.075 Y102.542 E0.21884
G1 X143.067 Y102.231 E0.25339
G1 X143.317 Y102.168 E0.26196
G1 X144.325 Y101.975 E0.29607
G1 X144.563 Y101.943 E0.30405
G1 X145.581 Y101.859 E0.33799
G1 X145.898 Y101.855 E0.34853
G1 X147.452 Y101.946 E0.40026
G1 X147.757 Y101.985 E0.41048
G1 X148.702 Y102.172 E0.44249
G1 X148.936 Y102.231 E0.45051
G1 X149.909 Y102.535 E0.48438
G1 X150.167 Y102.634 E0.49357
G1 X151.283 Y103.14 E0.53429
G1 X151.501 Y103.253 E0.54245
G1 X152.2 Y103.667 E0.56945
G1 X152.405 Y103.804 E0.57764
G1 X153.407 Y104.557 E0.61929
G1 X153.641 Y104.76 E0.62959
G1 X154.534 Y105.647 E0.67142
G1 X154.744 Y105.888 E0.68204
G1 X155.575 Y106.989 E0.72788
G1 X155.778 Y107.312 E0.74056
G1 X156.58 Y108.866 E0.79867
G1 X156.706 Y109.159 E0.80927
G1 X157 Y110.005 E0.83903
G1 X157.084 Y110.316 E0.84974
G1 X157.415 Y112.023 E0.90752
G1 X157.456 Y112.45 E0.92178
G1 X157.457 Y114.227 E0.98083
G1 X157.417 Y114.652 E0.99502
G1 X157.088 Y116.366 E1.05302
G1 X157.005 Y116.676 E1.06368
G1 X156.713 Y117.522 E1.09342
G1 X156.585 Y117.82 E1.1042
G1 X155.772 Y119.395 E1.1631
G1 X155.577 Y119.707 E1.17533
G1 X154.843 Y120.692 E1.21615
G1 X154.638 Y120.931 E1.22662
G1 X153.658 Y121.921 E1.27291
G1 X153.412 Y122.136 E1.28377
G1 X152.413 Y122.888 E1.32532
G1 X152.139 Y123.064 E1.33614
G1 X150.846 Y123.771 E1.38512
G1 X150.502 Y123.923 E1.39761
G1 X149.007 Y124.44 E1.45018
G1 X148.708 Y124.521 E1.46048
G1 X147.742 Y124.712 E1.4932
G1 X147.5 Y124.747 E1.50133
G1 X146.471 Y124.836 E1.53565
G1 X146.224 Y124.843 E1.54386
G1 X145.251 Y124.82 E1.5762
G1 X144.946 Y124.792 E1.58638
G1 X143.39 Y124.541 E1.63876
G1 X143.083 Y124.469 E1.64924
G1 X142.11 Y124.168 E1.68309
G1 X141.853 Y124.071 E1.69221
G1 X140.767 Y123.583 E1.73178
G1 X140.52 Y123.454 E1.74104
G1 X139.551 Y122.865 E1.77873
G1 X139.262 Y122.655 E1.7906
G1 X137.891 Y121.488 E1.85043
G1 X137.656 Y121.257 E1.86138
G1 X137.039 Y120.552 E1.89251
G1 X136.835 Y120.279 E1.90384
G1 X135.849 Y118.732 E1.9648
G1 X135.654 Y118.351 E1.97903
G1 X135.032 Y116.779 E2.03521
G1 X134.914 Y116.376 E2.04916
G1 X134.583 Y114.654 E2.10744
G1 X134.543 Y114.228 E2.12165
G1 X134.544 Y112.451 E2.18071
G1 X134.585 Y112.023 E2.195
G1 X134.919 Y110.304 E2.25319
G1 X135.039 Y109.898 E2.26726
G1 X135.685 Y108.281 E2.32513
G1 X135.883 Y107.897 E2.33948
G1 X136.847 Y106.401 E2.39863
G0 F2625 X137.267 Y106.672
G1 F900 X137.472 Y106.412 E2.40963
G1 X138.675 Y105.151 E2.46755
G1 X138.868 Y104.977 E2.47618
G1 X139.669 Y104.355 E2.50988
G1 X139.843 Y104.236 E2.51689
G1 X140.85 Y103.633 E2.55589
G1 X141.037 Y103.535 E2.56291
G1 X142.036 Y103.09 E2.59925
G1 X142.224 Y103.019 E2.60593
G1 X143.216 Y102.708 E2.64048
G1 X143.411 Y102.659 E2.64716
G1 X144.419 Y102.466 E2.68127
G1 X144.604 Y102.441 E2.68747
G1 X145.622 Y102.357 E2.72142
G1 X145.868 Y102.354 E2.72959
G1 X147.422 Y102.445 E2.78132
G1 X147.66 Y102.475 E2.78929
G1 X148.605 Y102.662 E2.82131
G1 X148.787 Y102.709 E2.82755
G1 X149.76 Y103.013 E2.86143
G1 X149.961 Y103.089 E2.86857
G1 X151.077 Y103.595 E2.90929
G1 X151.246 Y103.683 E2.91563
G1 X151.945 Y104.097 E2.94262
G1 X152.104 Y104.204 E2.94899
G1 X153.106 Y104.957 E2.99064
G1 X153.288 Y105.114 E2.99863
G1 X154.181 Y106.001 E3.04046
G1 X154.345 Y106.189 E3.04875
G1 X155.176 Y107.29 E3.09459
G1 X155.334 Y107.541 E3.10445
G1 X156.136 Y109.095 E3.16256
G1 X156.234 Y109.324 E3.17084
G1 X156.528 Y110.17 E3.2006
G1 X156.593 Y110.411 E3.2089
G1 X156.924 Y112.118 E3.26668
G1 X156.956 Y112.45 E3.27777
G1 X156.957 Y114.227 E3.33682
G1 X156.926 Y114.558 E3.34787
G1 X156.597 Y116.272 E3.40587
G1 X156.532 Y116.513 E3.41416
G1 X156.24 Y117.359 E3.4439
G1 X156.141 Y117.591 E3.45229
G1 X155.328 Y119.166 E3.51119
G1 X155.176 Y119.409 E3.52071
G1 X154.442 Y120.394 E3.56154
G1 X154.283 Y120.579 E3.56964
G1 X153.303 Y121.569 E3.61593
G1 X153.111 Y121.736 E3.62439
G1 X152.112 Y122.488 E3.66594
G1 X151.9 Y122.625 E3.67433
G1 X150.607 Y123.332 E3.72331
G1 X150.339 Y123.451 E3.73305
G1 X148.844 Y123.968 E3.78562
G1 X148.611 Y124.031 E3.79364
G1 X147.645 Y124.222 E3.82636
G1 X147.457 Y124.248 E3.83267
G1 X146.428 Y124.337 E3.86699
G1 X146.236 Y124.344 E3.87338
G1 X145.263 Y124.321 E3.90572
G1 X145.025 Y124.299 E3.91367
G1 X143.469 Y124.048 E3.96604
G1 X143.231 Y123.992 E3.97417
G1 X142.258 Y123.691 E4.00801
G1 X142.058 Y123.615 E4.01512
G1 X140.972 Y123.127 E4.05469
G1 X140.78 Y123.026 E4.0619
G1 X139.811 Y122.437 E4.09958
G1 X139.586 Y122.275 E4.1088
G1 X138.215 Y121.108 E4.16863
G1 X138.032 Y120.928 E4.17716
G1 X137.415 Y120.223 E4.20829
G1 X137.256 Y120.011 E4.2171
G1 X136.27 Y118.464 E4.27806
G1 X136.119 Y118.167 E4.28914
G1 X135.497 Y116.595 E4.34532
G1 X135.405 Y116.281 E4.35619
G1 X135.074 Y114.559 E4.41446
G1 X135.043 Y114.228 E4.42551
G1 X135.044 Y112.451 E4.48457
G1 X135.076 Y112.118 E4.49568
G1 X135.41 Y110.399 E4.55388
G1 X135.503 Y110.084 E4.56479
G1 X136.149 Y108.467 E4.62266
G1 X136.303 Y108.168 E4.63383
G1 X137.267 Y106.672 E4.69298
G0 F2625 X137.687 Y106.943
G1 F900 X137.834 Y106.757 E4.70086
G1 X139.037 Y105.496 E4.75877
G1 X139.174 Y105.372 E4.76491
G1 X139.975 Y104.75 E4.79862
G1 X140.1 Y104.665 E4.80364
G1 X141.107 Y104.062 E4.84264
G1 X141.24 Y103.992 E4.84764
G1 X142.239 Y103.547 E4.88398
G1 X142.374 Y103.496 E4.88878
G1 X143.366 Y103.185 E4.92333
G1 X143.505 Y103.15 E4.92809
G1 X144.513 Y102.957 E4.9622
G1 X144.645 Y102.939 E4.96662
G1 X145.663 Y102.855 E5.00057
G1 X145.839 Y102.853 E5.00642
G1 X147.393 Y102.944 E5.05815
G1 X147.563 Y102.966 E5.06385
G1 X148.508 Y103.153 E5.09586
G1 X148.638 Y103.186 E5.10032
G1 X149.611 Y103.49 E5.13419
G1 X149.754 Y103.545 E5.13928
G1 X150.87 Y104.051 E5.18
G1 X150.991 Y104.113 E5.18452
G1 X151.69 Y104.527 E5.21152
G1 X151.804 Y104.604 E5.21609
G1 X152.806 Y105.357 E5.25774
G1 X152.936 Y105.469 E5.26345
G1 X153.829 Y106.356 E5.30527
G1 X153.946 Y106.49 E5.31119
G1 X154.777 Y107.591 E5.35703
G1 X154.89 Y107.771 E5.36409
G1 X155.692 Y109.325 E5.4222
G1 X155.762 Y109.488 E5.4281
G1 X156.056 Y110.334 E5.45786
G1 X156.102 Y110.506 E5.46378
G1 X156.433 Y112.213 E5.52156
G1 X156.456 Y112.45 E5.52948
G1 X156.457 Y114.227 E5.58853
G1 X156.435 Y114.464 E5.59644
G1 X156.106 Y116.178 E5.65444
G1 X156.06 Y116.35 E5.66036
G1 X155.768 Y117.196 E5.6901
G1 X155.697 Y117.361 E5.69607
G1 X154.884 Y118.936 E5.75497
G1 X154.775 Y119.11 E5.76179
G1 X154.041 Y120.095 E5.80261
G1 X153.927 Y120.227 E5.80841
G1 X152.947 Y121.217 E5.8547
G1 X152.811 Y121.337 E5.86073
G1 X151.812 Y122.089 E5.90228
G1 X151.66 Y122.187 E5.90829
G1 X150.367 Y122.894 E5.95727
G1 X150.176 Y122.978 E5.9642
G1 X148.681 Y123.495 E6.01677
G1 X148.514 Y123.54 E6.02252
G1 X147.548 Y123.731 E6.05524
G1 X147.414 Y123.75 E6.05974
G1 X146.385 Y123.839 E6.09406
G1 X146.247 Y123.844 E6.09865
G1 X145.274 Y123.821 E6.13099
G1 X145.105 Y123.805 E6.13664
G1 X143.549 Y123.554 E6.18901
G1 X143.379 Y123.514 E6.19482
G1 X142.406 Y123.213 E6.22866
G1 X142.263 Y123.159 E6.23374
G1 X141.177 Y122.671 E6.27331
G1 X141.04 Y122.599 E6.27845
G1 X140.071 Y122.01 E6.31614
G1 X139.91 Y121.894 E6.32273
G1 X138.539 Y120.727 E6.38256
G1 X138.408 Y120.598 E6.38867
G1 X137.791 Y119.893 E6.41981
G1 X137.678 Y119.742 E6.42607
G1 X136.692 Y118.195 E6.48704
G1 X136.584 Y117.983 E6.49495
G1 X135.962 Y116.411 E6.55113
G1 X135.896 Y116.187 E6.55889
G1 X135.565 Y114.465 E6.61716
G1 X135.543 Y114.228 E6.62507
G1 X135.544 Y112.451 E6.68412
G1 X135.567 Y112.214 E6.69204
G1 X135.901 Y110.495 E6.75023
G1 X135.967 Y110.269 E6.75805
G1 X136.613 Y108.652 E6.81592
G1 X136.723 Y108.439 E6.82389
G1 X137.687 Y106.943 E6.88303
G0 F2625 X138.108 Y107.214
G1 F900 X138.195 Y107.102 E6.88774
G1 X139.398 Y105.841 E6.94566
G1 X139.481 Y105.767 E6.94935
G1 X140.282 Y105.145 E6.98306
G1 X140.357 Y105.094 E6.98607
G1 X141.364 Y104.491 E7.02508
G1 X141.444 Y104.449 E7.02808
G1 X142.443 Y104.004 E7.06442
G1 X142.524 Y103.973 E7.0673
G1 X143.516 Y103.662 E7.10185
G1 X143.599 Y103.641 E7.1047
G1 X144.607 Y103.448 E7.1388
G1 X144.686 Y103.438 E7.14145
G1 X145.704 Y103.354 E7.1754
G1 X145.81 Y103.352 E7.17892
G1 X147.364 Y103.443 E7.23065
G1 X147.466 Y103.456 E7.23407
G1 X148.411 Y103.643 E7.26608
G1 X148.489 Y103.663 E7.26876
G1 X149.462 Y103.967 E7.30263
G1 X149.548 Y104 E7.30569
G1 X150.664 Y104.506 E7.34641
G1 X150.736 Y104.544 E7.34912
G1 X151.435 Y104.958 E7.37612
G1 X151.504 Y105.003 E7.37885
G1 X152.506 Y105.756 E7.42051
G1 X152.584 Y105.824 E7.42395
G1 X153.477 Y106.711 E7.46577
G1 X153.547 Y106.791 E7.46931
G1 X154.378 Y107.892 E7.51515
G1 X154.445 Y108 E7.51937
G1 X155.247 Y109.554 E7.57749
G1 X155.289 Y109.652 E7.58103
G1 X155.583 Y110.498 E7.61079
G1 X155.611 Y110.601 E7.61434
G1 X155.942 Y112.308 E7.67212
G1 X155.956 Y112.451 E7.6769
G1 X155.957 Y114.228 E7.73595
G1 X155.944 Y114.369 E7.74066
G1 X155.615 Y116.083 E7.79866
G1 X155.587 Y116.187 E7.80224
G1 X155.295 Y117.033 E7.83198
G1 X155.252 Y117.132 E7.83556
G1 X154.439 Y118.707 E7.89447
G1 X154.374 Y118.811 E7.89854
G1 X153.64 Y119.796 E7.93936
G1 X153.572 Y119.876 E7.94285
G1 X152.592 Y120.866 E7.98915
G1 X152.51 Y120.937 E7.99275
G1 X151.511 Y121.689 E8.0343
G1 X151.42 Y121.748 E8.03791
G1 X150.127 Y122.455 E8.08688
G1 X150.012 Y122.506 E8.09106
G1 X148.517 Y123.023 E8.14363
G1 X148.417 Y123.05 E8.14707
G1 X147.451 Y123.241 E8.1798
G1 X147.371 Y123.252 E8.18248
G1 X146.342 Y123.341 E8.2168
G1 X146.259 Y123.344 E8.21956
G1 X145.286 Y123.321 E8.25191
G1 X145.185 Y123.311 E8.25528
G1 X143.629 Y123.06 E8.30766
G1 X143.526 Y123.036 E8.31117
G1 X142.553 Y122.735 E8.34502
G1 X142.468 Y122.703 E8.34804
G1 X141.382 Y122.215 E8.3876
G1 X141.299 Y122.172 E8.39071
G1 X140.33 Y121.583 E8.42839
G1 X140.234 Y121.513 E8.43234
G1 X138.863 Y120.346 E8.49217
G1 X138.785 Y120.269 E8.49582
G1 X138.168 Y119.564 E8.52695
G1 X138.1 Y119.473 E8.53072
G1 X137.114 Y117.926 E8.59169
G1 X137.049 Y117.799 E8.59643
G1 X136.427 Y116.227 E8.65261
G1 X136.387 Y116.093 E8.65726
G1 X136.056 Y114.371 E8.71553
G1 X136.043 Y114.229 E8.72027
G1 X136.044 Y112.452 E8.77932
G1 X136.058 Y112.309 E8.7841
G1 X136.392 Y110.59 E8.84229
G1 X136.432 Y110.455 E8.84697
G1 X137.078 Y108.838 E8.90484
G1 X137.144 Y108.71 E8.90962
G1 X138.108 Y107.214 E8.96877
G0 F2625 X138.528 Y107.485
G1 F900 X138.557 Y107.447 E8.97035
G1 X139.76 Y106.186 E9.02827
G1 X139.788 Y106.162 E9.0295
G1 X140.589 Y105.54 E9.0632
G1 X140.614 Y105.523 E9.0642
G1 X141.621 Y104.92 E9.10321
G1 X141.647 Y104.906 E9.10419
G1 X142.646 Y104.461 E9.14053
G1 X142.673 Y104.45 E9.1415
G1 X143.665 Y104.139 E9.17605
G1 X143.693 Y104.132 E9.17701
G1 X144.701 Y103.939 E9.21112
G1 X144.727 Y103.936 E9.21199
G1 X145.745 Y103.852 E9.24593
G1 X145.781 Y103.851 E9.24713
G1 X147.335 Y103.942 E9.29886
G1 X147.369 Y103.947 E9.3
G1 X148.314 Y104.134 E9.33201
G1 X148.34 Y104.14 E9.3329
G1 X149.313 Y104.444 E9.36678
G1 X149.341 Y104.455 E9.36778
G1 X150.457 Y104.961 E9.4085
G1 X150.481 Y104.974 E9.4094
G1 X151.18 Y105.388 E9.4364
G1 X151.203 Y105.403 E9.43731
G1 X152.205 Y106.156 E9.47897
G1 X152.231 Y106.179 E9.48012
G1 X153.124 Y107.066 E9.52195
G1 X153.148 Y107.092 E9.52312
G1 X153.979 Y108.193 E9.56897
G1 X154.001 Y108.229 E9.57037
G1 X154.803 Y109.783 E9.62848
G1 X154.817 Y109.816 E9.62967
G1 X155.111 Y110.662 E9.65944
G1 X155.12 Y110.696 E9.66061
G1 X155.451 Y112.403 E9.71839
G1 X155.456 Y112.451 E9.71999
G1 X155.457 Y114.228 E9.77905
G1 X155.453 Y114.275 E9.78061
G1 X155.124 Y115.989 E9.83861
G1 X155.114 Y116.024 E9.83982
G1 X154.822 Y116.87 E9.86956
G1 X154.808 Y116.903 E9.87076
G1 X153.995 Y118.478 E9.92966
G1 X153.973 Y118.512 E9.931
G1 X153.239 Y119.497 E9.97183
G1 X153.217 Y119.524 E9.97298
G1 X152.237 Y120.514 E10.01928
G1 X152.209 Y120.538 E10.0205
G1 X151.21 Y121.29 E10.06205
G1 X151.18 Y121.309 E10.06324
G1 X149.887 Y122.016 E10.11221
G1 X149.849 Y122.033 E10.11359
G1 X148.354 Y122.55 E10.16616
G1 X148.32 Y122.559 E10.16733
G1 X147.354 Y122.75 E10.20005
G1 X147.328 Y122.754 E10.20093
G1 X146.299 Y122.843 E10.23525
G1 X146.271 Y122.844 E10.23618
G1 X145.298 Y122.821 E10.26852
G1 X145.264 Y122.818 E10.26966
G1 X143.708 Y122.567 E10.32204
G1 X143.674 Y122.559 E10.3232
G1 X142.701 Y122.258 E10.35704
G1 X142.673 Y122.247 E10.35804
G1 X141.587 Y121.759 E10.39761
G1 X141.559 Y121.745 E10.39865
G1 X140.59 Y121.156 E10.43633
G1 X140.558 Y121.132 E10.43766
G1 X139.187 Y119.965 E10.4975
G1 X139.161 Y119.94 E10.49869
G1 X138.544 Y119.235 E10.52983
G1 X138.521 Y119.204 E10.53111
G1 X137.535 Y117.657 E10.59207
G1 X137.514 Y117.615 E10.59363
G1 X136.892 Y116.043 E10.64982
G1 X136.878 Y115.998 E10.65138
G1 X136.547 Y114.276 E10.70966
G1 X136.543 Y114.229 E10.71122
G1 X136.544 Y112.452 E10.77028
G1 X136.549 Y112.404 E10.77188
G1 X136.883 Y110.685 E10.83007
G1 X136.896 Y110.64 E10.83163
G1 X137.542 Y109.023 E10.8895
G1 X137.564 Y108.981 E10.89107
G1 X138.528 Y107.485 E10.95021
G1 F600 E9.95021
G0 F2625 X138.189 Y107.244
G0 X137.655 Y107.994
G0 X137.165 Y108.851
G0 X136.788 Y109.687
G0 X136.487 Y110.553
G0 X136.263 Y111.473
G0 X136.13 Y112.42
G0 X136.087 Y113.369
G0 X136.124 Y114.134
G0 X138.683 Y130.599
G1 F600 E10.95021
G1 F900 X138.935 Y130.593 E10.95859
G1 X139.985 Y130.625 E10.9935
G1 X140.31 Y130.659 E11.00436
G1 X141.812 Y130.926 E11.05506
G1 X142.11 Y131 E11.06526
G1 X143.268 Y131.374 E11.1057
G1 X143.575 Y131.499 E11.11672
G1 X144.802 Y132.107 E11.16222
G1 X145.065 Y132.26 E11.17234
G1 X146.002 Y132.895 E11.20995
G1 X146.277 Y133.115 E11.22165
G1 X147.587 Y134.34 E11.28126
G1 X147.87 Y134.66 E11.29545
