;Generated by Cura LulzBot Edition GCodeWriter Version: 3.2.27
;FLAVOR:Marlin
;TIME:735
;Filament used: 0.228971m
;Layer height: 0.25
;Generated with Cura_SteamEngine 3.2.27
M82 ;absolute extrusion mode
;This G-Code has been generated specifically for the LulzBot TAZ 6 with standard extruder
M75 ; start GLCD timer
G26 ; clear potential 'probe fail' condition
G21 ; set units to Millimetres
M107 ; disable fans
M420 S0 ; disable previous leveling matrix
G90 ; absolute positioning
M82 ; set extruder to absolute mode
G92 E0 ; set extruder position to 0
M140 S60 ; start bed heating up
M109 R140 ; soften filament before homing Z
G28 ; Home all axis
G1 E-30 F100 ; retract filament
M109 R140 ; wait for extruder to reach wiping temp
G1 X-15 Y100 F3000 ; move above wiper pad
G1 Z1 ; push nozzle into wiper
G1 X-17 Y95 F1000 ; slow wipe
G1 X-17 Y90 F1000 ; slow wipe
G1 X-17 Y85 F1000 ; slow wipe
G1 X-15 Y90 F1000 ; slow wipe
G1 X-17 Y80 F1000 ; slow wipe
G1 X-15 Y95 F1000 ; slow wipe
G1 X-17 Y75 F2000 ; fast wipe
G1 X-15 Y65 F2000 ; fast wipe
G1 X-17 Y70 F2000 ; fast wipe
G1 X-15 Y60 F2000 ; fast wipe
G1 X-17 Y55 F2000 ; fast wipe
G1 X-15 Y50 F2000 ; fast wipe
G1 X-17 Y40 F2000 ; fast wipe
G1 X-15 Y45 F2000 ; fast wipe
G1 X-17 Y35 F2000 ; fast wipe
G1 X-15 Y40 F2000 ; fast wipe
G1 X-17 Y70 F2000 ; fast wipe
G1 X-15 Y30 Z2 F2000 ; fast wipe
G1 X-17 Y35 F2000 ; fast wipe
G1 X-15 Y25 F2000 ; fast wipe
G1 X-17 Y30 F2000 ; fast wipe
G1 X-15 Y25 Z1.5 F1000 ; slow wipe
G1 X-17 Y23 F1000 ; slow wipe
G1 Z10 ; raise extruder
M109 R140 ; wait for extruder to reach probe temp
G1 X-9 Y-9 ; move above first probe point
M204 S100 ; set probing acceleration
G29 ; start auto-leveling sequence
M420 S1 ; activate bed level matrix
M425 Z			     ; use measured Z backlash for compensation
M425 Z F0		     ; turn off measured Z backlash compensation. (if activated in the quality settings, this command will automatically be ignored)
M204 S500 ; restore standard acceleration
G1 X0 Y0 Z15 F5000 ; move up off last probe point
G4 S1 ; pause
M400 ; wait for moves to finish
M117 Heating... ; progress indicator message on LCD
M109 R220 ; wait for extruder to reach printing temp
M190 S60 ; wait for bed to reach printing temp
G1 Z2 E0 F75 ; prime tiny bit of filament into the nozzle
M117 TAZ 6 Printing... ; progress indicator message on LCD

M221 S100
;LAYER_COUNT:53
;LAYER:0
M107
G0 F2625 X140.762 Y131.535 Z0.424
;TYPE:WALL-INNER
G1 F900 X141.106 Y131.573 E0.0115
G1 X141.676 Y131.668 E0.0307
G1 X141.988 Y131.738 E0.04133
G1 X142.593 Y131.906 E0.0622
G1 X142.895 Y132.01 E0.07281
G1 X143.456 Y132.234 E0.09289
G1 X144.06 Y132.534 E0.1153
G1 X144.341 Y132.692 E0.12601
G1 X144.704 Y132.924 E0.14033
G1 X145.213 Y133.29 E0.16116
G1 X145.596 Y133.603 E0.1776
G1 X146.27 Y134.262 E0.20892
G1 X146.391 Y134.397 E0.21495
G1 X146.815 Y134.92 E0.23732
G1 X147.201 Y135.488 E0.26015
G1 X147.492 Y135.991 E0.27946
G1 X147.616 Y136.235 E0.28855
G1 X147.856 Y136.762 E0.3078
G1 X148.069 Y137.331 E0.32799
G1 X148.13 Y137.525 E0.33474
G1 X148.198 Y137.774 E0.34332
G1 X148.335 Y138.34 E0.36268
G1 X148.457 Y139.163 E0.39032
G1 X148.499 Y139.999 E0.41814
G1 X148.458 Y140.833 E0.44589
G1 X148.336 Y141.659 E0.47364
G1 X148.204 Y142.207 E0.49237
G1 X148.072 Y142.662 E0.50811
G1 X147.855 Y143.241 E0.52866
G1 X147.615 Y143.77 E0.54797
G1 X147.503 Y143.99 E0.55617
G1 X147.207 Y144.502 E0.57582
G1 X146.826 Y145.064 E0.59839
G1 X146.381 Y145.614 E0.6219
G1 X146.271 Y145.737 E0.62738
G1 X145.591 Y146.4 E0.65894
G1 X145.224 Y146.702 E0.67474
G1 X144.709 Y147.072 E0.69581
G1 X144.342 Y147.307 E0.71029
G1 X144.061 Y147.465 E0.72101
G1 X143.457 Y147.765 E0.74342
G1 X142.896 Y147.989 E0.76349
G1 X142.594 Y148.093 E0.77411
G1 X141.989 Y148.261 E0.79497
G1 X141.677 Y148.331 E0.8056
G1 X141.107 Y148.426 E0.8248
G1 X140.763 Y148.464 E0.8363
G1 X140.159 Y148.497 E0.85641
G1 X139.853 Y148.499 E0.86657
G1 X139.255 Y148.466 E0.88648
G1 X138.892 Y148.426 E0.89861
G1 X138.631 Y148.384 E0.9074
G1 X138.015 Y148.264 E0.92825
G1 X137.419 Y148.098 E0.94882
G1 X137.126 Y147.997 E0.95911
G1 X136.489 Y147.74 E0.98194
G1 X135.975 Y147.484 E1.00102
G1 X135.516 Y147.219 E1.01864
G1 X135.12 Y146.958 E1.0344
G1 X134.857 Y146.766 E1.04522
G1 X134.379 Y146.375 E1.06574
G1 X134.278 Y146.285 E1.07024
G1 X133.836 Y145.849 E1.09087
G1 X133.613 Y145.607 E1.10181
G1 X133.263 Y145.179 E1.12018
G1 X132.919 Y144.697 E1.13986
G1 X132.79 Y144.497 E1.14777
G1 X132.477 Y143.951 E1.16868
G1 X132.365 Y143.731 E1.17689
G1 X132.144 Y143.239 E1.19481
G1 X132.055 Y143.01 E1.20297
G1 X131.866 Y142.462 E1.22224
G1 X131.799 Y142.213 E1.23081
G1 X131.665 Y141.66 E1.24972
G1 X131.543 Y140.833 E1.2775
G1 X131.501 Y139.999 E1.30525
G1 X131.542 Y139.167 E1.33293
G1 X131.664 Y138.341 E1.36068
G1 X131.865 Y137.539 E1.38815
G1 X132.055 Y136.989 E1.40749
G1 X132.143 Y136.763 E1.41555
G1 X132.378 Y136.245 E1.43445
G1 X132.498 Y136.008 E1.44328
G1 X132.791 Y135.5 E1.46277
G1 X132.93 Y135.287 E1.47122
G1 X133.266 Y134.815 E1.49048
G1 X133.612 Y134.395 E1.50856
G1 X133.837 Y134.15 E1.51961
G1 X134.271 Y133.722 E1.53987
G1 X134.853 Y133.237 E1.56505
G1 X135.119 Y133.042 E1.57601
G1 X135.516 Y132.782 E1.59178
G1 X135.974 Y132.517 E1.60936
G1 X136.488 Y132.261 E1.62844
G1 X137.13 Y132.002 E1.65145
G1 X137.418 Y131.903 E1.66157
G1 X138.019 Y131.735 E1.68231
G1 X138.676 Y131.609 E1.70454
G1 X138.937 Y131.568 E1.71332
G1 X139.249 Y131.535 E1.72375
G1 X139.853 Y131.502 E1.74385
G1 X140.158 Y131.502 E1.75398
G1 X140.762 Y131.535 E1.77409
G0 F2625 X140.754 Y131.634
G0 X142.977 Y139.464
G0 X143.048 Y140.026
G0 X142.912 Y140.872
G0 X142.686 Y141.42
G0 X142.115 Y142.189
G0 X141.455 Y142.667
G0 X141.223 Y142.774
G0 X139.97 Y143.109
G0 X139.973 Y143.01
G1 F900 X140.567 Y142.932 E1.794
G1 X140.725 Y142.884 E1.79948
G1 X141.031 Y142.822 E1.80986
G1 X141.435 Y142.633 E1.82468
G1 X141.818 Y142.342 E1.84067
G1 X142.089 Y142.159 E1.85153
G1 X142.315 Y141.904 E1.86286
G1 X142.651 Y141.402 E1.88293
G1 X142.874 Y140.862 E1.90235
G1 X142.94 Y140.372 E1.91878
G1 X143.009 Y140.025 E1.93053
G1 X142.938 Y139.47 E1.94913
G1 X142.865 Y139.116 E1.96114
G1 X142.654 Y138.601 E1.97963
G1 X142.308 Y138.081 E2.00039
G1 X141.724 Y137.565 E2.02629
G1 X141.416 Y137.359 E2.0386
G1 X141.037 Y137.18 E2.05253
G1 X140.051 Y136.997 E2.08586
G1 X139.731 Y137.012 E2.0965
G1 X139.373 Y137.085 E2.10865
G1 X138.628 Y137.331 E2.13472
G1 X138.183 Y137.621 E2.15237
G1 X137.815 Y137.938 E2.16851
G1 X137.546 Y138.303 E2.18358
G1 X137.348 Y138.598 E2.19539
G1 X137.125 Y139.139 E2.21483
G1 X137.059 Y139.634 E2.23143
G1 X136.991 Y139.974 E2.24295
G1 X137.062 Y140.53 E2.26158
G1 X137.135 Y140.884 E2.27359
G1 X137.356 Y141.422 E2.29292
G1 X137.656 Y141.815 E2.30935
G1 X137.848 Y142.101 E2.32079
G1 X138.202 Y142.392 E2.33602
G1 X138.603 Y142.653 E2.35192
G1 X139.118 Y142.867 E2.37046
G1 X139.481 Y142.936 E2.38274
G1 X139.65 Y142.944 E2.38836
G1 X139.973 Y143.01 E2.39931
G0 F2625 X139.991 Y142.503
;TYPE:WALL-OUTER
G1 F900 X140.461 Y142.442 E2.41506
G1 X140.601 Y142.399 E2.41993
G1 X140.873 Y142.344 E2.42915
G1 X141.175 Y142.203 E2.44023
G1 X141.524 Y141.937 E2.45481
G1 X141.757 Y141.78 E2.46415
G1 X141.918 Y141.598 E2.47222
G1 X142.208 Y141.165 E2.48954
G1 X142.387 Y140.731 E2.50514
G1 X142.447 Y140.29 E2.51993
G1 X142.503 Y140.008 E2.52949
G1 X142.444 Y139.552 E2.54477
G1 X142.385 Y139.262 E2.5546
G1 X142.21 Y138.837 E2.56988
G1 X141.928 Y138.412 E2.58683
G1 X141.418 Y137.962 E2.60943
G1 X141.169 Y137.795 E2.61939
G1 X140.882 Y137.66 E2.62993
G1 X140.017 Y137.499 E2.65917
G1 X139.793 Y137.51 E2.66663
G1 X139.501 Y137.569 E2.67653
G1 X138.846 Y137.785 E2.69945
G1 X138.484 Y138.021 E2.71381
G1 X138.184 Y138.28 E2.72698
G1 X137.955 Y138.591 E2.73981
G1 X137.791 Y138.835 E2.74958
G1 X137.612 Y139.269 E2.76518
G1 X137.554 Y139.706 E2.77983
G1 X137.497 Y139.991 E2.78949
G1 X137.556 Y140.448 E2.8048
G1 X137.615 Y140.738 E2.81464
G1 X137.793 Y141.171 E2.8302
G1 X138.063 Y141.524 E2.84497
G1 X138.222 Y141.761 E2.85445
G1 X138.498 Y141.988 E2.86633
G1 X138.837 Y142.209 E2.87977
G1 X139.262 Y142.385 E2.89506
G1 X139.541 Y142.438 E2.9045
G1 X139.714 Y142.447 E2.91025
G1 X139.991 Y142.503 E2.91965
G0 F2625 X140.239 Y142.471
G0 X140.316 Y143.066
G0 X146.305 Y145.55
G0 X146.77 Y145.929
G1 F900 X146.632 Y146.083 E2.92652
G1 X145.929 Y146.769 E2.95916
G1 X145.521 Y147.104 E2.9767
G1 X144.997 Y147.481 E2.99816
G1 X144.592 Y147.74 E3.01413
G1 X144.297 Y147.906 E3.02538
G1 X143.662 Y148.221 E3.04894
G1 X143.063 Y148.461 E3.07038
G1 X142.743 Y148.571 E3.08163
G1 X142.116 Y148.745 E3.10325
G1 X141.777 Y148.821 E3.1148
G1 X141.171 Y148.922 E3.13521
G1 X140.81 Y148.962 E3.14728
G1 X140.168 Y148.997 E3.16865
G1 X139.844 Y148.999 E3.17942
G1 X139.211 Y148.964 E3.20048
G1 X138.818 Y148.921 E3.21362
G1 X138.543 Y148.877 E3.22288
G1 X137.9 Y148.751 E3.24465
G1 X137.27 Y148.576 E3.26638
G1 X136.951 Y148.466 E3.27759
G1 X136.282 Y148.196 E3.30157
G1 X135.744 Y147.928 E3.32154
G1 X135.248 Y147.641 E3.34059
G1 X134.837 Y147.371 E3.35693
G1 X134.551 Y147.162 E3.3687
G1 X134.062 Y146.762 E3.38969
G1 X133.938 Y146.652 E3.3952
G1 X133.47 Y146.19 E3.41706
G1 X133.236 Y145.936 E3.42853
G1 X132.87 Y145.489 E3.44773
G1 X132.512 Y144.987 E3.46822
G1 X132.36 Y144.753 E3.4775
G1 X132.043 Y144.199 E3.49871
G1 X131.911 Y143.94 E3.50837
G1 X131.683 Y143.433 E3.52684
G1 X131.583 Y143.175 E3.53604
G1 X131.388 Y142.61 E3.5559
G1 X131.316 Y142.343 E3.56509
G1 X131.173 Y141.75 E3.58536
G1 X131.046 Y140.89 E3.61425
G1 X131.001 Y139.999 E3.6439
G1 X131.045 Y139.111 E3.67344
G1 X131.172 Y138.251 E3.70233
G1 X131.315 Y137.658 E3.72261
G1 X131.387 Y137.391 E3.7318
G1 X131.582 Y136.826 E3.75166
G1 X131.682 Y136.569 E3.76082
G1 X131.932 Y136.019 E3.7809
G1 X132.058 Y135.771 E3.79014
G1 X132.366 Y135.237 E3.81063
G1 X132.511 Y135.014 E3.81947
G1 X132.872 Y134.507 E3.84015
G1 X133.237 Y134.063 E3.85925
G1 X133.469 Y133.811 E3.87064
G1 X133.934 Y133.352 E3.89235
G1 X134.55 Y132.839 E3.91899
G1 X134.836 Y132.63 E3.93076
G1 X135.248 Y132.359 E3.94715
G1 X135.743 Y132.073 E3.96615
G1 X136.281 Y131.805 E3.98612
G1 X136.95 Y131.535 E4.0101
G1 X137.269 Y131.425 E4.02131
G1 X137.9 Y131.249 E4.04308
G1 X138.592 Y131.116 E4.0665
G1 X138.869 Y131.073 E4.07581
G1 X139.207 Y131.037 E4.08711
G1 X139.844 Y131.002 E4.10831
G1 X140.167 Y131.002 E4.11904
G1 X140.809 Y131.037 E4.14041
G1 X141.17 Y131.077 E4.15248
G1 X141.776 Y131.178 E4.1729
G1 X142.115 Y131.254 E4.18444
G1 X142.742 Y131.428 E4.20607
G1 X143.062 Y131.538 E4.21731
G1 X143.661 Y131.778 E4.23875
G1 X144.296 Y132.093 E4.26231
G1 X144.591 Y132.259 E4.27356
G1 X144.996 Y132.518 E4.28954
G1 X145.52 Y132.895 E4.31099
G1 X145.927 Y133.228 E4.32846
G1 X146.631 Y133.916 E4.36118
G1 X146.769 Y134.07 E4.36805
G1 X147.218 Y134.624 E4.39175
G1 X147.482 Y135.004 E4.40712
G1 X147.634 Y135.238 E4.41639
G1 X147.938 Y135.764 E4.43658
G1 X148.062 Y136.008 E4.44568
G1 X148.317 Y136.568 E4.46613
G1 X148.543 Y137.172 E4.48756
G1 X148.612 Y137.393 E4.49525
G1 X148.684 Y137.657 E4.50435
G1 X148.827 Y138.25 E4.52462
G1 X148.954 Y139.106 E4.55338
G1 X148.999 Y140 E4.58312
G1 X148.955 Y140.889 E4.6127
G1 X148.828 Y141.749 E4.64159
G1 X148.688 Y142.331 E4.66148
G1 X148.546 Y142.823 E4.6785
G1 X148.318 Y143.431 E4.70008
G1 X148.068 Y143.981 E4.72016
G1 X147.936 Y144.24 E4.72982
G1 X147.626 Y144.776 E4.7504
G1 X147.477 Y145.004 E4.75945
G1 X147.221 Y145.372 E4.77434
G1 X146.77 Y145.929 E4.79816
G0 F2625 X146.632 Y146.083
G0 X146.601 Y146.113
G0 X145.928 Y145.386
;TYPE:SKIN
G1 F900 X145.253 Y146.044 E4.82949
G1 X144.931 Y146.309 E4.84335
G1 X144.433 Y146.666 E4.86371
G1 X144.092 Y146.885 E4.87718
G1 X143.832 Y147.032 E4.8871
G1 X143.255 Y147.318 E4.9085
G1 X142.718 Y147.532 E4.92771
G1 X142.451 Y147.624 E4.9371
G1 X141.875 Y147.784 E4.95697
G1 X141.594 Y147.847 E4.96654
G1 X141.024 Y147.943 E4.98574
G1 X140.736 Y147.975 E4.99537
G1 X140.132 Y148.007 E5.01547
G1 X139.876 Y148.009 E5.02398
G1 X139.257 Y147.975 E5.04458
G1 X138.97 Y147.942 E5.05418
G1 X138.717 Y147.901 E5.0627
G1 X138.124 Y147.786 E5.08278
G1 X137.563 Y147.629 E5.10213
G1 X137.31 Y147.542 E5.11103
G1 X136.683 Y147.289 E5.13349
G1 X136.213 Y147.055 E5.15094
G1 X135.768 Y146.798 E5.16802
G1 X135.398 Y146.554 E5.18275
G1 X135.167 Y146.386 E5.19224
G1 X134.622 Y145.935 E5.21575
G1 X134.181 Y145.5 E5.23633
G1 X133.984 Y145.287 E5.24598
G1 X133.643 Y144.869 E5.2639
G1 X133.331 Y144.431 E5.28177
G1 X133.202 Y144.231 E5.28968
G1 X132.908 Y143.718 E5.30933
G1 X132.802 Y143.509 E5.31712
G1 X132.601 Y143.061 E5.33344
G1 X132.512 Y142.832 E5.3416
G1 X132.332 Y142.311 E5.35992
G1 X132.145 Y141.561 E5.38561
G1 X132.033 Y140.8 E5.41117
G1 X131.993 Y139.998 E5.43785
G1 X132.032 Y139.198 E5.46447
G1 X132.143 Y138.447 E5.4897
G1 X132.338 Y137.671 E5.51629
G1 X132.512 Y137.167 E5.53401
G1 X132.59 Y136.965 E5.5412
G1 X132.82 Y136.457 E5.55974
G1 X132.923 Y136.253 E5.56733
G1 X133.216 Y135.745 E5.58682
G1 X133.335 Y135.563 E5.59405
G1 X133.657 Y135.11 E5.61252
G1 X133.981 Y134.716 E5.62947
G1 X134.19 Y134.491 E5.63967
G1 X134.609 Y134.078 E5.65922
G1 X135.143 Y133.633 E5.68232
G1 X135.399 Y133.445 E5.69288
G1 X135.785 Y133.192 E5.70822
G1 X136.198 Y132.953 E5.72407
G1 X136.682 Y132.712 E5.74204
G1 X137.314 Y132.457 E5.76469
G1 X137.563 Y132.371 E5.77344
G1 X138.121 Y132.215 E5.7927
G1 X138.768 Y132.091 E5.81459
G1 X138.988 Y132.056 E5.82199
G1 X139.286 Y132.025 E5.83195
G1 X139.88 Y131.992 E5.85172
G1 X140.131 Y131.992 E5.86006
G1 X140.735 Y132.024 E5.88016
G1 X141.023 Y132.056 E5.88979
G1 X141.593 Y132.152 E5.909
G1 X141.874 Y132.215 E5.91857
G1 X142.448 Y132.374 E5.93836
G1 X142.717 Y132.467 E5.94782
G1 X143.254 Y132.681 E5.96703
G1 X143.83 Y132.967 E5.9884
G1 X144.077 Y133.105 E5.99781
G1 X144.429 Y133.33 E6.01169
G1 X144.911 Y133.676 E6.03141
G1 X145.266 Y133.967 E6.04666
G1 X145.927 Y134.613 E6.07738
G1 X146.026 Y134.724 E6.08232
G1 X146.409 Y135.196 E6.10252
G1 X146.795 Y135.764 E6.12534
G1 X147.061 Y136.224 E6.143
G1 X147.174 Y136.447 E6.15131
G1 X147.403 Y136.95 E6.16967
G1 X147.606 Y137.491 E6.18888
G1 X147.723 Y137.896 E6.20289
G1 X147.855 Y138.437 E6.22139
G1 X147.967 Y139.191 E6.24672
G1 X148.007 Y139.998 E6.27357
G1 X147.968 Y140.798 E6.30019
G1 X147.856 Y141.562 E6.32585
G1 X147.734 Y142.07 E6.34321
G1 X147.605 Y142.512 E6.35852
G1 X147.408 Y143.039 E6.37721
G1 X147.178 Y143.548 E6.39577
G1 X147.072 Y143.757 E6.40356
G1 X146.801 Y144.227 E6.42159
G1 X146.429 Y144.776 E6.44363
G1 X146.009 Y145.295 E6.46582
G1 X145.928 Y145.386 E6.46987
G0 F2625 X142.415 Y142.53
G1 F900 X142.703 Y142.204 E6.48432
G1 X143.086 Y141.634 E6.50714
G1 X143.351 Y140.99 E6.53028
G1 X143.426 Y140.437 E6.54883
G1 X143.505 Y140.043 E6.56218
G1 X143.422 Y139.389 E6.58409
G1 X143.336 Y138.973 E6.59821
G1 X143.089 Y138.37 E6.61986
G1 X142.68 Y137.756 E6.64438
G1 X142.024 Y137.177 E6.67346
G1 X141.659 Y136.932 E6.68807
G1 X141.188 Y136.71 E6.70537
G1 X140.085 Y136.505 E6.74265
G1 X139.67 Y136.524 E6.75646
G1 X139.247 Y136.611 E6.77081
G1 X138.414 Y136.886 E6.79996
G1 X137.889 Y137.229 E6.8208
G1 X137.453 Y137.603 E6.83989
G1 X137.145 Y138.021 E6.85715
G1 X136.913 Y138.366 E6.87096
G1 X136.647 Y139.011 E6.89415
G1 X136.573 Y139.566 E6.91276
G1 X136.495 Y139.956 E6.92597
G1 X136.578 Y140.611 E6.94791
G1 X136.665 Y141.027 E6.96204
G1 X136.927 Y141.667 E6.98502
G1 X137.258 Y142.101 E7.00316
G1 X137.481 Y142.434 E7.01648
G1 X137.912 Y142.788 E7.03501
G1 X138.374 Y143.088 E7.05332
G1 X138.977 Y143.339 E7.07502
G1 X139.424 Y143.424 E7.09014
G1 X139.593 Y143.432 E7.09577
G1 X139.955 Y143.506 E7.10804
G1 X140.671 Y143.412 E7.13204
G1 X140.849 Y143.359 E7.13822
G1 X141.186 Y143.291 E7.14964
G1 X141.69 Y143.055 E7.16813
G1 X142.093 Y142.748 E7.18497
G1 X142.415 Y142.53 E7.19789
G0 F2625 X146.76 Y136.154
G1 F900 X143.834 Y133.228 E7.33541
G1 X143.746 Y133.14
G0 F2625 X142.545 Y132.646
G1 F900 X147.351 Y137.451 E7.56125
G1 X147.439 Y137.539
G0 F2625 X147.621 Y138.428
G1 F900 X141.569 Y132.377 E7.84565
G1 X141.481 Y132.289
G0 F2625 X140.736 Y132.25
G1 F900 X147.744 Y139.259 E8.17503
G1 X147.832 Y139.347
G0 F2625 X147.78 Y140.002
