;Generated by Cura LulzBot Edition GCodeWriter Version: 3.2.27
;FLAVOR:Marlin
;TIME:2534
;Filament used: 0.966229m
;Layer height: 0.25
;Generated with Cura_SteamEngine 3.2.27
M82 ;absolute extrusion mode
;This G-Code has been generated specifically for the LulzBot TAZ 6 with standard extruder
M75 ; start GLCD timer
G26 ; clear potential 'probe fail' condition
G21 ; set units to Millimetres
M107 ; disable fans
M420 S0 ; disable previous leveling matrix
G90 ; absolute positioning
M82 ; set extruder to absolute mode
G92 E0 ; set extruder position to 0
M140 S85 ; start bed heating up
M109 R170 ; soften filament before homing Z
G28 ; Home all axis
G1 E-30 F100 ; retract filament
M109 R170 ; wait for extruder to reach wiping temp
G1 X-15 Y100 F3000 ; move above wiper pad
G1 Z1 ; push nozzle into wiper
G1 X-17 Y95 F1000 ; slow wipe
G1 X-17 Y90 F1000 ; slow wipe
G1 X-17 Y85 F1000 ; slow wipe
G1 X-15 Y90 F1000 ; slow wipe
G1 X-17 Y80 F1000 ; slow wipe
G1 X-15 Y95 F1000 ; slow wipe
G1 X-17 Y75 F2000 ; fast wipe
G1 X-15 Y65 F2000 ; fast wipe
G1 X-17 Y70 F2000 ; fast wipe
G1 X-15 Y60 F2000 ; fast wipe
G1 X-17 Y55 F2000 ; fast wipe
G1 X-15 Y50 F2000 ; fast wipe
G1 X-17 Y40 F2000 ; fast wipe
G1 X-15 Y45 F2000 ; fast wipe
G1 X-17 Y35 F2000 ; fast wipe
G1 X-15 Y40 F2000 ; fast wipe
G1 X-17 Y70 F2000 ; fast wipe
G1 X-15 Y30 Z2 F2000 ; fast wipe
G1 X-17 Y35 F2000 ; fast wipe
G1 X-15 Y25 F2000 ; fast wipe
G1 X-17 Y30 F2000 ; fast wipe
G1 X-15 Y25 Z1.5 F1000 ; slow wipe
G1 X-17 Y23 F1000 ; slow wipe
G1 Z10 ; raise extruder
M109 R170 ; wait for extruder to reach probe temp
G1 X-9 Y-9 ; move above first probe point
M204 S100 ; set probing acceleration
G29 ; start auto-leveling sequence
M420 S1 ; activate bed level matrix
M425 Z			     ; use measured Z backlash for compensation
M425 Z F0		     ; turn off measured Z backlash compensation. (if activated in the quality settings, this command will automatically be ignored)
M204 S500 ; restore standard acceleration
G1 X0 Y0 Z15 F5000 ; move up off last probe point
G4 S1 ; pause
M400 ; wait for moves to finish
M117 Heating... ; progress indicator message on LCD
M109 R235 ; wait for extruder to reach printing temp
M190 S85 ; wait for bed to reach printing temp
G1 Z2 E0 F75 ; prime tiny bit of filament into the nozzle
M117 TAZ 6 Printing... ; progress indicator message on LCD

M221 S100
;LAYER_COUNT:67
;LAYER:0
M107
G0 F2625 X98.364 Y109.029 Z0.424
;TYPE:SKIRT
G1 F900 X98.834 Y108.618 E0.01971
G1 X101.06 Y106.913 E0.10823
G1 X101.572 Y106.571 E0.12767
G1 X102.138 Y106.292 E0.14759
G1 X104.734 Y105.222 E0.23624
G1 X105.318 Y105.025 E0.2557
G1 X105.931 Y104.904 E0.27542
G1 X108.712 Y104.542 E0.36396
G1 X109.327 Y104.502 E0.38342
G1 X109.952 Y104.544 E0.40319
G1 X112.737 Y104.915 E0.49189
G1 X113.341 Y105.035 E0.51133
G1 X113.933 Y105.237 E0.53108
G1 X116.524 Y106.314 E0.61967
G1 X117.077 Y106.587 E0.63914
G1 X117.599 Y106.936 E0.65896
G1 X119.82 Y108.646 E0.74745
G1 X120.283 Y109.053 E0.76691
G1 X120.694 Y109.522 E0.7866
G1 X122.399 Y111.749 E0.87515
G1 X122.741 Y112.262 E0.89461
G1 X123.019 Y112.827 E0.91449
G1 X124.089 Y115.423 E1.00314
G1 X124.286 Y116.007 E1.0226
G1 X124.407 Y116.62 E1.04232
G1 X124.769 Y119.401 E1.13086
G1 X124.809 Y120.016 E1.15032
G1 X124.768 Y120.64 E1.17006
G1 X124.398 Y123.423 E1.25869
G1 X124.277 Y124.027 E1.27814
G1 X124.075 Y124.621 E1.29795
G1 X122.997 Y127.213 E1.38657
G1 X122.724 Y127.765 E1.40601
G1 X122.375 Y128.286 E1.42581
G1 X120.665 Y130.508 E1.51433
G1 X120.259 Y130.971 E1.53377
G1 X119.789 Y131.382 E1.55348
G1 X117.563 Y133.087 E1.642
G1 X117.051 Y133.429 E1.66144
G1 X116.485 Y133.708 E1.68136
G1 X113.889 Y134.778 E1.77001
G1 X113.305 Y134.975 E1.78947
G1 X112.692 Y135.096 E1.80919
G1 X109.91 Y135.458 E1.89776
G1 X109.295 Y135.498 E1.91722
G1 X108.671 Y135.457 E1.93696
G1 X105.887 Y135.087 E2.02563
G1 X105.283 Y134.966 E2.04507
G1 X104.688 Y134.764 E2.06491
G1 X102.097 Y133.686 E2.15351
G1 X101.545 Y133.413 E2.17295
G1 X101.024 Y133.063 E2.19276
G1 X98.801 Y131.351 E2.28134
G1 X98.338 Y130.945 E2.30079
G1 X97.927 Y130.474 E2.32052
G1 X96.223 Y128.247 E2.40905
G1 X95.881 Y127.735 E2.42849
G1 X95.603 Y127.171 E2.44834
G1 X94.534 Y124.577 E2.53691
G1 X94.337 Y123.993 E2.55637
G1 X94.216 Y123.382 E2.57603
G1 X93.853 Y120.601 E2.66458
G1 X93.813 Y119.986 E2.68403
G1 X93.855 Y119.358 E2.7039
G1 X94.226 Y116.575 E2.79254
G1 X94.347 Y115.971 E2.81199
G1 X94.548 Y115.379 E2.83173
G1 X95.626 Y112.787 E2.92035
G1 X95.899 Y112.235 E2.93979
G1 X96.248 Y111.714 E2.95959
G1 X97.958 Y109.492 E3.04811
G1 X98.364 Y109.029 E3.06755
G0 F2625 X98.74 Y109.361
G1 F900 X99.138 Y109.015 E3.0842
G1 X101.364 Y107.31 E3.17272
G1 X101.85 Y106.988 E3.19113
G1 X102.328 Y106.755 E3.20791
G1 X104.924 Y105.685 E3.29656
G1 X105.477 Y105.5 E3.31497
G1 X105.995 Y105.4 E3.33162
G1 X108.776 Y105.038 E3.42016
G1 X109.358 Y105.002 E3.43857
G1 X109.886 Y105.039 E3.45528
G1 X112.671 Y105.41 E3.54398
G1 X113.242 Y105.527 E3.56238
G1 X113.741 Y105.699 E3.57905
G1 X116.332 Y106.776 E3.66763
G1 X116.854 Y107.036 E3.68604
G1 X117.294 Y107.332 E3.70278
G1 X119.515 Y109.042 E3.79127
G1 X119.951 Y109.429 E3.80968
G1 X120.297 Y109.826 E3.82631
G1 X122.002 Y112.053 E3.91485
G1 X122.323 Y112.539 E3.93324
G1 X122.556 Y113.017 E3.95003
G1 X123.626 Y115.613 E4.03867
G1 X123.811 Y116.166 E4.05708
G1 X123.911 Y116.684 E4.07374
G1 X124.273 Y119.465 E4.16228
G1 X124.309 Y120.047 E4.18069
G1 X124.272 Y120.574 E4.19736
G1 X123.902 Y123.357 E4.286
G1 X123.786 Y123.928 E4.30439
G1 X123.613 Y124.429 E4.32113
G1 X122.535 Y127.021 E4.40975
G1 X122.275 Y127.542 E4.42813
G1 X121.979 Y127.981 E4.44485
G1 X120.269 Y130.203 E4.53337
G1 X119.883 Y130.639 E4.55175
G1 X119.485 Y130.985 E4.5684
G1 X117.259 Y132.69 E4.65692
G1 X116.773 Y133.012 E4.67533
G1 X116.295 Y133.245 E4.69211
G1 X113.699 Y134.315 E4.78076
G1 X113.146 Y134.5 E4.79917
G1 X112.627 Y134.6 E4.81586
G1 X109.845 Y134.962 E4.90442
G1 X109.264 Y134.998 E4.9228
G1 X108.737 Y134.961 E4.93948
G1 X105.953 Y134.591 E5.02815
G1 X105.382 Y134.475 E5.04654
G1 X104.88 Y134.302 E5.0633
G1 X102.289 Y133.224 E5.1519
G1 X101.768 Y132.964 E5.17028
G1 X101.329 Y132.667 E5.18702
G1 X99.106 Y130.955 E5.2756
G1 X98.67 Y130.569 E5.29398
G1 X98.324 Y130.171 E5.31063
G1 X96.62 Y127.944 E5.39916
G1 X96.298 Y127.458 E5.41756
G1 X96.066 Y126.98 E5.43434
G1 X94.997 Y124.386 E5.52291
G1 X94.812 Y123.834 E5.54129
G1 X94.712 Y123.317 E5.55792
G1 X94.349 Y120.536 E5.64646
G1 X94.313 Y119.954 E5.66487
G1 X94.35 Y119.424 E5.68164
G1 X94.721 Y116.641 E5.77028
G1 X94.838 Y116.07 E5.78868
G1 X95.01 Y115.571 E5.80534
G1 X96.088 Y112.979 E5.89397
G1 X96.348 Y112.458 E5.91235
G1 X96.644 Y112.019 E5.92907
G1 X98.354 Y109.797 E6.01758
G1 X98.74 Y109.361 E6.03597
G0 F2625 X99.115 Y109.694
G1 F900 X99.442 Y109.412 E6.0496
G1 X101.668 Y107.707 E6.13812
G1 X102.125 Y107.407 E6.15538
G1 X102.519 Y107.217 E6.16919
G1 X105.115 Y106.147 E6.25783
G1 X105.635 Y105.976 E6.27512
G1 X106.06 Y105.895 E6.28877
G1 X108.841 Y105.533 E6.37731
G1 X109.387 Y105.503 E6.39458
G1 X109.82 Y105.535 E6.40828
G1 X112.605 Y105.906 E6.49698
G1 X113.141 Y106.018 E6.51427
G1 X113.549 Y106.16 E6.52791
G1 X116.14 Y107.237 E6.61649
G1 X116.629 Y107.484 E6.63379
G1 X116.989 Y107.729 E6.64754
G1 X119.21 Y109.439 E6.73603
G1 X119.618 Y109.803 E6.75329
G1 X119.9 Y110.13 E6.76692
G1 X121.605 Y112.357 E6.85547
G1 X121.905 Y112.815 E6.87275
G1 X122.094 Y113.208 E6.88652
G1 X123.164 Y115.804 E6.97517
G1 X123.335 Y116.324 E6.99245
G1 X123.416 Y116.749 E7.00611
G1 X123.778 Y119.53 E7.09465
G1 X123.808 Y120.076 E7.11191
G1 X123.776 Y120.508 E7.12559
G1 X123.406 Y123.291 E7.21422
G1 X123.295 Y123.827 E7.2315
G1 X123.151 Y124.237 E7.24522
G1 X122.073 Y126.829 E7.33384
G1 X121.827 Y127.318 E7.35112
G1 X121.583 Y127.676 E7.3648
G1 X119.873 Y129.898 E7.45332
G1 X119.508 Y130.306 E7.4706
G1 X119.181 Y130.588 E7.48424
G1 X116.955 Y132.293 E7.57276
G1 X116.498 Y132.593 E7.59002
G1 X116.104 Y132.783 E7.60382
G1 X113.508 Y133.853 E7.69247
G1 X112.988 Y134.024 E7.70975
G1 X112.563 Y134.105 E7.72341
G1 X109.781 Y134.467 E7.81198
G1 X109.234 Y134.497 E7.82927
G1 X108.803 Y134.465 E7.84292
G1 X106.019 Y134.095 E7.93158
G1 X105.483 Y133.984 E7.94886
G1 X105.072 Y133.84 E7.96261
G1 X102.481 Y132.762 E8.05121
G1 X101.993 Y132.516 E8.06846
G1 X101.634 Y132.271 E8.08218
G1 X99.411 Y130.559 E8.17077
G1 X99.003 Y130.194 E8.18805
G1 X98.721 Y129.867 E8.20168
G1 X97.017 Y127.64 E8.29021
G1 X96.717 Y127.182 E8.30749
G1 X96.528 Y126.79 E8.32123
G1 X95.459 Y124.196 E8.40981
G1 X95.288 Y123.676 E8.42709
G1 X95.208 Y123.252 E8.44071
G1 X94.845 Y120.471 E8.52925
G1 X94.813 Y119.925 E8.54652
G1 X94.846 Y119.49 E8.56029
G1 X95.217 Y116.707 E8.64893
G1 X95.329 Y116.172 E8.66619
G1 X95.472 Y115.763 E8.67986
G1 X96.55 Y113.171 E8.76849
G1 X96.796 Y112.682 E8.78577
G1 X97.04 Y112.324 E8.79945
G1 X98.75 Y110.102 E8.88797
G1 X99.115 Y109.694 E8.90525
G0 F2625 X99.488 Y110.029
G1 F900 X99.746 Y109.809 E8.91595
G1 X101.972 Y108.104 E9.00448
G1 X102.399 Y107.827 E9.02054
G1 X102.71 Y107.679 E9.03142
G1 X105.306 Y106.609 E9.12006
G1 X105.79 Y106.453 E9.13612
G1 X106.124 Y106.391 E9.14684
G1 X108.905 Y106.029 E9.23538
G1 X109.414 Y106.003 E9.25147
G1 X109.754 Y106.03 E9.26224
G1 X112.539 Y106.401 E9.35094
G1 X113.037 Y106.508 E9.36702
G1 X113.357 Y106.622 E9.37774
G1 X115.948 Y107.699 E9.46633
G1 X116.402 Y107.931 E9.48242
G1 X116.684 Y108.125 E9.49323
G1 X118.905 Y109.835 E9.58172
G1 X119.283 Y110.176 E9.59779
G1 X119.503 Y110.434 E9.6085
G1 X121.208 Y112.661 E9.69704
G1 X121.485 Y113.089 E9.71314
G1 X121.632 Y113.399 E9.72397
G1 X122.702 Y115.995 E9.81262
G1 X122.858 Y116.479 E9.82867
G1 X122.92 Y116.813 E9.8394
G1 X123.282 Y119.594 E9.92793
G1 X123.308 Y120.103 E9.94402
G1 X123.281 Y120.442 E9.95476
G1 X122.911 Y123.225 E10.04339
G1 X122.804 Y123.724 E10.05951
G1 X122.69 Y124.045 E10.07026
G1 X121.612 Y126.637 E10.15888
G1 X121.38 Y127.091 E10.17498
G1 X121.187 Y127.371 E10.18572
G1 X119.477 Y129.593 E10.27423
G1 X119.135 Y129.971 E10.29033
G1 X118.877 Y130.191 E10.30103
G1 X116.651 Y131.896 E10.38955
G1 X116.224 Y132.173 E10.40562
G1 X115.913 Y132.321 E10.4165
G1 X113.317 Y133.391 E10.50514
G1 X112.833 Y133.547 E10.5212
G1 X112.498 Y133.609 E10.53195
G1 X109.716 Y133.971 E10.62052
G1 X109.208 Y133.997 E10.63658
G1 X108.869 Y133.97 E10.64732
G1 X106.085 Y133.6 E10.73598
G1 X105.587 Y133.493 E10.75206
G1 X105.265 Y133.379 E10.76284
G1 X102.674 Y132.301 E10.85144
G1 X102.22 Y132.069 E10.86754
G1 X101.939 Y131.875 E10.87832
G1 X99.716 Y130.163 E10.9669
G1 X99.338 Y129.821 E10.98299
G1 X99.118 Y129.563 E10.9937
G1 X97.414 Y127.336 E11.08222
G1 X97.137 Y126.908 E11.09832
G1 X96.99 Y126.599 E11.10912
G1 X95.921 Y124.005 E11.1977
G1 X95.765 Y123.52 E11.21378
G1 X95.703 Y123.188 E11.22444
G1 X95.34 Y120.407 E11.31298
G1 X95.314 Y119.898 E11.32908
G1 X95.341 Y119.557 E11.33987
G1 X95.712 Y116.774 E11.42851
G1 X95.819 Y116.275 E11.44462
G1 X95.933 Y115.955 E11.45535
G1 X97.011 Y113.363 E11.54397
G1 X97.243 Y112.909 E11.56007
G1 X97.436 Y112.629 E11.57081
G1 X99.146 Y110.407 E11.65932
G1 X99.488 Y110.029 E11.67542
G0 F2625 X99.859 Y110.366
G1 F900 X100.05 Y110.206 E11.68328
G1 X102.276 Y108.501 E11.7718
G1 X102.671 Y108.249 E11.7866
G1 X102.9 Y108.142 E11.79458
G1 X105.496 Y107.072 E11.88322
G1 X105.943 Y106.93 E11.89803
G1 X106.189 Y106.887 E11.90591
G1 X108.97 Y106.525 E11.99445
G1 X109.438 Y106.504 E12.00924
G1 X109.688 Y106.526 E12.01716
G1 X112.473 Y106.897 E12.10586
G1 X112.931 Y106.998 E12.12067
G1 X113.166 Y107.084 E12.12857
G1 X115.757 Y108.161 E12.21715
G1 X116.172 Y108.377 E12.23192
G1 X116.379 Y108.521 E12.23989
G1 X118.6 Y110.231 E12.32838
G1 X118.945 Y110.547 E12.34315
G1 X119.106 Y110.738 E12.35103
G1 X120.811 Y112.965 E12.43958
G1 X121.063 Y113.36 E12.45437
G1 X121.169 Y113.589 E12.46234
G1 X122.239 Y116.185 E12.55098
G1 X122.381 Y116.632 E12.56579
G1 X122.424 Y116.878 E12.57368
G1 X122.786 Y119.659 E12.66221
G1 X122.807 Y120.127 E12.677
G1 X122.785 Y120.376 E12.6849
G1 X122.415 Y123.159 E12.77353
G1 X122.314 Y123.617 E12.78834
G1 X122.228 Y123.853 E12.79627
G1 X121.15 Y126.445 E12.88489
G1 X120.934 Y126.861 E12.89969
G1 X120.79 Y127.066 E12.9076
G1 X119.08 Y129.288 E12.99612
G1 X118.764 Y129.634 E13.01091
G1 X118.573 Y129.794 E13.01877
G1 X116.347 Y131.499 E13.1073
G1 X115.952 Y131.751 E13.12209
G1 X115.723 Y131.858 E13.13007
G1 X113.127 Y132.928 E13.21871
G1 X112.68 Y133.07 E13.23352
G1 X112.434 Y133.113 E13.2414
G1 X109.652 Y133.475 E13.32997
G1 X109.184 Y133.496 E13.34476
G1 X108.935 Y133.474 E13.35266
G1 X106.151 Y133.104 E13.44132
G1 X105.693 Y133.003 E13.45613
G1 X105.457 Y132.917 E13.46406
G1 X102.866 Y131.839 E13.55265
G1 X102.45 Y131.623 E13.56745
G1 X102.244 Y131.479 E13.57539
G1 X100.021 Y129.767 E13.66397
G1 X99.676 Y129.45 E13.67876
G1 X99.515 Y129.259 E13.68664
G1 X97.811 Y127.032 E13.77517
G1 X97.559 Y126.637 E13.78996
G1 X97.452 Y126.409 E13.79792
G1 X96.383 Y123.815 E13.88649
G1 X96.242 Y123.368 E13.90129
G1 X96.199 Y123.123 E13.90914
G1 X95.836 Y120.342 E13.99768
G1 X95.815 Y119.874 E14.01247
G1 X95.837 Y119.623 E14.02043
G1 X96.208 Y116.84 E14.10906
G1 X96.309 Y116.382 E14.12387
G1 X96.395 Y116.147 E14.13177
G1 X97.473 Y113.555 E14.2204
G1 X97.689 Y113.139 E14.2352
G1 X97.833 Y112.934 E14.2431
G1 X99.543 Y110.712 E14.33162
G1 X99.859 Y110.366 E14.34642
G0 F2625 X99.939 Y111.017
G1 F900 X100.354 Y110.603 E14.36492
G1 X102.58 Y108.898 E14.45344
G1 X103.091 Y108.604 E14.47206
G1 X105.687 Y107.534 E14.5607
G1 X106.254 Y107.383 E14.57922
G1 X109.035 Y107.021 E14.66776
G1 X109.622 Y107.022 E14.68629
G1 X112.407 Y107.393 E14.77499
G1 X112.974 Y107.545 E14.79353
G1 X115.565 Y108.622 E14.88211
G1 X116.074 Y108.917 E14.90068
G1 X118.295 Y110.627 E14.98918
G1 X118.709 Y111.042 E15.00768
G1 X120.414 Y113.269 E15.09623
G1 X120.707 Y113.78 E15.11483
G1 X121.777 Y116.376 E15.20347
G1 X121.928 Y116.943 E15.222
G1 X122.29 Y119.724 E15.31053
G1 X122.289 Y120.311 E15.32907
G1 X121.919 Y123.094 E15.4177
G1 X121.766 Y123.661 E15.43624
G1 X120.688 Y126.253 E15.52487
G1 X120.394 Y126.761 E15.5434
G1 X118.684 Y128.983 E15.63191
G1 X118.269 Y129.397 E15.65042
G1 X116.043 Y131.102 E15.73894
G1 X115.532 Y131.396 E15.75755
G1 X112.936 Y132.466 E15.8462
G1 X112.369 Y132.617 E15.86472
G1 X109.587 Y132.979 E15.95329
G1 X109.001 Y132.978 E15.97179
G1 X106.217 Y132.608 E16.06046
G1 X105.649 Y132.455 E16.07903
G1 X103.058 Y131.377 E16.16762
G1 X102.549 Y131.083 E16.18618
G1 X100.326 Y129.371 E16.27476
G1 X99.912 Y128.955 E16.29329
G1 X98.208 Y126.728 E16.38182
G1 X97.915 Y126.218 E16.40039
G1 X96.846 Y123.624 E16.48896
G1 X96.695 Y123.058 E16.50746
G1 X96.332 Y120.277 E16.596
G1 X96.333 Y119.689 E16.61456
G1 X96.704 Y116.906 E16.7032
G1 X96.857 Y116.339 E16.72174
G1 X97.935 Y113.747 E16.81037
G1 X98.229 Y113.239 E16.8289
G1 X99.939 Y111.017 E16.91741
G0 F2625 X100.335 Y111.322
G1 F900 X100.658 Y111 E16.93181
G1 X102.884 Y109.295 E17.02033
G1 X103.281 Y109.066 E17.0348
G1 X105.877 Y107.996 E17.12345
G1 X106.318 Y107.879 E17.13785
G1 X109.099 Y107.517 E17.22639
G1 X109.556 Y107.517 E17.24082
G1 X112.341 Y107.888 E17.32952
G1 X112.782 Y108.007 E17.34394
G1 X115.373 Y109.084 E17.43252
G1 X115.769 Y109.313 E17.44696
G1 X117.99 Y111.023 E17.53546
G1 X118.312 Y111.346 E17.54986
G1 X120.017 Y113.573 E17.6384
G1 X120.245 Y113.97 E17.65286
G1 X121.315 Y116.566 E17.7415
G1 X121.432 Y117.007 E17.75591
G1 X121.794 Y119.788 E17.84444
G1 X121.794 Y120.245 E17.85887
G1 X121.424 Y123.028 E17.9475
G1 X121.305 Y123.469 E17.96192
G1 X120.227 Y126.061 E18.05055
G1 X119.998 Y126.456 E18.06496
G1 X118.288 Y128.678 E18.15348
G1 X117.965 Y129 E18.16788
G1 X115.739 Y130.705 E18.2564
G1 X115.342 Y130.934 E18.27087
G1 X112.746 Y132.004 E18.35952
G1 X112.305 Y132.121 E18.37392
G1 X109.523 Y132.483 E18.46249
G1 X109.066 Y132.483 E18.47692
G1 X106.282 Y132.113 E18.56558
G1 X105.841 Y131.994 E18.58
G1 X103.25 Y130.916 E18.6686
G1 X102.854 Y130.686 E18.68306
G1 X100.631 Y128.974 E18.77164
G1 X100.309 Y128.651 E18.78604
G1 X98.605 Y126.424 E18.87456
G1 X98.377 Y126.028 E18.88899
