;Generated by Cura LulzBot Edition GCodeWriter Version: 3.2.27
;FLAVOR:Marlin
;TIME:1801
;Filament used: 0.699141m
;Layer height: 0.25
;Generated with Cura_SteamEngine 3.2.27
M82 ;absolute extrusion mode
;This G-Code has been generated specifically for the LulzBot TAZ 6 with standard extruder
M75 ; start GLCD timer
G26 ; clear potential 'probe fail' condition
G21 ; set units to Millimetres
M107 ; disable fans
M420 S0 ; disable previous leveling matrix
G90 ; absolute positioning
M82 ; set extruder to absolute mode
G92 E0 ; set extruder position to 0
M140 S60 ; start bed heating up
M109 R140 ; soften filament before homing Z
G28 ; Home all axis
G1 E-30 F100 ; retract filament
M109 R140 ; wait for extruder to reach wiping temp
G1 X-15 Y100 F3000 ; move above wiper pad
G1 Z1 ; push nozzle into wiper
G1 X-17 Y95 F1000 ; slow wipe
G1 X-17 Y90 F1000 ; slow wipe
G1 X-17 Y85 F1000 ; slow wipe
G1 X-15 Y90 F1000 ; slow wipe
G1 X-17 Y80 F1000 ; slow wipe
G1 X-15 Y95 F1000 ; slow wipe
G1 X-17 Y75 F2000 ; fast wipe
G1 X-15 Y65 F2000 ; fast wipe
G1 X-17 Y70 F2000 ; fast wipe
G1 X-15 Y60 F2000 ; fast wipe
G1 X-17 Y55 F2000 ; fast wipe
G1 X-15 Y50 F2000 ; fast wipe
G1 X-17 Y40 F2000 ; fast wipe
G1 X-15 Y45 F2000 ; fast wipe
G1 X-17 Y35 F2000 ; fast wipe
G1 X-15 Y40 F2000 ; fast wipe
G1 X-17 Y70 F2000 ; fast wipe
G1 X-15 Y30 Z2 F2000 ; fast wipe
G1 X-17 Y35 F2000 ; fast wipe
G1 X-15 Y25 F2000 ; fast wipe
G1 X-17 Y30 F2000 ; fast wipe
G1 X-15 Y25 Z1.5 F1000 ; slow wipe
G1 X-17 Y23 F1000 ; slow wipe
G1 Z10 ; raise extruder
M109 R140 ; wait for extruder to reach probe temp
G1 X-9 Y-9 ; move above first probe point
M204 S100 ; set probing acceleration
G29 ; start auto-leveling sequence
M420 S1 ; activate bed level matrix
M425 Z			     ; use measured Z backlash for compensation
M425 Z F0		     ; turn off measured Z backlash compensation. (if activated in the quality settings, this command will automatically be ignored)
M204 S500 ; restore standard acceleration
G1 X0 Y0 Z15 F5000 ; move up off last probe point
G4 S1 ; pause
M400 ; wait for moves to finish
M117 Heating... ; progress indicator message on LCD
M109 R220 ; wait for extruder to reach printing temp
M190 S60 ; wait for bed to reach printing temp
G1 Z2 E0 F75 ; prime tiny bit of filament into the nozzle
M117 TAZ 6 Printing... ; progress indicator message on LCD

M221 S100
;LAYER_COUNT:85
;LAYER:0
M107
G0 F2625 X128.831 Y126.534 Z0.424
;TYPE:WALL-INNER
G1 F900 X128.203 Y126.767 E0.02226
G1 X127.851 Y126.937 E0.03525
G1 X127.461 Y127.22 E0.05126
G1 X126.855 Y127.973 E0.08338
G1 X126.626 Y128.528 E0.10334
G1 X126.566 Y128.979 E0.11846
G1 X126.48 Y129.355 E0.13127
G1 X126.552 Y129.914 E0.15
G1 X126.639 Y130.292 E0.16289
G1 X126.854 Y130.812 E0.18159
G1 X127.46 Y131.566 E0.21374
G1 X127.85 Y131.849 E0.22975
G1 X128.202 Y132.019 E0.24274
G1 X128.795 Y132.24 E0.26377
G1 X129.213 Y132.279 E0.27773
G1 X129.59 Y132.28 E0.29025
G1 X130.185 Y132.192 E0.31024
G1 X130.601 Y132.011 E0.32532
G1 X130.96 Y131.839 E0.33855
G1 X131.518 Y131.368 E0.36281
G1 X131.703 Y131.098 E0.37369
G1 X131.932 Y130.812 E0.38587
G1 X132.161 Y130.26 E0.40573
G1 X132.221 Y129.806 E0.42094
G1 X132.307 Y129.431 E0.43373
G1 X132.235 Y128.871 E0.45249
G1 X132.148 Y128.496 E0.46529
G1 X131.944 Y127.999 E0.48314
G1 X131.739 Y127.705 E0.49505
G1 X131.498 Y127.403 E0.50789
G1 X130.949 Y126.94 E0.53176
G1 X130.543 Y126.763 E0.54648
G1 X130.201 Y126.597 E0.55911
G1 X129.556 Y126.502 E0.58077
G1 X129.214 Y126.535 E0.59219
G1 X128.831 Y126.534 E0.60492
G0 F2625 X128.814 Y126.436
G0 X130.212 Y126.559
G0 X130.97 Y126.907
G0 X131.526 Y127.376
G0 X131.979 Y127.98
G0 X133.963 Y133.726
G0 X133.993 Y134.343
G0 X134.228 Y135.104
G0 X134.937 Y135.937
G0 X135.594 Y136.31
G0 X136.306 Y136.48
G0 X136.741 Y136.439
G0 X137.818 Y136.21
G0 X137.768 Y136.124
G1 F900 X138.654 Y135.219 E0.64701
G1 X138.778 Y134.963 E0.65646
G1 X138.998 Y134.147 E0.68455
G1 X138.968 Y133.543 E0.70464
G1 X138.848 Y133.188 E0.7171
G1 X138.749 Y132.821 E0.72973
G1 X138.344 Y132.273 E0.75237
G1 X138.041 Y131.972 E0.76657
G1 X137.412 Y131.611 E0.79067
G1 X137.058 Y131.534 E0.80271
G1 X136.693 Y131.436 E0.81527
G1 X135.955 Y131.505 E0.8399
G1 X135.64 Y131.641 E0.8513
G1 X135.235 Y131.75 E0.86524
G1 X134.364 Y132.629 E0.90636
G1 X134.223 Y132.905 E0.91666
G1 X134.002 Y133.73 E0.94504
G1 X134.032 Y134.336 E0.96521
G1 X134.165 Y134.717 E0.97862
G1 X134.263 Y135.087 E0.99134
G1 X134.66 Y135.606 E1.01305
G1 X134.961 Y135.906 E1.02718
G1 X135.608 Y136.273 E1.0519
G1 X135.938 Y136.341 E1.06309
G1 X136.309 Y136.441 E1.07586
G1 X137.065 Y136.367 E1.1011
G1 X137.367 Y136.232 E1.1121
G1 X137.768 Y136.124 E1.1259
G0 F2625 X137.818 Y136.21
G0 X134.093 Y145.313
G0 X133.994 Y145.682
G0 X133.968 Y146.158
G0 X134.22 Y147.361
G0 X134.306 Y147.312
G1 F900 X135.195 Y148.209 E1.16787
G1 X135.634 Y148.398 E1.18375
G1 X136.008 Y148.5 E1.19663
G1 X136.67 Y148.564 E1.21874
G1 X137.053 Y148.482 E1.23175
G1 X137.429 Y148.381 E1.24469
G1 X138.04 Y148.029 E1.26812
G1 X138.343 Y147.728 E1.28232
G1 X138.733 Y147.199 E1.30416
G1 X138.87 Y146.799 E1.31821
G1 X138.967 Y146.437 E1.33066
G1 X139 Y145.857 E1.34997
G1 X138.851 Y145.303 E1.36903
G1 X138.808 Y145.213 E1.37235
G1 X138.705 Y144.834 E1.3854
G1 X137.809 Y143.918 E1.42798
G1 X137.384 Y143.733 E1.44339
G1 X137.01 Y143.629 E1.45629
G1 X136.334 Y143.56 E1.47887
G1 X135.965 Y143.636 E1.49139
G1 X135.589 Y143.738 E1.50433
G1 X134.962 Y144.093 E1.52828
G1 X134.661 Y144.393 E1.5424
G1 X134.282 Y144.889 E1.56315
G1 X134.131 Y145.324 E1.57845
G1 X134.033 Y145.688 E1.59097
G1 X134 Y146.267 E1.61025
G1 X134.15 Y146.83 E1.62961
G1 X134.205 Y146.938 E1.63364
G1 X134.306 Y147.312 E1.64651
G0 F2625 X134.22 Y147.361
G0 X131.901 Y152.145
G0 X131.64 Y152.516
G0 X130.846 Y153.173
G0 X130.573 Y153.29
G0 X129.359 Y153.62
G0 X129.363 Y153.521
G1 F900 X129.974 Y153.432 E1.66703
G1 X130.35 Y153.344 E1.67986
G1 X130.825 Y153.139 E1.69706
G1 X131.302 Y152.736 E1.71781
G1 X131.611 Y152.489 E1.73095
G1 X131.866 Y152.126 E1.7457
G1 X132.037 Y151.706 E1.76077
G1 X132.208 Y151.358 E1.77365
G1 X132.279 Y150.8 E1.79234
G1 X132.28 Y150.417 E1.80507
G1 X132.211 Y149.879 E1.8231
G1 X132.013 Y149.405 E1.84017
G1 X131.854 Y149.072 E1.85243
G1 X131.619 Y148.734 E1.86611
G1 X131.127 Y148.32 E1.88748
G1 X130.817 Y148.071 E1.90069
G1 X130.322 Y147.858 E1.9186
G1 X129.828 Y147.785 E1.9352
G1 X129.444 Y147.696 E1.9483
G1 X128.989 Y147.738 E1.96348
G1 X128.612 Y147.825 E1.97634
G1 X128.003 Y148.052 E1.99794
G1 X127.65 Y148.307 E2.01241
G1 X127.347 Y148.551 E2.02534
G1 X126.933 Y149.063 E2.04722
G1 X126.746 Y149.513 E2.06341
G1 X126.579 Y149.857 E2.07612
G1 X126.508 Y150.414 E2.09478
G1 X126.507 Y150.797 E2.10751
G1 X126.576 Y151.334 E2.1255
G1 X126.773 Y151.809 E2.14259
G1 X126.944 Y152.167 E2.15577
G1 X127.358 Y152.677 E2.1776
G1 X127.682 Y152.911 E2.19089
G1 X127.984 Y153.154 E2.20377
G1 X128.658 Y153.405 E2.22767
G1 X128.993 Y153.436 E2.23885
G1 X129.363 Y153.521 E2.25146
G0 F2625 X129.359 Y153.62
G0 X151.208 Y153.56
G0 X151.191 Y153.462
G1 F900 X151.799 Y153.232 E2.27307
G1 X152.153 Y153.062 E2.28612
G1 X152.563 Y152.756 E2.30312
G1 X153.146 Y152.025 E2.33419
G1 X153.374 Y151.472 E2.35407
G1 X153.434 Y151.021 E2.36919
G1 X153.52 Y150.645 E2.38201
G1 X153.448 Y150.086 E2.40074
G1 X153.361 Y149.709 E2.41359
G1 X153.147 Y149.19 E2.43225
G1 X152.564 Y148.458 E2.46335
G1 X152.154 Y148.152 E2.48035
G1 X151.8 Y147.982 E2.4934
G1 X151.23 Y147.766 E2.51366
G1 X150.79 Y147.721 E2.52836
G1 X150.413 Y147.72 E2.54088
G1 X149.84 Y147.8 E2.56011
G1 X149.401 Y147.988 E2.57598
G1 X149.043 Y148.16 E2.58918
G1 X148.507 Y148.605 E2.61233
G1 X148.292 Y148.908 E2.62468
G1 X148.068 Y149.188 E2.63659
G1 X147.839 Y149.74 E2.65645
G1 X147.779 Y150.194 E2.67167
G1 X147.693 Y150.569 E2.68446
G1 X147.765 Y151.129 E2.70322
G1 X147.852 Y151.505 E2.71605
G1 X148.058 Y152.004 E2.73399
G1 X148.281 Y152.32 E2.74684
G1 X148.524 Y152.622 E2.75972
G1 X149.056 Y153.063 E2.78268
G1 X149.482 Y153.245 E2.79808
G1 X149.821 Y153.409 E2.81059
G1 X150.448 Y153.498 E2.83164
G1 X150.804 Y153.461 E2.84353
G1 X151.191 Y153.462 E2.85639
G0 F2625 X151.208 Y153.56
G0 X154.18 Y154.18
G0 X154.25 Y154.25
G1 F900 X125.75 Y154.25 E3.80351
G1 X125.75 Y125.75 E4.75062
G1 X154.25 Y125.75 E5.69773
G1 X154.25 Y154.25 E6.64484
G0 F2625 X154.18 Y154.18
G0 X153.399 Y149.697
G0 X149.614 Y140.047
G0 X149.515 Y140.042
G1 F900 X149.426 Y139.466 E6.66421
G1 X149.324 Y139.09 E6.67716
G1 X149.064 Y138.575 E6.69633
G1 X148.466 Y137.968 E6.72464
G1 X147.885 Y137.661 E6.74648
G1 X147.431 Y137.586 E6.76177
G1 X147.06 Y137.485 E6.77455
G1 X146.469 Y137.574 E6.79441
G1 X146.089 Y137.676 E6.80749
G1 X145.571 Y137.939 E6.82679
G1 X144.939 Y138.571 E6.8565
G1 X144.659 Y139.125 E6.87712
G1 X144.585 Y139.585 E6.89261
G1 X144.485 Y139.958 E6.90544
G1 X144.574 Y140.534 E6.92481
G1 X144.676 Y140.91 E6.93776
G1 X144.938 Y141.428 E6.95705
G1 X145.57 Y142.06 E6.98675
G1 X146.088 Y142.323 E7.00606
G1 X146.466 Y142.425 E7.01907
G1 X147.017 Y142.509 E7.03759
G1 X147.537 Y142.425 E7.05509
G1 X147.917 Y142.322 E7.06818
G1 X148.465 Y142.033 E7.08877
G1 X149.063 Y141.426 E7.11708
G1 X149.342 Y140.875 E7.13761
G1 X149.415 Y140.414 E7.15312
G1 X149.515 Y140.042 E7.16592
G0 F2625 X149.614 Y140.047
G0 X147.681 Y129.585
G0 X147.754 Y128.631
G0 X148.101 Y127.853
G0 X148.377 Y127.465
G0 X149.162 Y126.824
G0 X149.444 Y126.705
G0 X150.644 Y126.38
G0 X150.64 Y126.479
G1 F900 X150.049 Y126.562 E7.18575
G1 X149.673 Y126.649 E7.19858
G1 X149.182 Y126.858 E7.21631
G1 X148.406 Y127.492 E7.24961
G1 X148.136 Y127.872 E7.2651
G1 X147.966 Y128.287 E7.28001
G1 X147.792 Y128.642 E7.29314
G1 X147.721 Y129.2 E7.31184
G1 X147.72 Y129.583 E7.32457
G1 X147.789 Y130.121 E7.34259
G1 X147.987 Y130.596 E7.35969
G1 X148.148 Y130.931 E7.37204
G1 X148.405 Y131.293 E7.3868
G1 X149.181 Y131.928 E7.42012
G1 X149.702 Y132.15 E7.43894
G1 X150.188 Y132.219 E7.45525
G1 X150.559 Y132.305 E7.46791
G1 X151.033 Y132.257 E7.48374
G1 X151.41 Y132.171 E7.49659
G1 X152.003 Y131.945 E7.51768
G1 X152.373 Y131.671 E7.53298
G1 X152.675 Y131.43 E7.54582
G1 X153.068 Y130.934 E7.56685
G1 X153.256 Y130.483 E7.58309
G1 X153.421 Y130.143 E7.59565
G1 X153.492 Y129.586 E7.61431
G1 X153.493 Y129.203 E7.62703
G1 X153.424 Y128.666 E7.64503
G1 X153.227 Y128.191 E7.66212
G1 X153.056 Y127.835 E7.67524
G1 X152.666 Y127.348 E7.69597
G1 X152.313 Y127.084 E7.71062
G1 X152.016 Y126.847 E7.72325
G1 X151.366 Y126.601 E7.74635
G1 X151.014 Y126.565 E7.7581
G1 X150.64 Y126.479 E7.77086
G0 F2625 X150.618 Y126.987
;TYPE:WALL-OUTER
G1 F900 X150.14 Y127.054 E7.7869
G1 X149.828 Y127.126 E7.79754
G1 X149.443 Y127.29 E7.81145
G1 X148.775 Y127.836 E7.84012
G1 X148.577 Y128.115 E7.85149
G1 X148.422 Y128.492 E7.86503
G1 X148.278 Y128.787 E7.87594
G1 X148.221 Y129.233 E7.89088
G1 X148.22 Y129.552 E7.90148
G1 X148.276 Y129.991 E7.91619
G1 X148.443 Y130.391 E7.9306
G1 X148.58 Y130.676 E7.9411
G1 X148.774 Y130.949 E7.95223
G1 X149.442 Y131.496 E7.98093
G1 X149.837 Y131.664 E7.99519
G1 X150.28 Y131.727 E8.01006
G1 X150.591 Y131.799 E8.02067
G1 X150.952 Y131.763 E8.03273
G1 X151.264 Y131.691 E8.04337
G1 X151.761 Y131.502 E8.06104
G1 X152.068 Y131.275 E8.07372
G1 X152.318 Y131.075 E8.08436
G1 X152.633 Y130.678 E8.10121
G1 X152.798 Y130.282 E8.11546
G1 X152.935 Y129.999 E8.12591
G1 X152.992 Y129.553 E8.14085
G1 X152.993 Y129.234 E8.15145
G1 X152.937 Y128.796 E8.16613
G1 X152.77 Y128.395 E8.18056
G1 X152.63 Y128.103 E8.19132
G1 X152.316 Y127.71 E8.20804
G1 X152.014 Y127.485 E8.22056
G1 X151.766 Y127.287 E8.2311
G1 X151.25 Y127.092 E8.24943
G1 X150.931 Y127.059 E8.26009
G1 X150.618 Y126.987 E8.27077
G0 F2625 X150.371 Y127.021
G0 X150.288 Y126.427
G0 X149.162 Y126.824
G0 X148.377 Y127.465
G0 X148.101 Y127.853
G0 X147.821 Y128.482
G0 X144.417 Y139.831
G0 X144.995 Y139.986
G1 F900 X145.064 Y140.43 E8.2857
G1 X145.145 Y140.73 E8.29602
G1 X145.348 Y141.131 E8.31096
G1 X145.867 Y141.65 E8.33535
G1 X146.268 Y141.854 E8.3503
G1 X146.569 Y141.935 E8.36066
G1 X147.015 Y142.003 E8.37565
G1 X147.431 Y141.936 E8.38966
G1 X147.733 Y141.854 E8.40006
G1 X148.163 Y141.627 E8.41622
G1 X148.652 Y141.131 E8.43936
G1 X148.86 Y140.719 E8.4547
G1 X148.925 Y140.311 E8.46843
G1 X149.005 Y140.014 E8.47865
G1 X148.936 Y139.57 E8.49358
G1 X148.855 Y139.27 E8.50391
G1 X148.653 Y138.87 E8.5188
G1 X148.164 Y138.374 E8.54195
G1 X147.723 Y138.141 E8.55852
G1 X147.323 Y138.075 E8.572
G1 X147.03 Y137.995 E8.58209
G1 X146.571 Y138.064 E8.59751
G1 X146.269 Y138.145 E8.6079
G1 X145.868 Y138.349 E8.62286
G1 X145.349 Y138.868 E8.64725
G1 X145.14 Y139.281 E8.66263
G1 X145.075 Y139.689 E8.67636
G1 X144.995 Y139.986 E8.68658
G0 F2625 X145.033 Y140.233
G0 X144.441 Y140.324
G0 X137.661 Y136.256
G0 X137.506 Y135.677
G1 F900 X138.24 Y134.927 E8.72145
G1 X138.308 Y134.787 E8.72663
G1 X138.495 Y134.093 E8.75051
G1 X138.472 Y133.637 E8.76569
G1 X138.37 Y133.335 E8.77628
G1 X138.291 Y133.042 E8.78636
G1 X137.965 Y132.601 E8.80459
G1 X137.735 Y132.373 E8.81535
G1 X137.23 Y132.083 E8.8347
G1 X136.943 Y132.021 E8.84446
G1 X136.65 Y131.942 E8.85455
G1 X136.081 Y131.995 E8.87354
G1 X135.806 Y132.114 E8.88349
G1 X135.495 Y132.198 E8.8942
G1 X134.774 Y132.926 E8.92825
G1 X134.692 Y133.086 E8.93422
G1 X134.505 Y133.783 E8.95821
G1 X134.528 Y134.239 E8.97338
G1 X134.643 Y134.569 E8.98499
G1 X134.721 Y134.862 E8.99507
G1 X135.037 Y135.276 E9.01238
G1 X135.266 Y135.504 E9.02311
G1 X135.786 Y135.799 E9.04298
G1 X136.059 Y135.855 E9.05224
G1 X136.351 Y135.934 E9.0623
G1 X136.935 Y135.877 E9.0818
G1 X137.197 Y135.76 E9.09133
G1 X137.506 Y135.677 E9.10196
G0 F2625 X137.68 Y135.499
G0 X138.108 Y135.918
G0 X134.093 Y145.313
G0 X133.994 Y145.682
G0 X133.965 Y146.212
G0 X134.327 Y147.475
G0 X134.754 Y147.054
G1 F900 X135.482 Y147.788 E9.13632
G1 X135.799 Y147.925 E9.1478
G1 X136.098 Y148.006 E9.15809
G1 X136.641 Y148.059 E9.17622
G1 X136.936 Y147.996 E9.18625
G1 X137.236 Y147.915 E9.19657
G1 X137.734 Y147.628 E9.21567
G1 X137.964 Y147.4 E9.22644
G1 X138.285 Y146.965 E9.2444
G1 X138.391 Y146.653 E9.25535
G1 X138.471 Y146.357 E9.26554
G1 X138.496 Y145.909 E9.28045
G1 X138.38 Y145.477 E9.29532
G1 X138.338 Y145.389 E9.29856
G1 X138.257 Y145.091 E9.30882
G1 X137.52 Y144.337 E9.34386
G1 X137.217 Y144.205 E9.35484
G1 X136.917 Y144.122 E9.36519
G1 X136.36 Y144.065 E9.38379
G1 X136.081 Y144.123 E9.39326
G1 X135.78 Y144.204 E9.40362
G1 X135.267 Y144.495 E9.42322
G1 X135.038 Y144.723 E9.43396
G1 X134.728 Y145.129 E9.45094
G1 X134.609 Y145.471 E9.46297
G1 X134.529 Y145.768 E9.47319
G1 X134.504 Y146.215 E9.48807
G1 X134.62 Y146.65 E9.50303
G1 X134.674 Y146.756 E9.50698
G1 X134.754 Y147.054 E9.51724
G0 F2625 X134.93 Y147.231
G0 X134.503 Y147.652
G0 X131.64 Y152.516
G0 X130.846 Y153.173
G0 X130.455 Y153.341
G0 X129.249 Y153.596
G0 X129.383 Y153.013
G1 F900 X129.881 Y152.94 E9.53396
G1 X130.193 Y152.867 E9.54461
G1 X130.559 Y152.709 E9.55786
G1 X130.99 Y152.345 E9.57661
G1 X131.243 Y152.143 E9.58737
G1 X131.424 Y151.885 E9.59784
G1 X131.578 Y151.508 E9.61137
G1 X131.722 Y151.213 E9.62228
G1 X131.779 Y150.767 E9.63722
G1 X131.78 Y150.448 E9.64783
G1 X131.724 Y150.009 E9.66253
G1 X131.557 Y149.609 E9.67694
G1 X131.421 Y149.325 E9.6874
G1 X131.246 Y149.074 E9.69757
G1 X130.81 Y148.706 E9.71653
G1 X130.557 Y148.504 E9.72729
G1 X130.184 Y148.343 E9.74079
G1 X129.73 Y148.275 E9.75605
G1 X129.41 Y148.201 E9.76696
G1 X129.069 Y148.233 E9.77834
G1 X128.756 Y148.305 E9.78902
G1 X128.241 Y148.497 E9.80728
G1 X127.953 Y148.705 E9.81909
G1 X127.702 Y148.907 E9.82979
G1 X127.367 Y149.321 E9.84749
G1 X127.204 Y149.714 E9.86163
G1 X127.065 Y150.001 E9.87223
G1 X127.008 Y150.447 E9.88717
G1 X127.007 Y150.766 E9.89777
G1 X127.063 Y151.204 E9.91245
G1 X127.23 Y151.605 E9.92688
G1 X127.37 Y151.898 E9.93767
G1 X127.705 Y152.311 E9.95534
G1 X127.988 Y152.516 E9.96696
G1 X128.234 Y152.713 E9.97743
G1 X128.771 Y152.913 E9.99647
G1 X129.069 Y152.941 E10.00642
G1 X129.383 Y153.013 E10.01713
G0 F2625 X129.63 Y152.977
G0 X129.715 Y153.571
G0 X151.098 Y153.561
G0 X151.1 Y152.962
G1 F900 X151.602 Y152.772 E10.03496
G1 X151.893 Y152.632 E10.04569
