;Generated by Cura LulzBot Edition GCodeWriter Version: 3.2.27
;FLAVOR:Marlin
;TIME:423
;Filament used: 0.165096m
;Layer height: 0.25
;Generated with Cura_SteamEngine 3.2.27
M82 ;absolute extrusion mode
;This G-Code has been generated specifically for the LulzBot TAZ 6 with standard extruder
M75 ; start GLCD timer
G26 ; clear potential 'probe fail' condition
G21 ; set units to Millimetres
M107 ; disable fans
M420 S0 ; disable previous leveling matrix
G90 ; absolute positioning
M82 ; set extruder to absolute mode
G92 E0 ; set extruder position to 0
M140 S60 ; start bed heating up
M109 R140 ; soften filament before homing Z
G28 ; Home all axis
G1 E-30 F100 ; retract filament
M109 R140 ; wait for extruder to reach wiping temp
G1 X-15 Y100 F3000 ; move above wiper pad
G1 Z1 ; push nozzle into wiper
G1 X-17 Y95 F1000 ; slow wipe
G1 X-17 Y90 F1000 ; slow wipe
G1 X-17 Y85 F1000 ; slow wipe
G1 X-15 Y90 F1000 ; slow wipe
G1 X-17 Y80 F1000 ; slow wipe
G1 X-15 Y95 F1000 ; slow wipe
G1 X-17 Y75 F2000 ; fast wipe
G1 X-15 Y65 F2000 ; fast wipe
G1 X-17 Y70 F2000 ; fast wipe
G1 X-15 Y60 F2000 ; fast wipe
G1 X-17 Y55 F2000 ; fast wipe
G1 X-15 Y50 F2000 ; fast wipe
G1 X-17 Y40 F2000 ; fast wipe
G1 X-15 Y45 F2000 ; fast wipe
G1 X-17 Y35 F2000 ; fast wipe
G1 X-15 Y40 F2000 ; fast wipe
G1 X-17 Y70 F2000 ; fast wipe
G1 X-15 Y30 Z2 F2000 ; fast wipe
G1 X-17 Y35 F2000 ; fast wipe
G1 X-15 Y25 F2000 ; fast wipe
G1 X-17 Y30 F2000 ; fast wipe
G1 X-15 Y25 Z1.5 F1000 ; slow wipe
G1 X-17 Y23 F1000 ; slow wipe
G1 Z10 ; raise extruder
M109 R140 ; wait for extruder to reach probe temp
G1 X-9 Y-9 ; move above first probe point
M204 S100 ; set probing acceleration
G29 ; start auto-leveling sequence
M420 S1 ; activate bed level matrix
M425 Z			     ; use measured Z backlash for compensation
M425 Z F0		     ; turn off measured Z backlash compensation. (if activated in the quality settings, this command will automatically be ignored)
M204 S500 ; restore standard acceleration
G1 X0 Y0 Z15 F5000 ; move up off last probe point
G4 S1 ; pause
M400 ; wait for moves to finish
M117 Heating... ; progress indicator message on LCD
M109 R220 ; wait for extruder to reach printing temp
M190 S60 ; wait for bed to reach printing temp
G1 Z2 E0 F75 ; prime tiny bit of filament into the nozzle
M117 TAZ 6 Printing... ; progress indicator message on LCD

M221 S100
;LAYER_COUNT:20
;LAYER:0
M107
G0 F2625 X134.264 Y109.354 Z0.424
;TYPE:WALL-INNER
G1 F900 X134.698 Y109.378 E0.01444
G1 X135.209 Y109.435 E0.03153
G1 X135.626 Y109.507 E0.04559
G1 X136.079 Y109.608 E0.06102
G1 X136.558 Y109.743 E0.07756
G1 X136.967 Y109.884 E0.09193
G1 X137.538 Y110.122 E0.11249
G1 X138.014 Y110.357 E0.13013
G1 X138.389 Y110.57 E0.14446
G1 X138.635 Y110.725 E0.15413
G1 X139.314 Y111.216 E0.18197
G1 X139.558 Y111.419 E0.19252
G1 X140.221 Y112.056 E0.22307
G1 X140.382 Y112.236 E0.2311
G1 X140.78 Y112.725 E0.25205
G1 X141.15 Y113.252 E0.27345
G1 X141.555 Y113.953 E0.30036
G1 X141.891 Y114.691 E0.3273
G1 X142.06 Y115.151 E0.34359
G1 X142.152 Y115.446 E0.35386
G1 X142.347 Y116.246 E0.38122
G1 X142.46 Y117.034 E0.40768
G1 X142.499 Y117.849 E0.43479
G1 X142.46 Y118.661 E0.46181
G1 X142.347 Y119.452 E0.48836
G1 X142.154 Y120.247 E0.51555
G1 X142.067 Y120.524 E0.5252
G1 X141.891 Y121.007 E0.54228
G1 X141.555 Y121.742 E0.56914
G1 X141.132 Y122.473 E0.5972
G1 X140.785 Y122.968 E0.61729
G1 X140.47 Y123.359 E0.63398
G1 X140.235 Y123.626 E0.6458
G1 X139.553 Y124.285 E0.67731
G1 X139.315 Y124.482 E0.68758
G1 X138.635 Y124.973 E0.71545
G1 X138.389 Y125.128 E0.72512
G1 X138.017 Y125.339 E0.73933
G1 X137.457 Y125.615 E0.76008
G1 X136.982 Y125.808 E0.77711
G1 X136.549 Y125.958 E0.79234
G1 X136.086 Y126.089 E0.80833
G1 X135.632 Y126.19 E0.82379
G1 X135.208 Y126.263 E0.83809
G1 X134.698 Y126.32 E0.85514
G1 X134.264 Y126.344 E0.86959
G1 X133.776 Y126.346 E0.8858
G1 X133.371 Y126.325 E0.89928
G1 X132.793 Y126.262 E0.9186
G1 X131.924 Y126.091 E0.94803
G1 X131.539 Y125.982 E0.96133
G1 X131.026 Y125.812 E0.97929
G1 X130.546 Y125.613 E0.99656
G1 X130.053 Y125.376 E1.01474
G1 X129.359 Y124.97 E1.04146
G1 X129.156 Y124.833 E1.0496
G1 X128.835 Y124.599 E1.0628
G1 X128.427 Y124.268 E1.08026
G1 X128.259 Y124.117 E1.08776
G1 X127.889 Y123.756 E1.10494
G1 X127.54 Y123.373 E1.12216
G1 X127.328 Y123.114 E1.13328
G1 X126.852 Y122.447 E1.16052
G1 X126.417 Y121.688 E1.18959
G1 X126.109 Y121.005 E1.21449
G1 X125.847 Y120.246 E1.24117
G1 X125.652 Y119.449 E1.26844
G1 X125.54 Y118.661 E1.29489
G1 X125.501 Y117.849 E1.3219
G1 X125.54 Y117.034 E1.34902
G1 X125.652 Y116.249 E1.37537
G1 X125.848 Y115.446 E1.40284
G1 X126.112 Y114.685 E1.42961
G1 X126.445 Y113.953 E1.45633
G1 X126.846 Y113.259 E1.48297
G1 X127.333 Y112.576 E1.51084
G1 X127.53 Y112.337 E1.52114
G1 X127.896 Y111.935 E1.5392
G1 X128.257 Y111.582 E1.55598
G1 X128.433 Y111.426 E1.5638
G1 X128.834 Y111.1 E1.58097
G1 X129.176 Y110.85 E1.59505
G1 X129.449 Y110.671 E1.6059
G1 X130.089 Y110.303 E1.63043
G1 X130.467 Y110.119 E1.6444
G1 X131.011 Y109.893 E1.66398
G1 X131.43 Y109.748 E1.67871
G1 X131.908 Y109.61 E1.69525
G1 X132.853 Y109.429 E1.72722
G1 X133.368 Y109.374 E1.74443
G1 X133.777 Y109.352 E1.75804
G1 X134.264 Y109.354 E1.77423
G0 F2625 X134.262 Y109.453
G0 X136.362 Y117.884
G0 X136.263 Y117.88
G1 F900 X136.187 Y117.382 E1.79097
G1 X136.114 Y117.07 E1.80162
G1 X135.89 Y116.629 E1.81806
G1 X135.683 Y116.369 E1.8291
G1 X135.267 Y115.983 E1.84796
G1 X134.619 Y115.674 E1.87182
G1 X133.959 Y115.625 E1.89381
G1 X133.639 Y115.624 E1.90444
G1 X133.317 Y115.703 E1.91546
G1 X132.658 Y116.031 E1.93992
G1 X132.285 Y116.404 E1.95745
G1 X132.223 Y116.498 E1.9612
G1 X132.062 Y116.698 E1.96973
G1 X131.859 Y117.151 E1.98623
G1 X131.807 Y117.519 E1.99858
G1 X131.738 Y117.813 E2.00861
G1 X131.802 Y118.277 E2.02418
G1 X131.872 Y118.577 E2.03442
G1 X132.057 Y118.99 E2.04945
G1 X132.302 Y119.313 E2.06293
G1 X132.657 Y119.668 E2.07961
G1 X133.317 Y119.994 E2.10407
G1 X133.634 Y120.073 E2.11493
G1 X133.955 Y120.074 E2.1256
G1 X134.618 Y120.025 E2.14769
G1 X135.266 Y119.716 E2.17155
G1 X135.682 Y119.33 E2.19041
G1 X135.889 Y119.07 E2.20145
G1 X136.126 Y118.604 E2.21883
G1 X136.191 Y118.185 E2.23292
G1 X136.263 Y117.88 E2.24333
G0 F2625 X135.754 Y117.859
;TYPE:WALL-OUTER
G1 F900 X135.696 Y117.477 E2.25617
G1 X135.641 Y117.243 E2.26416
G1 X135.467 Y116.901 E2.27691
G1 X135.315 Y116.71 E2.28502
G1 X134.983 Y116.401 E2.30009
G1 X134.489 Y116.166 E2.31827
G1 X133.939 Y116.125 E2.3366
G1 X133.698 Y116.124 E2.34461
G1 X133.49 Y116.175 E2.35173
G1 X132.954 Y116.442 E2.37163
G1 X132.675 Y116.721 E2.38474
G1 X132.628 Y116.793 E2.3876
G1 X132.492 Y116.962 E2.39481
G1 X132.344 Y117.291 E2.4068
G1 X132.298 Y117.616 E2.4177
G1 X132.246 Y117.837 E2.42525
G1 X132.294 Y118.186 E2.43696
G1 X132.348 Y118.416 E2.44481
G1 X132.49 Y118.733 E2.45635
G1 X132.68 Y118.983 E2.46678
G1 X132.953 Y119.256 E2.47961
G1 X133.49 Y119.522 E2.49953
G1 X133.696 Y119.573 E2.50658
G1 X133.937 Y119.574 E2.51459
G1 X134.488 Y119.533 E2.53295
G1 X134.982 Y119.298 E2.55113
G1 X135.314 Y118.989 E2.5662
G1 X135.466 Y118.798 E2.57432
G1 X135.644 Y118.448 E2.58737
G1 X135.701 Y118.084 E2.59961
G1 X135.754 Y117.859 E2.60729
G0 F2625 X135.717 Y117.612
G0 X136.31 Y117.522
G0 X136.23 Y118.192
G0 X136.193 Y118.431
G0 X133.778 Y126.247
G0 X133.77 Y126.846
G1 F900 X133.327 Y126.823 E2.62203
G1 X132.713 Y126.756 E2.64256
G1 X131.813 Y126.579 E2.67304
G1 X131.381 Y126.457 E2.68796
G1 X130.86 Y126.284 E2.7062
G1 X130.347 Y126.072 E2.72465
G1 X129.812 Y125.814 E2.74439
G1 X129.094 Y125.394 E2.77203
G1 X128.865 Y125.24 E2.7812
G1 X128.54 Y125.003 E2.79457
G1 X128.1 Y124.646 E2.8134
G1 X127.917 Y124.482 E2.82156
G1 X127.531 Y124.105 E2.83949
G1 X127.158 Y123.695 E2.85791
G1 X126.934 Y123.423 E2.86962
G1 X126.427 Y122.712 E2.89864
G1 X125.971 Y121.916 E2.92913
G1 X125.644 Y121.191 E2.95556
G1 X125.366 Y120.387 E2.98383
G1 X125.161 Y119.547 E3.01256
G1 X125.042 Y118.713 E3.04056
G1 X125.001 Y117.849 E3.0693
G1 X125.042 Y116.982 E3.09815
G1 X125.161 Y116.151 E3.12605
G1 X125.366 Y115.311 E3.15478
G1 X125.648 Y114.497 E3.18341
G1 X126.001 Y113.723 E3.21168
G1 X126.424 Y112.99 E3.2398
G1 X126.934 Y112.275 E3.26899
G1 X127.16 Y112 E3.28082
G1 X127.53 Y111.594 E3.29907
G1 X127.917 Y111.216 E3.31705
G1 X128.1 Y111.053 E3.32519
G1 X128.539 Y110.696 E3.344
G1 X128.881 Y110.446 E3.35808
G1 X129.183 Y110.248 E3.37008
G1 X129.87 Y109.853 E3.39641
G1 X130.259 Y109.664 E3.41078
G1 X130.833 Y109.425 E3.43145
G1 X131.267 Y109.275 E3.44671
G1 X131.793 Y109.123 E3.4649
G1 X132.778 Y108.934 E3.49823
G1 X133.326 Y108.876 E3.51655
G1 X133.769 Y108.852 E3.53129
G1 X134.273 Y108.854 E3.54804
G1 X134.747 Y108.88 E3.56381
G1 X135.281 Y108.94 E3.58167
G1 X135.718 Y109.015 E3.59641
G1 X136.199 Y109.122 E3.61278
G1 X136.715 Y109.268 E3.6306
G1 X137.145 Y109.416 E3.64571
G1 X137.741 Y109.664 E3.66717
G1 X138.252 Y109.917 E3.68612
G1 X138.636 Y110.135 E3.70079
G1 X138.917 Y110.312 E3.71183
G1 X139.622 Y110.822 E3.74074
G1 X139.892 Y111.046 E3.7524
G1 X140.579 Y111.707 E3.78408
G1 X140.761 Y111.909 E3.79312
G1 X141.178 Y112.422 E3.81509
G1 X141.574 Y112.986 E3.83799
G1 X141.999 Y113.723 E3.86626
G1 X142.352 Y114.497 E3.89453
G1 X142.537 Y115.002 E3.91241
G1 X142.636 Y115.318 E3.92341
G1 X142.839 Y116.151 E3.9519
G1 X142.958 Y116.982 E3.9798
G1 X142.999 Y117.849 E4.00864
G1 X142.958 Y118.713 E4.03739
G1 X142.839 Y119.547 E4.06539
G1 X142.636 Y120.38 E4.09388
G1 X142.537 Y120.695 E4.10485
G1 X142.353 Y121.199 E4.12268
G1 X141.999 Y121.974 E4.151
G1 X141.559 Y122.734 E4.18018
G1 X141.182 Y123.272 E4.20201
G1 X140.845 Y123.69 E4.21985
G1 X140.598 Y123.97 E4.23226
G1 X139.887 Y124.657 E4.26512
G1 X139.622 Y124.877 E4.27656
G1 X138.917 Y125.386 E4.30546
G1 X138.636 Y125.563 E4.3165
G1 X138.248 Y125.783 E4.33132
G1 X137.667 Y126.069 E4.35284
G1 X137.155 Y126.278 E4.37122
G1 X136.702 Y126.434 E4.38714
G1 X136.214 Y126.573 E4.404
G1 X135.717 Y126.683 E4.42092
G1 X135.281 Y126.758 E4.43562
G1 X134.747 Y126.818 E4.45348
G1 X134.273 Y126.844 E4.46925
G1 X133.77 Y126.846 E4.48597
G0 F2625 X133.52 Y126.834
G0 X133.551 Y126.235
G0 X133.413 Y125.835
;TYPE:SKIN
G1 F900 X132.859 Y125.775 E4.50449
G1 X132.045 Y125.616 E4.53205
G1 X131.673 Y125.51 E4.5449
G1 X131.206 Y125.355 E4.56125
G1 X130.734 Y125.16 E4.57823
G1 X130.289 Y124.946 E4.59464
G1 X129.62 Y124.555 E4.62039
G1 X129.43 Y124.427 E4.628
G1 X129.134 Y124.211 E4.64018
G1 X128.746 Y123.896 E4.65678
G1 X128.602 Y123.766 E4.66323
G1 X128.232 Y123.405 E4.68041
G1 X127.91 Y123.052 E4.69629
G1 X127.713 Y122.811 E4.70663
G1 X127.268 Y122.188 E4.73208
G1 X126.858 Y121.474 E4.75944
G1 X126.562 Y120.817 E4.78338
G1 X126.315 Y120.1 E4.80859
G1 X126.136 Y119.365 E4.83372
G1 X126.028 Y118.612 E4.859
G1 X125.993 Y117.849 E4.88439
G1 X126.029 Y117.07 E4.9103
G1 X126.133 Y116.342 E4.93474
G1 X126.319 Y115.585 E4.96065
G1 X126.565 Y114.872 E4.98571
G1 X126.881 Y114.177 E5.01108
G1 X127.256 Y113.528 E5.03599
G1 X127.719 Y112.878 E5.06251
G1 X127.908 Y112.649 E5.07238
G1 X128.239 Y112.286 E5.0887
G1 X128.6 Y111.933 E5.10548
G1 X128.75 Y111.8 E5.11215
G1 X129.124 Y111.496 E5.12816
G1 X129.456 Y111.253 E5.14184
G1 X129.706 Y111.089 E5.15177
G1 X130.326 Y110.733 E5.17553
G1 X130.665 Y110.568 E5.18806
G1 X131.192 Y110.349 E5.20702
G1 X131.583 Y110.214 E5.22077
G1 X132.015 Y110.089 E5.23572
G1 X132.924 Y109.915 E5.26647
G1 X133.41 Y109.863 E5.28272
G1 X133.801 Y109.842 E5.29573
G1 X134.237 Y109.844 E5.31022
G1 X134.663 Y109.868 E5.3244
G1 X135.136 Y109.92 E5.34021
G1 X135.533 Y109.988 E5.35359
G1 X135.951 Y110.082 E5.36783
G1 X136.417 Y110.213 E5.38392
G1 X136.782 Y110.338 E5.39674
G1 X137.343 Y110.572 E5.41694
G1 X137.785 Y110.79 E5.43332
G1 X138.113 Y110.976 E5.44585
G1 X138.366 Y111.134 E5.45576
G1 X139.009 Y111.6 E5.48215
G1 X139.237 Y111.79 E5.49201
G1 X139.862 Y112.391 E5.52083
G1 X140.002 Y112.546 E5.52777
G1 X140.389 Y113.021 E5.54813
G1 X140.74 Y113.521 E5.56843
G1 X141.119 Y114.177 E5.59361
G1 X141.438 Y114.878 E5.6192
G1 X141.592 Y115.296 E5.63401
G1 X141.68 Y115.577 E5.64379
G1 X141.865 Y116.336 E5.66975
G1 X141.971 Y117.07 E5.6944
G1 X142.007 Y117.849 E5.72031
G1 X141.971 Y118.622 E5.74603
G1 X141.866 Y119.359 E5.77077
G1 X141.686 Y120.1 E5.79611
G1 X141.602 Y120.367 E5.80541
G1 X141.432 Y120.834 E5.82193
G1 X141.12 Y121.516 E5.84685
G1 X140.722 Y122.204 E5.87327
G1 X140.396 Y122.668 E5.89211
G1 X140.094 Y123.043 E5.90811
G1 X139.883 Y123.283 E5.91873
G1 X139.219 Y123.925 E5.94942
G1 X139.021 Y124.089 E5.95797
G1 X138.358 Y124.568 E5.98515
G1 X138.137 Y124.707 E5.99383
G1 X137.787 Y124.906 E6.00721
G1 X137.259 Y125.167 E6.02678
G1 X136.809 Y125.349 E6.04291
G1 X136.403 Y125.49 E6.05719
G1 X135.955 Y125.616 E6.07266
G1 X135.527 Y125.712 E6.08724
G1 X135.147 Y125.777 E6.10005
G1 X134.663 Y125.83 E6.11623
G1 X134.237 Y125.854 E6.13041
G1 X133.8 Y125.856 E6.14493
G1 X133.413 Y125.835 E6.15781
G0 F2625 X133.573 Y120.563
G1 F900 X133.973 Y120.564 E6.1711
G1 X134.746 Y120.507 E6.19686
G1 X135.544 Y120.126 E6.22625
G1 X136.043 Y119.664 E6.24884
G1 X136.303 Y119.337 E6.26273
G1 X136.598 Y118.757 E6.28435
G1 X136.672 Y118.278 E6.30046
G1 X136.761 Y117.9 E6.31336
G1 X136.669 Y117.29 E6.33387
G1 X136.578 Y116.901 E6.34714
G1 X136.304 Y116.363 E6.36721
G1 X136.044 Y116.035 E6.38112
G1 X135.545 Y115.573 E6.40371
G1 X134.747 Y115.192 E6.4331
G1 X133.978 Y115.135 E6.45873
G1 X133.58 Y115.134 E6.47195
G1 X133.147 Y115.24 E6.48677
G1 X132.368 Y115.628 E6.51569
G1 X131.903 Y116.092 E6.53752
G1 X131.826 Y116.209 E6.54217
G1 X131.641 Y116.44 E6.55201
G1 X131.383 Y117.014 E6.57292
G1 X131.322 Y117.438 E6.58716
G1 X131.24 Y117.79 E6.59917
G1 X131.32 Y118.367 E6.61853
G1 X131.406 Y118.734 E6.63105
G1 X131.633 Y119.241 E6.64951
G1 X131.932 Y119.636 E6.66598
G1 X132.367 Y120.072 E6.68644
G1 X133.147 Y120.457 E6.71535
G1 X133.573 Y120.563 E6.72994
G0 F2625 X127.098 Y121.442
G1 F900 X130.413 Y124.756 E6.88571
G1 X130.501 Y124.844
G0 F2625 X131.618 Y125.254
G1 F900 X126.597 Y120.233 E7.12168
G1 X126.509 Y120.145
G0 F2625 X126.348 Y119.277
G1 F900 X132.558 Y125.487 E7.41353
G1 X132.646 Y125.575
G0 F2625 X133.382 Y125.604
G1 F900 X126.245 Y118.467 E7.74895
G1 X126.157 Y118.379
G0 F2625 X126.223 Y117.738
G1 F900 X134.114 Y125.628 E8.11978
G1 X134.202 Y125.716
G0 F2625 X134.782 Y125.589
G1 F900 X126.255 Y117.062 E8.52053
G1 X126.167 Y116.974
G0 F2625 X126.343 Y116.443
G1 F900 X135.403 Y125.504 E8.94635
G1 X135.491 Y125.592
G0 F2625 X135.98 Y125.374
G1 F900 X126.478 Y115.872 E9.39291
G1 X126.39 Y115.784
G0 F2625 X126.644 Y115.33
G1 F900 X136.522 Y125.208 E9.85715
G1 X136.61 Y125.296
G0 F2625 X137.034 Y125.013
G1 F900 X132.322 Y120.301 E10.0786
G1 X132.234 Y120.213
G0 F2625 X131.627 Y119.607
G1 F900 X126.836 Y114.815 E10.30379
G1 X126.748 Y114.727
G0 F2625 X127.058 Y114.33
G1 F900 X131.091 Y118.364 E10.49335
G1 X131.179 Y118.452
G0 F2625 X131.049 Y117.614
G1 F900 X127.312 Y113.877 E10.66898
G1 X127.224 Y113.789
G0 F2625 X127.589 Y113.447
G1 F900 X131.156 Y117.014 E10.83662
G1 X131.244 Y117.102
G0 F2625 X131.362 Y116.512
G1 F900 X127.883 Y113.034 E11.0001
G1 X127.795 Y112.946
G0 F2625 X128.208 Y112.652
G1 F900 X131.639 Y116.082 E11.16132
G1 X131.727 Y116.17
G0 F2625 X131.97 Y115.706
G1 F900 X128.555 Y112.292 E11.32179
G1 X128.467 Y112.204
G0 F2625 X128.921 Y111.95
G1 F900 X132.352 Y115.382 E11.48306
G1 X132.44 Y115.47
G0 F2625 X132.825 Y115.147
G1 F900 X129.313 Y111.635 E11.64812
G1 X129.225 Y111.547
G0 F2625 X129.727 Y111.343
G1 F900 X133.344 Y114.959 E11.81808
G1 X133.432 Y115.047
G0 F2625 X134.003 Y114.911
G1 F900 X130.172 Y111.08 E11.99813
G1 X130.084 Y110.992
G0 F2625 X130.633 Y110.834
G1 F900 X134.766 Y114.967 E12.19237
G1 X134.854 Y115.055
G0 F2625 X136.842 Y117.043
G1 F900 X141.011 Y121.212 E12.3883
G1 X141.099 Y121.3
G0 F2625 X140.767 Y121.676
G1 F900 X136.984 Y117.893 E12.56609
G1 X136.896 Y117.805
G0 F2625 X136.866 Y118.482
G1 F900 X140.504 Y122.12 E12.73706
G1 X140.592 Y122.208
G0 F2625 X140.212 Y122.535
G1 F900 X136.709 Y119.031 E12.90172
G1 X136.621 Y118.943
G0 F2625 X136.463 Y119.493
G1 F900 X139.896 Y122.926 E13.06306
G1 X139.984 Y123.014
