;Generated by Cura LulzBot Edition GCodeWriter Version: 3.2.27
;FLAVOR:Marlin
;TIME:2065
;Filament used: 0.864888m
;Layer height: 0.25
;Generated with Cura_SteamEngine 3.2.27
M82 ;absolute extrusion mode
;This G-Code has been generated specifically for the LulzBot TAZ 6 with standard extruder
M75 ; start GLCD timer
G26 ; clear potential 'probe fail' condition
G21 ; set units to Millimetres
M107 ; disable fans
M420 S0 ; disable previous leveling matrix
G90 ; absolute positioning
M82 ; set extruder to absolute mode
G92 E0 ; set extruder position to 0
M140 S60 ; start bed heating up
M109 R140 ; soften filament before homing Z
G28 ; Home all axis
G1 E-30 F100 ; retract filament
M109 R140 ; wait for extruder to reach wiping temp
G1 X-15 Y100 F3000 ; move above wiper pad
G1 Z1 ; push nozzle into wiper
G1 X-17 Y95 F1000 ; slow wipe
G1 X-17 Y90 F1000 ; slow wipe
G1 X-17 Y85 F1000 ; slow wipe
G1 X-15 Y90 F1000 ; slow wipe
G1 X-17 Y80 F1000 ; slow wipe
G1 X-15 Y95 F1000 ; slow wipe
G1 X-17 Y75 F2000 ; fast wipe
G1 X-15 Y65 F2000 ; fast wipe
G1 X-17 Y70 F2000 ; fast wipe
G1 X-15 Y60 F2000 ; fast wipe
G1 X-17 Y55 F2000 ; fast wipe
G1 X-15 Y50 F2000 ; fast wipe
G1 X-17 Y40 F2000 ; fast wipe
G1 X-15 Y45 F2000 ; fast wipe
G1 X-17 Y35 F2000 ; fast wipe
G1 X-15 Y40 F2000 ; fast wipe
G1 X-17 Y70 F2000 ; fast wipe
G1 X-15 Y30 Z2 F2000 ; fast wipe
G1 X-17 Y35 F2000 ; fast wipe
G1 X-15 Y25 F2000 ; fast wipe
G1 X-17 Y30 F2000 ; fast wipe
G1 X-15 Y25 Z1.5 F1000 ; slow wipe
G1 X-17 Y23 F1000 ; slow wipe
G1 Z10 ; raise extruder
M109 R140 ; wait for extruder to reach probe temp
G1 X-9 Y-9 ; move above first probe point
M204 S100 ; set probing acceleration
G29 ; start auto-leveling sequence
M420 S1 ; activate bed level matrix
M425 Z			     ; use measured Z backlash for compensation
M425 Z F0		     ; turn off measured Z backlash compensation. (if activated in the quality settings, this command will automatically be ignored)
M204 S500 ; restore standard acceleration
G1 X0 Y0 Z15 F5000 ; move up off last probe point
G4 S1 ; pause
M400 ; wait for moves to finish
M117 Heating... ; progress indicator message on LCD
M109 R220 ; wait for extruder to reach printing temp
M190 S60 ; wait for bed to reach printing temp
G1 Z2 E0 F75 ; prime tiny bit of filament into the nozzle
M117 TAZ 6 Printing... ; progress indicator message on LCD

M221 S100
;LAYER_COUNT:84
;LAYER:0
M107
G0 F2625 X110.121 Y110.215 Z0.424
;TYPE:SKIRT
G1 F900 X110.459 Y109.899 E0.01538
G1 X110.885 Y109.555 E0.03357
G1 X111.357 Y109.277 E0.05178
G1 X111.99 Y109.032 E0.07433
G1 X112.312 Y108.94 E0.08546
G1 X112.848 Y108.829 E0.10365
G1 X113.342 Y108.796 E0.12011
G1 X152.676 Y108.792 E1.42725
G1 X153.222 Y108.832 E1.44545
G1 X153.708 Y108.937 E1.46197
G1 X153.97 Y109.012 E1.47103
G1 X154.484 Y109.2 E1.48921
G1 X154.965 Y109.462 E1.50742
G1 X155.197 Y109.624 E1.51682
G1 X155.405 Y109.781 E1.52548
G1 X155.817 Y110.142 E1.54368
G1 X156.206 Y110.606 E1.56381
G1 X159.045 Y114.612 E1.72697
G1 X162.398 Y118.931 E1.90868
G1 X165.976 Y123.036 E2.08964
G1 X169.978 Y127.144 E2.28023
G1 X170.33 Y127.563 E2.29842
G1 X170.618 Y128.029 E2.31662
G1 X170.914 Y128.79 E2.34376
G1 X171.106 Y129.506 E2.36839
G1 X171.209 Y130.043 E2.38656
G1 X171.234 Y130.472 E2.40084
G1 X171.24 Y135.471 E2.56697
G1 X171.201 Y136.017 E2.58516
G1 X171.112 Y136.448 E2.59979
G1 X170.903 Y137.227 E2.62659
G1 X170.723 Y137.744 E2.64478
G1 X170.47 Y138.229 E2.66296
G1 X169.969 Y138.87 E2.69
G1 X165.863 Y143.091 E2.88569
G1 X162.3 Y147.195 E3.0663
G1 X158.951 Y151.524 E3.24819
G1 X156.379 Y155.209 E3.39752
G1 X155.961 Y155.709 E3.41918
G1 X155.72 Y155.951 E3.43053
G1 X155.256 Y156.347 E3.4508
G1 X149.365 Y160.594 E3.69214
G1 X145.182 Y164.037 E3.87219
G1 X141.14 Y167.767 E4.05496
G1 X138.926 Y169.926 E4.15773
G1 X138.507 Y170.279 E4.17594
G1 X138.041 Y170.567 E4.19414
G1 X137.414 Y170.825 E4.21667
G1 X136.631 Y171.067 E4.24391
G1 X136.098 Y171.19 E4.26209
G1 X135.529 Y171.234 E4.28105
G1 X130.53 Y171.24 E4.44718
G1 X129.984 Y171.201 E4.46537
G1 X129.554 Y171.112 E4.47996
G1 X128.774 Y170.903 E4.5068
G1 X128.257 Y170.723 E4.52499
G1 X127.772 Y170.47 E4.54317
G1 X127.13 Y169.969 E4.57023
G1 X122.909 Y165.863 E4.76592
G1 X118.805 Y162.3 E4.94653
G1 X114.476 Y158.951 E5.12842
G1 X110.79 Y156.379 E5.27779
G1 X110.365 Y156.034 E5.29598
G1 X110.154 Y155.818 E5.30601
G1 X109.844 Y155.475 E5.32138
G1 X109.507 Y155.044 E5.33956
G1 X109.238 Y154.568 E5.35773
G1 X108.988 Y153.872 E5.3823
G1 X108.874 Y153.417 E5.39789
G1 X108.781 Y152.878 E5.41607
G1 X108.762 Y152.506 E5.42845
G1 X108.761 Y113.5 E6.72469
G1 X108.801 Y112.954 E6.74289
G1 X108.932 Y112.379 E6.76248
G1 X109.103 Y111.833 E6.7815
G1 X109.305 Y111.324 E6.7997
G1 X109.578 Y110.85 E6.81787
G1 X109.917 Y110.42 E6.83607
G1 X110.121 Y110.215 E6.84568
G0 F2625 X110.462 Y110.58
G1 F900 X110.8 Y110.264 E6.86106
G1 X111.199 Y109.946 E6.87801
G1 X111.642 Y109.695 E6.89493
G1 X112.127 Y109.513 E6.91215
G1 X112.449 Y109.421 E6.92328
G1 X112.949 Y109.32 E6.94023
G1 X113.342 Y109.296 E6.95331
G1 X152.676 Y109.292 E8.26046
G1 X153.184 Y109.332 E8.2774
G1 X153.57 Y109.417 E8.29053
G1 X153.832 Y109.492 E8.29959
G1 X154.31 Y109.671 E8.31655
G1 X154.896 Y110.023 E8.33927
G1 X155.104 Y110.18 E8.34793
G1 X155.485 Y110.518 E8.36485
G1 X155.798 Y110.895 E8.38114
G1 X158.647 Y114.915 E8.54488
G1 X162.013 Y119.25 E8.72727
G1 X165.603 Y123.369 E8.90884
G1 X169.62 Y127.493 E9.10016
G1 X169.946 Y127.885 E9.1171
G1 X170.206 Y128.323 E9.13403
G1 X170.431 Y128.919 E9.1552
G1 X170.623 Y129.635 E9.17984
G1 X170.716 Y130.136 E9.19677
G1 X170.734 Y130.473 E9.20798
G1 X170.74 Y135.472 E9.37411
G1 X170.701 Y135.98 E9.39104
G1 X170.629 Y136.318 E9.40253
G1 X170.42 Y137.097 E9.42933
G1 X170.25 Y137.577 E9.44625
G1 X170.007 Y138.025 E9.46319
G1 X169.611 Y138.521 E9.48428
G1 X165.496 Y142.751 E9.6804
G1 X161.915 Y146.876 E9.86193
G1 X158.546 Y151.232 E10.04493
G1 X155.969 Y154.923 E10.19453
G1 X155.607 Y155.356 E10.21328
G1 X155.366 Y155.598 E10.22463
G1 X154.964 Y155.941 E10.24219
G1 X149.059 Y160.198 E10.4841
G1 X144.85 Y163.662 E10.66526
G1 X140.787 Y167.411 E10.84898
G1 X138.576 Y169.568 E10.95163
G1 X138.185 Y169.894 E10.96854
G1 X137.747 Y170.155 E10.98549
G1 X137.267 Y170.347 E11.00267
G1 X136.484 Y170.589 E11.0299
G1 X135.987 Y170.701 E11.04683
G1 X135.528 Y170.734 E11.06213
G1 X130.529 Y170.74 E11.22825
G1 X130.021 Y170.701 E11.24518
G1 X129.684 Y170.629 E11.25664
G1 X128.904 Y170.42 E11.28347
G1 X128.424 Y170.25 E11.30039
G1 X127.976 Y170.007 E11.31733
G1 X127.479 Y169.611 E11.33845
G1 X123.249 Y165.496 E11.53456
G1 X119.124 Y161.915 E11.71609
G1 X114.769 Y158.546 E11.89907
G1 X111.076 Y155.969 E12.04872
G1 X110.525 Y155.483 E12.07314
G1 X110.215 Y155.14 E12.0885
G1 X109.904 Y154.737 E12.10542
G1 X109.66 Y154.289 E12.12237
G1 X109.473 Y153.751 E12.1413
G1 X109.359 Y153.296 E12.15689
G1 X109.275 Y152.793 E12.17383
G1 X109.262 Y152.506 E12.18338
G1 X109.261 Y113.5 E13.47963
G1 X109.301 Y112.992 E13.49656
G1 X109.41 Y112.529 E13.51237
G1 X109.581 Y111.983 E13.53138
G1 X109.77 Y111.51 E13.54831
G1 X110.032 Y111.073 E13.56524
G1 X110.462 Y110.58 E13.58698
G1 F600 E12.58698
G0 F2625 X111.945 Y113.002
G0 X113.269 Y113.6
G0 X120.509 Y137.537
G0 X120.895 Y138.48
G0 X121.485 Y139.634
G0 X122.593 Y141.248
G0 X123.848 Y142.633
G0 X125.715 Y144.174
G0 X125.771 Y144.092
;TYPE:WALL-INNER
G1 F600 E13.58698
G1 F900 X125.974 Y144.211 E13.5948
G1 X126.379 Y144.479 E13.61094
G1 X127.591 Y145.061 E13.65562
G1 X127.826 Y145.188 E13.6645
G1 X128.176 Y145.341 E13.67719
G1 X129.247 Y145.708 E13.71481
G1 X130.027 Y145.902 E13.74152
G1 X130.269 Y145.947 E13.7497
G1 X130.703 Y146.051 E13.76454
G1 X131.923 Y146.181 E13.80531
G1 X132.13 Y146.213 E13.81227
G1 X132.487 Y146.241 E13.82417
G1 X133.55 Y146.239 E13.85949
G1 X134.31 Y146.179 E13.88483
G1 X134.768 Y146.109 E13.90023
G1 X135.296 Y146.051 E13.91788
G1 X136.444 Y145.785 E13.95704
G1 X136.793 Y145.696 E13.96901
G1 X137.863 Y145.327 E14.00662
G1 X138.603 Y144.997 E14.03355
G1 X139.078 Y144.741 E14.05148
G1 X139.62 Y144.479 E14.07149
G1 X140.687 Y143.777 E14.11393
G1 X141.036 Y143.499 E14.12876
G1 X141.508 Y143.16 E14.14807
G1 X142.266 Y142.472 E14.18209
G1 X143.149 Y141.519 E14.22526
G1 X143.64 Y140.88 E14.25204
G1 X143.955 Y140.45 E14.26976
G1 X144.481 Y139.615 E14.30255
G1 X145.006 Y138.546 E14.34213
G1 X145.173 Y138.224 E14.35418
G1 X145.454 Y137.522 E14.37931
G1 X145.894 Y136.057 E14.43015
G1 X146.161 Y134.54 E14.48133
G1 X146.251 Y133 E14.5326
G1 X146.161 Y131.46 E14.58386
G1 X145.894 Y129.943 E14.63505
G1 X145.455 Y128.478 E14.68588
G1 X145.177 Y127.784 E14.71072
G1 X144.645 Y126.702 E14.75079
G1 X144.476 Y126.377 E14.76296
G1 X143.95 Y125.543 E14.79573
G1 X143.473 Y124.92 E14.8218
G1 X143.124 Y124.45 E14.84126
G1 X142.266 Y123.528 E14.88311
G1 X141.521 Y122.852 E14.91654
G1 X141.148 Y122.556 E14.93237
G1 X140.672 Y122.213 E14.95186
G1 X139.633 Y121.53 E14.99319
G1 X139.102 Y121.245 E15.01321
G1 X138.404 Y120.935 E15.03859
G1 X137.875 Y120.679 E15.05812
G1 X136.789 Y120.303 E15.09631
G1 X135.426 Y119.975 E15.1429
G1 X134.807 Y119.878 E15.16372
G1 X134.091 Y119.82 E15.1876
G1 X133.563 Y119.761 E15.20525
G1 X132.477 Y119.759 E15.24134
G1 X131.258 Y119.889 E15.28208
G1 X130.94 Y119.916 E15.29269
G1 X130.448 Y119.998 E15.30926
G1 X129.249 Y120.292 E15.35029
G1 X128.164 Y120.662 E15.38838
G1 X126.941 Y121.25 E15.43348
G1 X126.629 Y121.388 E15.44482
G1 X126.185 Y121.637 E15.46173
G1 X125.77 Y121.911 E15.47826
G1 X124.669 Y122.7 E15.52327
G1 X124.48 Y122.852 E15.53133
G1 X123.875 Y123.394 E15.55833
G1 X122.871 Y124.455 E15.60687
G1 X121.942 Y125.704 E15.6586
G1 X121.523 Y126.379 E15.685
G1 X121.154 Y127.087 E15.71153
G1 X120.928 Y127.543 E15.72845
G1 X120.546 Y128.476 E15.76195
G1 X120.106 Y129.943 E15.81285
G1 X119.838 Y131.461 E15.86407
G1 X119.749 Y133.074 E15.91776
G1 X119.839 Y134.541 E15.9666
G1 X120.106 Y136.057 E16.01776
G1 X120.546 Y137.524 E16.06865
G1 X120.931 Y138.464 E16.10241
G1 X121.296 Y139.166 E16.1287
G1 X121.519 Y139.615 E16.14536
G1 X121.942 Y140.293 E16.17192
G1 X122.625 Y141.225 E16.21032
G1 X122.852 Y141.521 E16.22272
G1 X123.875 Y142.605 E16.27225
G1 X124.494 Y143.161 E16.2999
G1 X125.58 Y143.939 E16.34429
G1 X125.771 Y144.092 E16.35243
G0 F2625 X125.715 Y144.174
G0 X129.778 Y152.722
G0 X130.729 Y162.762
G0 X130.824 Y162.792
G1 F900 X130.824 Y164.207 E16.39945
G1 X131.615 Y165.297 E16.44421
G1 X132.16 Y165.582 E16.46464
G1 X132.358 Y165.65 E16.4716
G1 X133.054 Y165.771 E16.49508
G1 X134.344 Y165.352 E16.54015
G1 X135.176 Y164.207 E16.58719
G1 X135.176 Y162.793 E16.63418
G1 X134.344 Y161.648 E16.68121
G1 X133.055 Y161.229 E16.72625
G1 X132.302 Y161.359 E16.75165
G1 X131.915 Y161.564 E16.7662
G1 X131.653 Y161.652 E16.77539
G1 X130.824 Y162.792 E16.82223
G0 F2625 X130.729 Y162.762
G0 X136.222 Y152.722
G0 X152.68 Y129.82
G0 X152.75 Y129.75
G1 F900 X165.932 Y129.75 E17.26029
G1 X166.265 Y129.814 E17.27156
G1 X166.337 Y129.85 E17.27424
G1 X166.628 Y130.141 E17.28791
G1 X166.75 Y130.596 E17.30357
G1 X166.75 Y135.404 E17.46335
G1 X166.628 Y135.859 E17.479
G1 X166.318 Y136.169 E17.49357
G1 X165.916 Y136.25 E17.5072
G1 X152.75 Y136.25 E17.94473
G1 X152.75 Y152.402 E18.48149
G1 X152.693 Y152.626 E18.48917
G1 X152.616 Y152.703 E18.49279
G1 X152.44 Y152.75 E18.49885
G1 X136.25 Y152.75 E19.03687
G1 X136.25 Y165.903 E19.47397
G1 X136.114 Y166.411 E19.49145
G1 X136.049 Y166.496 E19.49501
G1 X135.892 Y166.618 E19.50161
G1 X135.402 Y166.75 E19.51848
G1 X130.596 Y166.75 E19.67819
G1 X130.141 Y166.628 E19.69384
G1 X129.872 Y166.359 E19.70649
G1 X129.75 Y165.904 E19.72214
G1 X129.75 Y152.75 E20.15928
G1 X113.598 Y152.75 E20.69604
G1 X113.374 Y152.693 E20.70372
G1 X113.303 Y152.622 E20.70706
G1 X113.25 Y152.413 E20.71422
G1 X113.25 Y113.598 E22.00412
G1 X113.307 Y113.374 E22.0118
G1 X113.378 Y113.303 E22.01514
G1 X113.587 Y113.25 E22.0223
G1 X152.437 Y113.25 E23.31337
G1 X152.617 Y113.298 E23.31956
G1 X152.697 Y113.378 E23.32332
G1 X152.75 Y113.587 E23.33048
G1 X152.75 Y129.75 E23.86761
G0 F2625 X152.68 Y129.82
G0 X162.782 Y135.214
G0 X164.19 Y135.214
G0 X165.433 Y134.403
G0 X165.353 Y134.345
G1 F900 X165.789 Y133 E23.9146
G1 X165.383 Y131.749 E23.95831
G1 X165.094 Y131.405 E23.97324
G1 X164.473 Y131.015 E23.99761
G1 X164.205 Y130.824 E24.00854
G1 X162.838 Y130.824 E24.05397
G1 X162.086 Y131.252 E24.08272
G1 X161.863 Y131.498 E24.09376
G1 X161.648 Y131.655 E24.10261
G1 X161.211 Y133 E24.1496
G1 X161.622 Y134.265 E24.1938
G1 X162.008 Y134.692 E24.21293
G1 X162.55 Y135 E24.23365
G1 X162.794 Y135.176 E24.24365
G1 X164.179 Y135.176 E24.28967
G1 X165.019 Y134.651 E24.32259
G1 X165.155 Y134.488 E24.32965
G1 X165.353 Y134.345 E24.33776
G0 F2625 X165.433 Y134.403
G0 X164.19 Y135.214
G0 X162.782 Y135.214
G0 X161.983 Y134.723
G0 X161.588 Y134.285
G0 X161.171 Y133
G0 X161.503 Y131.779
G0 X162.073 Y131.964
;TYPE:WALL-OUTER
G1 F900 X161.737 Y133 E24.37396
G1 X162.065 Y134.009 E24.40922
G1 X162.325 Y134.297 E24.42211
G1 X162.819 Y134.578 E24.441
G1 X162.955 Y134.676 E24.44657
G1 X164.036 Y134.676 E24.48249
G1 X164.686 Y134.27 E24.50796
G1 X164.809 Y134.122 E24.51435
G1 X164.927 Y134.036 E24.51921
G1 X165.263 Y133 E24.5554
G1 X164.937 Y131.996 E24.59048
G1 X164.761 Y131.786 E24.59959
G1 X164.185 Y131.424 E24.62219
G1 X164.045 Y131.324 E24.62791
G1 X162.97 Y131.324 E24.66364
G1 X162.403 Y131.647 E24.68532
G1 X162.197 Y131.874 E24.69551
G1 X162.073 Y131.964 E24.7006
G0 F2625 X161.996 Y132.201
G0 X161.426 Y132.015
G0 X152.722 Y129.778
G0 X152.65 Y129.25
G0 X153.25 Y129.25
G1 F900 X165.979 Y129.25 E25.12361
G1 X166.426 Y129.336 E25.13874
G1 X166.585 Y129.415 E25.14464
G1 X166.62 Y129.425 E25.14585
G1 X167.076 Y129.881 E25.16728
G1 X167.25 Y130.531 E25.18964
G1 X167.25 Y135.469 E25.35374
G1 X167.076 Y136.119 E25.3761
G1 X166.603 Y136.592 E25.39833
G1 X166.501 Y136.642 E25.4021
G1 X165.965 Y136.75 E25.42027
G1 X153.25 Y136.75 E25.84282
G1 X153.25 Y152.466 E26.36509
G1 X153.149 Y152.865 E26.37877
G1 X153.124 Y152.903 E26.38028
G1 X152.904 Y153.123 E26.39062
G1 X152.856 Y153.155 E26.39254
G1 X152.588 Y153.232 E26.40181
G1 X152.481 Y153.25 E26.40541
G1 X136.75 Y153.25 E26.92818
G1 X136.75 Y165.969 E27.35086
G1 X136.571 Y166.637 E27.37384
G1 X136.407 Y166.851 E27.3828
G1 X136.12 Y167.075 E27.3949
G1 X135.469 Y167.25 E27.4173
G1 X130.531 Y167.25 E27.5814
G1 X129.881 Y167.076 E27.60376
G1 X129.424 Y166.619 E27.62524
G1 X129.25 Y165.969 E27.6476
G1 X129.25 Y153.25 E28.07028
G1 X113.534 Y153.25 E28.59256
G1 X113.135 Y153.149 E28.60623
G1 X113.097 Y153.124 E28.60774
G1 X112.877 Y152.904 E28.61808
G1 X112.847 Y152.86 E28.61985
G1 X112.75 Y152.475 E28.63305
G1 X112.75 Y113.534 E29.92713
G1 X112.851 Y113.135 E29.94081
G1 X112.876 Y113.097 E29.94232
G1 X113.096 Y112.877 E29.95266
G1 X113.14 Y112.847 E29.95443
G1 X113.525 Y112.75 E29.96763
G1 X152.501 Y112.75 E31.26288
G1 X152.855 Y112.844 E31.27505
G1 X152.903 Y112.876 E31.27697
G1 X153.123 Y113.096 E31.28731
G1 X153.153 Y113.14 E31.28908
G1 X153.25 Y113.525 E31.30227
G1 X153.25 Y129.25 E31.82484
G0 F2625 X153.5 Y129.25
G0 X153.5 Y129.85
G0 X142.294 Y142.5
G0 X141.533 Y143.191
G0 X139.639 Y144.513
G0 X137.877 Y145.364
G0 X136.453 Y145.823
G0 X135.302 Y146.09
G0 X133.551 Y146.278
G0 X132.126 Y146.252
G0 X130.697 Y146.09
G0 X129.236 Y145.746
G0 X128.081 Y145.324
G0 X125.68 Y144.146
G0 X126.054 Y143.678
G1 F900 X126.246 Y143.79 E31.83223
G1 X126.627 Y144.043 E31.84743
G1 X127.822 Y144.617 E31.89148
G1 X128.046 Y144.738 E31.89994
G1 X128.358 Y144.875 E31.91127
G1 X129.388 Y145.228 E31.94745
G1 X130.134 Y145.413 E31.97299
G1 X130.372 Y145.458 E31.98104
G1 X130.788 Y145.557 E31.99525
G1 X131.984 Y145.685 E32.03523
G1 X132.187 Y145.716 E32.04205
G1 X132.506 Y145.741 E32.05268
G1 X133.53 Y145.739 E32.08671
G1 X134.253 Y145.682 E32.11081
G1 X134.713 Y145.612 E32.12628
G1 X135.212 Y145.557 E32.14296
G1 X136.326 Y145.299 E32.18096
G1 X136.65 Y145.217 E32.19207
G1 X137.679 Y144.861 E32.22825
G1 X138.383 Y144.548 E32.25386
G1 X138.86 Y144.291 E32.27186
G1 X139.373 Y144.043 E32.2908
G1 X140.393 Y143.372 E32.33137
G1 X140.732 Y143.102 E32.34577
