;Generated by Cura LulzBot Edition GCodeWriter Version: 3.2.27
;FLAVOR:Marlin
;TIME:388
;Filament used: 0.144034m
;Layer height: 0.25
;Generated with Cura_SteamEngine 3.2.27
M82 ;absolute extrusion mode
;This G-Code has been generated specifically for the LulzBot TAZ 6 with standard extruder
M75 ; start GLCD timer
G26 ; clear potential 'probe fail' condition
G21 ; set units to Millimetres
M107 ; disable fans
M420 S0 ; disable previous leveling matrix
G90 ; absolute positioning
M82 ; set extruder to absolute mode
G92 E0 ; set extruder position to 0
M140 S60 ; start bed heating up
M109 R140 ; soften filament before homing Z
G28 ; Home all axis
G1 E-30 F100 ; retract filament
M109 R140 ; wait for extruder to reach wiping temp
G1 X-15 Y100 F3000 ; move above wiper pad
G1 Z1 ; push nozzle into wiper
G1 X-17 Y95 F1000 ; slow wipe
G1 X-17 Y90 F1000 ; slow wipe
G1 X-17 Y85 F1000 ; slow wipe
G1 X-15 Y90 F1000 ; slow wipe
G1 X-17 Y80 F1000 ; slow wipe
G1 X-15 Y95 F1000 ; slow wipe
G1 X-17 Y75 F2000 ; fast wipe
G1 X-15 Y65 F2000 ; fast wipe
G1 X-17 Y70 F2000 ; fast wipe
G1 X-15 Y60 F2000 ; fast wipe
G1 X-17 Y55 F2000 ; fast wipe
G1 X-15 Y50 F2000 ; fast wipe
G1 X-17 Y40 F2000 ; fast wipe
G1 X-15 Y45 F2000 ; fast wipe
G1 X-17 Y35 F2000 ; fast wipe
G1 X-15 Y40 F2000 ; fast wipe
G1 X-17 Y70 F2000 ; fast wipe
G1 X-15 Y30 Z2 F2000 ; fast wipe
G1 X-17 Y35 F2000 ; fast wipe
G1 X-15 Y25 F2000 ; fast wipe
G1 X-17 Y30 F2000 ; fast wipe
G1 X-15 Y25 Z1.5 F1000 ; slow wipe
G1 X-17 Y23 F1000 ; slow wipe
G1 Z10 ; raise extruder
M109 R140 ; wait for extruder to reach probe temp
G1 X-9 Y-9 ; move above first probe point
M204 S100 ; set probing acceleration
G29 ; start auto-leveling sequence
M420 S1 ; activate bed level matrix
M425 Z			     ; use measured Z backlash for compensation
M425 Z F0		     ; turn off measured Z backlash compensation. (if activated in the quality settings, this command will automatically be ignored)
M204 S500 ; restore standard acceleration
G1 X0 Y0 Z15 F5000 ; move up off last probe point
G4 S1 ; pause
M400 ; wait for moves to finish
M117 Heating... ; progress indicator message on LCD
M109 R220 ; wait for extruder to reach printing temp
M190 S60 ; wait for bed to reach printing temp
G1 Z2 E0 F75 ; prime tiny bit of filament into the nozzle
M117 TAZ 6 Printing... ; progress indicator message on LCD

M221 S100
;LAYER_COUNT:20
;LAYER:0
M107
G0 F2625 X138.997 Y109.723 Z0.424
;TYPE:WALL-INNER
G1 F900 X139.406 Y109.747 E0.01362
G1 X139.918 Y109.805 E0.03074
G1 X140.341 Y109.876 E0.04499
G1 X140.772 Y109.972 E0.05967
G1 X141.269 Y110.112 E0.07683
G1 X141.641 Y110.239 E0.08989
G1 X142.231 Y110.483 E0.11111
G1 X142.777 Y110.757 E0.13141
G1 X143.079 Y110.927 E0.14292
G1 X143.403 Y111.135 E0.15572
G1 X144.018 Y111.581 E0.18097
G1 X144.271 Y111.792 E0.19191
G1 X144.916 Y112.413 E0.22167
G1 X145.071 Y112.584 E0.22934
G1 X145.46 Y113.055 E0.24964
G1 X145.861 Y113.627 E0.27285
G1 X146.261 Y114.319 E0.29941
G1 X146.602 Y115.065 E0.32667
G1 X146.769 Y115.52 E0.34278
G1 X146.862 Y115.818 E0.35315
G1 X147.054 Y116.61 E0.38024
G1 X147.169 Y117.404 E0.4069
G1 X147.208 Y118.218 E0.43398
G1 X147.169 Y119.026 E0.46086
G1 X147.054 Y119.825 E0.48769
G1 X146.864 Y120.613 E0.51463
G1 X146.776 Y120.892 E0.52435
G1 X146.598 Y121.379 E0.54158
G1 X146.261 Y122.115 E0.56848
G1 X145.851 Y122.823 E0.59567
G1 X145.464 Y123.375 E0.61807
G1 X145.213 Y123.686 E0.63135
G1 X144.944 Y123.993 E0.64492
G1 X144.259 Y124.654 E0.67655
G1 X144.017 Y124.855 E0.68701
G1 X143.408 Y125.299 E0.71205
G1 X143.09 Y125.501 E0.72457
G1 X142.768 Y125.684 E0.73688
G1 X142.167 Y125.981 E0.75916
G1 X141.653 Y126.19 E0.7776
G1 X141.264 Y126.324 E0.79127
G1 X140.78 Y126.46 E0.80798
G1 X140.324 Y126.563 E0.82351
G1 X139.92 Y126.632 E0.83713
G1 X139.408 Y126.688 E0.85425
G1 X138.997 Y126.712 E0.86793
G1 X138.48 Y126.714 E0.88511
G1 X138.124 Y126.697 E0.89695
G1 X137.502 Y126.631 E0.91774
G1 X136.646 Y126.462 E0.94674
G1 X136.085 Y126.302 E0.96612
G1 X135.715 Y126.172 E0.97916
G1 X135.18 Y125.951 E0.99839
G1 X134.796 Y125.763 E1.0126
G1 X134.216 Y125.431 E1.03481
G1 X133.885 Y125.216 E1.04793
G1 X133.589 Y125.001 E1.06008
G1 X133.133 Y124.633 E1.07956
G1 X132.959 Y124.478 E1.0873
G1 X132.599 Y124.126 E1.10403
G1 X132.198 Y123.679 E1.12399
G1 X132.036 Y123.483 E1.13244
G1 X131.558 Y122.812 E1.15982
G1 X131.123 Y122.053 E1.18889
G1 X130.82 Y121.383 E1.21333
G1 X130.553 Y120.611 E1.24047
G1 X130.363 Y119.823 E1.26741
G1 X130.249 Y119.027 E1.29413
G1 X130.21 Y118.218 E1.32105
G1 X130.249 Y117.403 E1.34816
G1 X130.362 Y116.614 E1.37465
G1 X130.556 Y115.817 E1.40191
G1 X130.818 Y115.058 E1.42859
G1 X131.156 Y114.319 E1.4556
G1 X131.553 Y113.63 E1.48202
G1 X132.041 Y112.946 E1.50995
G1 X132.194 Y112.76 E1.51795
G1 X132.6 Y112.306 E1.53819
G1 X132.959 Y111.957 E1.55483
G1 X133.138 Y111.798 E1.56279
G1 X133.595 Y111.43 E1.58228
G1 X133.872 Y111.229 E1.59366
G1 X134.234 Y110.994 E1.608
G1 X134.796 Y110.673 E1.62951
G1 X135.186 Y110.483 E1.64393
G1 X135.714 Y110.263 E1.66293
G1 X136.092 Y110.131 E1.67624
G1 X136.622 Y109.978 E1.69457
G1 X137.546 Y109.799 E1.72585
G1 X138.117 Y109.74 E1.74493
G1 X138.484 Y109.721 E1.75714
G1 X138.997 Y109.723 E1.77419
G0 F2625 X138.994 Y109.822
G0 X141.612 Y117.321
G0 X141.757 Y118.246
G0 X141.622 Y119.089
G0 X141.397 Y119.636
G0 X141.046 Y120.164
G0 X140.143 Y120.895
G0 X139.924 Y120.997
G0 X138.703 Y121.332
G0 X138.703 Y121.232
G1 F900 X139.743 Y121.039 E1.80934
G1 X140.124 Y120.861 E1.82331
G1 X140.432 Y120.654 E1.83564
G1 X141.016 Y120.138 E1.86154
G1 X141.362 Y119.618 E1.8823
G1 X141.584 Y119.079 E1.90167
G1 X141.649 Y118.586 E1.9182
G1 X141.718 Y118.245 E1.92976
G1 X141.647 Y117.687 E1.94845
G1 X141.574 Y117.332 E1.96049
G1 X141.362 Y116.819 E1.97894
G1 X141.017 Y116.3 E1.99965
G1 X140.434 Y115.783 E2.02555
G1 X140.124 Y115.574 E2.03797
G1 X139.743 Y115.398 E2.05192
G1 X138.76 Y115.215 E2.08515
G1 X138.44 Y115.23 E2.09579
G1 X138.082 Y115.303 E2.10793
G1 X137.336 Y115.548 E2.13403
G1 X136.892 Y115.839 E2.15167
G1 X136.524 Y116.155 E2.16779
G1 X136.254 Y116.522 E2.18293
G1 X136.057 Y116.816 E2.19469
G1 X135.834 Y117.354 E2.21404
G1 X135.766 Y117.861 E2.23104
G1 X135.7 Y118.191 E2.24223
G1 X135.77 Y118.747 E2.26085
G1 X135.843 Y119.103 E2.27293
G1 X136.062 Y119.635 E2.29205
G1 X136.307 Y119.965 E2.3057
G1 X136.51 Y120.267 E2.3178
G1 X136.891 Y120.596 E2.33453
G1 X137.336 Y120.887 E2.3522
G1 X138.131 Y121.148 E2.38
G1 X138.356 Y121.162 E2.38749
G1 X138.703 Y121.232 E2.39926
G0 F2625 X138.707 Y120.723
;TYPE:WALL-OUTER
G1 F900 X139.589 Y120.559 E2.42907
G1 X139.877 Y120.424 E2.43964
G1 X140.126 Y120.257 E2.4496
G1 X140.636 Y119.807 E2.47221
G1 X140.918 Y119.382 E2.48916
G1 X141.097 Y118.949 E2.50473
G1 X141.155 Y118.509 E2.51948
G1 X141.212 Y118.227 E2.52904
G1 X141.153 Y117.769 E2.54438
G1 X141.094 Y117.479 E2.55422
G1 X140.919 Y117.055 E2.56946
G1 X140.637 Y116.631 E2.58638
G1 X140.127 Y116.179 E2.60903
G1 X139.878 Y116.011 E2.61901
G1 X139.59 Y115.878 E2.62955
G1 X138.726 Y115.717 E2.65876
G1 X138.502 Y115.728 E2.66621
G1 X138.21 Y115.787 E2.67611
G1 X137.555 Y116.002 E2.69902
G1 X137.193 Y116.239 E2.7134
G1 X136.893 Y116.497 E2.72655
G1 X136.663 Y116.809 E2.73943
G1 X136.5 Y117.053 E2.74918
G1 X136.321 Y117.485 E2.76472
G1 X136.261 Y117.936 E2.77984
G1 X136.206 Y118.209 E2.7891
G1 X136.264 Y118.666 E2.80441
G1 X136.323 Y118.956 E2.81424
G1 X136.501 Y119.387 E2.82974
G1 X136.722 Y119.686 E2.84209
G1 X136.888 Y119.933 E2.85198
G1 X137.192 Y120.196 E2.86534
G1 X137.554 Y120.432 E2.8797
G1 X138.226 Y120.653 E2.90321
G1 X138.422 Y120.665 E2.90974
G1 X138.707 Y120.723 E2.9194
G0 F2625 X138.952 Y120.678
G0 X139.061 Y121.267
G0 X140.305 Y126.465
G0 X140.424 Y127.053
G1 F900 X139.991 Y127.127 E2.934
G1 X139.454 Y127.186 E2.95195
G1 X139.01 Y127.212 E2.96673
G1 X138.477 Y127.214 E2.98445
G1 X138.081 Y127.195 E2.99762
G1 X137.422 Y127.125 E3.01964
G1 X136.527 Y126.949 E3.04996
G1 X135.94 Y126.781 E3.07025
G1 X135.538 Y126.64 E3.0844
G1 X134.973 Y126.406 E3.10473
G1 X134.564 Y126.206 E3.11986
G1 X133.961 Y125.861 E3.14294
G1 X133.591 Y125.621 E3.1576
G1 X133.295 Y125.406 E3.16976
G1 X132.808 Y125.013 E3.19055
G1 X132.619 Y124.844 E3.19898
G1 X132.238 Y124.473 E3.21665
G1 X131.822 Y124.009 E3.23736
G1 X131.641 Y123.79 E3.2468
G1 X131.136 Y123.081 E3.27573
G1 X130.68 Y122.284 E3.30624
G1 X130.352 Y121.56 E3.33266
G1 X130.074 Y120.756 E3.36093
G1 X129.871 Y119.916 E3.38965
G1 X129.751 Y119.08 E3.41771
G1 X129.71 Y118.218 E3.44639
G1 X129.751 Y117.35 E3.47527
G1 X129.871 Y116.519 E3.50317
G1 X130.074 Y115.68 E3.53186
G1 X130.356 Y114.866 E3.56049
G1 X130.71 Y114.092 E3.58877
G1 X131.131 Y113.362 E3.61678
G1 X131.642 Y112.645 E3.64604
G1 X131.821 Y112.427 E3.65541
G1 X132.239 Y111.96 E3.67624
G1 X132.619 Y111.591 E3.69384
G1 X132.808 Y111.422 E3.70227
G1 X133.294 Y111.031 E3.72299
G1 X133.59 Y110.815 E3.73517
G1 X133.962 Y110.574 E3.7499
G1 X134.57 Y110.226 E3.77318
G1 X134.967 Y110.033 E3.78785
G1 X135.545 Y109.792 E3.80866
G1 X135.935 Y109.656 E3.82239
G1 X136.509 Y109.49 E3.84224
G1 X137.467 Y109.305 E3.87467
G1 X138.08 Y109.242 E3.89515
G1 X138.478 Y109.221 E3.90839
G1 X139.01 Y109.223 E3.92607
G1 X139.454 Y109.249 E3.94085
G1 X139.984 Y109.309 E3.95858
G1 X140.438 Y109.385 E3.97387
G1 X140.891 Y109.486 E3.9893
G1 X141.42 Y109.635 E4.00756
G1 X141.817 Y109.771 E4.02151
G1 X142.439 Y110.028 E4.04387
G1 X143.008 Y110.313 E4.06502
G1 X143.343 Y110.502 E4.0778
G1 X143.69 Y110.725 E4.09151
G1 X144.327 Y111.187 E4.11766
G1 X144.599 Y111.413 E4.12941
G1 X145.274 Y112.063 E4.16055
G1 X145.442 Y112.249 E4.16888
G1 X145.86 Y112.755 E4.1907
G1 X146.285 Y113.361 E4.21529
G1 X146.707 Y114.092 E4.24334
G1 X147.061 Y114.866 E4.27163
G1 X147.246 Y115.371 E4.2895
G1 X147.345 Y115.687 E4.3005
G1 X147.546 Y116.519 E4.32895
G1 X147.667 Y117.35 E4.35686
G1 X147.708 Y118.218 E4.38573
G1 X147.667 Y119.08 E4.41441
G1 X147.546 Y119.916 E4.44248
G1 X147.345 Y120.749 E4.47096
G1 X147.246 Y121.064 E4.48193
G1 X147.062 Y121.567 E4.49973
G1 X146.707 Y122.342 E4.52806
G1 X146.275 Y123.089 E4.55674
G1 X145.861 Y123.679 E4.58069
G1 X145.6 Y124.002 E4.59449
G1 X145.303 Y124.341 E4.60947
G1 X144.595 Y125.025 E4.64218
G1 X144.327 Y125.248 E4.65377
G1 X143.69 Y125.711 E4.67994
G1 X143.346 Y125.931 E4.69351
G1 X142.998 Y126.128 E4.7068
G1 X142.375 Y126.436 E4.72989
G1 X141.816 Y126.663 E4.74994
G1 X141.421 Y126.799 E4.76382
G1 X140.896 Y126.947 E4.78195
G1 X140.424 Y127.053 E4.79803
G0 F2625 X140.178 Y127.095
G0 X140.078 Y126.504
G0 X139.861 Y126.145
;TYPE:SKIN
G1 F900 X139.367 Y126.198 E4.81454
G1 X138.968 Y126.222 E4.82782
G1 X138.502 Y126.224 E4.84331
G1 X138.163 Y126.207 E4.85459
G1 X137.559 Y126.143 E4.87477
G1 X136.77 Y125.988 E4.90149
G1 X136.234 Y125.835 E4.92002
G1 X135.89 Y125.714 E4.93214
G1 X135.393 Y125.509 E4.95
G1 X135.012 Y125.322 E4.96411
G1 X134.479 Y125.018 E4.9845
G1 X134.152 Y124.805 E4.99747
G1 X133.897 Y124.619 E5.00795
G1 X133.441 Y124.251 E5.02743
G1 X133.302 Y124.127 E5.03362
G1 X132.942 Y123.775 E5.05035
G1 X132.563 Y123.352 E5.06922
G1 X132.428 Y123.189 E5.07626
G1 X131.966 Y122.539 E5.10276
G1 X131.564 Y121.838 E5.12961
G1 X131.271 Y121.19 E5.15325
G1 X131.023 Y120.472 E5.17849
G1 X130.845 Y119.733 E5.20375
G1 X130.738 Y118.988 E5.22876
G1 X130.702 Y118.218 E5.25438
G1 X130.738 Y117.439 E5.28029
G1 X130.843 Y116.707 E5.30487
G1 X131.029 Y115.948 E5.33084
G1 X131.276 Y115.234 E5.35595
G1 X131.585 Y114.557 E5.38068
G1 X131.971 Y113.888 E5.40634
G1 X132.428 Y113.248 E5.43248
G1 X132.559 Y113.087 E5.43938
G1 X132.965 Y112.633 E5.45962
G1 X133.292 Y112.316 E5.47475
G1 X133.446 Y112.179 E5.4816
G1 X133.903 Y111.812 E5.50108
G1 X134.139 Y111.64 E5.51078
G1 X134.501 Y111.405 E5.52513
G1 X135.017 Y111.111 E5.54486
G1 X135.384 Y110.932 E5.55843
G1 X135.895 Y110.719 E5.57683
G1 X136.245 Y110.596 E5.58916
G1 X136.735 Y110.455 E5.6061
G1 X137.612 Y110.286 E5.63578
G1 X138.155 Y110.23 E5.65392
G1 X138.508 Y110.211 E5.66567
G1 X138.968 Y110.213 E5.68096
G1 X139.393 Y110.237 E5.6951
G1 X139.837 Y110.289 E5.70996
G1 X140.26 Y110.36 E5.72421
G1 X140.639 Y110.444 E5.73711
G1 X141.122 Y110.58 E5.75379
G1 X141.471 Y110.699 E5.76604
G1 X142.043 Y110.936 E5.78662
G1 X142.536 Y111.184 E5.80496
G1 X142.838 Y111.354 E5.81648
G1 X143.119 Y111.534 E5.82757
G1 X143.714 Y111.965 E5.85198
G1 X143.949 Y112.161 E5.86215
G1 X144.553 Y112.742 E5.89
G1 X144.693 Y112.896 E5.89692
G1 X145.058 Y113.337 E5.91594
G1 X145.455 Y113.903 E5.93892
G1 X145.825 Y114.544 E5.96351
G1 X146.145 Y115.243 E5.98906
G1 X146.301 Y115.665 E6.00401
G1 X146.394 Y115.963 E6.01439
G1 X146.574 Y116.708 E6.03986
G1 X146.679 Y117.432 E6.06417
G1 X146.716 Y118.217 E6.09028
G1 X146.68 Y118.985 E6.11583
G1 X146.571 Y119.736 E6.14105
G1 X146.392 Y120.481 E6.16651
G1 X146.312 Y120.734 E6.17533
G1 X146.146 Y121.19 E6.19146
G1 X145.826 Y121.888 E6.21698
G1 X145.441 Y122.554 E6.24254
G1 X145.075 Y123.075 E6.2637
G1 X144.831 Y123.378 E6.27663
G1 X144.597 Y123.645 E6.28843
G1 X143.924 Y124.295 E6.31952
G1 X143.713 Y124.471 E6.32865
G1 X143.132 Y124.894 E6.35253
G1 X142.842 Y125.078 E6.36395
G1 X142.533 Y125.254 E6.37577
G1 X141.968 Y125.533 E6.39671
G1 X141.481 Y125.731 E6.41418
G1 X141.123 Y125.854 E6.42676
G1 X140.653 Y125.987 E6.44299
G1 X140.229 Y126.082 E6.45743
G1 X139.861 Y126.145 E6.46984
G0 F2625 X138.699 Y121.732
G1 F900 X139.894 Y121.509 E6.51023
G1 X140.365 Y121.289 E6.52751
G1 X140.732 Y121.042 E6.54221
G1 X141.388 Y120.463 E6.57129
G1 X141.797 Y119.849 E6.5958
G1 X142.062 Y119.206 E6.61892
G1 X142.135 Y118.65 E6.63755
G1 X142.214 Y118.263 E6.65068
G1 X142.131 Y117.607 E6.67265
G1 X142.044 Y117.187 E6.6869
G1 X141.797 Y116.588 E6.70844
G1 X141.39 Y115.976 E6.73286
G1 X140.735 Y115.395 E6.76196
G1 X140.365 Y115.145 E6.7768
G1 X139.892 Y114.928 E6.79409
G1 X138.794 Y114.723 E6.83121
G1 X138.379 Y114.742 E6.84502
G1 X137.956 Y114.829 E6.85937
G1 X137.122 Y115.103 E6.88854
G1 X136.596 Y115.447 E6.90943
G1 X136.163 Y115.82 E6.92842
G1 X135.853 Y116.24 E6.94577
G1 X135.623 Y116.583 E6.95949
G1 X135.357 Y117.225 E6.98258
G1 X135.28 Y117.793 E7.00163
G1 X135.204 Y118.173 E7.01451
G1 X135.286 Y118.827 E7.03641
G1 X135.372 Y119.247 E7.05066
G1 X135.632 Y119.878 E7.07334
G1 X135.913 Y120.257 E7.08902
G1 X136.14 Y120.595 E7.10255
G1 X136.595 Y120.988 E7.12253
G1 X137.122 Y121.332 E7.14345
G1 X138.037 Y121.634 E7.17547
G1 X138.301 Y121.65 E7.18426
G1 X138.699 Y121.732 E7.19776
G0 F2625 X131.937 Y122.038
G1 F900 X134.896 Y124.996 E7.3368
G1 X134.984 Y125.084
G0 F2625 X136.185 Y125.579
G1 F900 X131.355 Y120.749 E7.5638
G1 X131.267 Y120.661
G0 F2625 X131.084 Y119.77
G1 F900 X137.146 Y125.832 E7.84869
G1 X137.234 Y125.92
G0 F2625 X137.981 Y125.961
G1 F900 X130.96 Y118.939 E8.17868
G1 X130.872 Y118.851
G0 F2625 X130.928 Y118.2
G1 F900 X138.725 Y125.997 E8.54512
G1 X138.813 Y126.085
G0 F2625 X139.401 Y125.966
G1 F900 X130.958 Y117.523 E8.94192
G1 X130.87 Y117.435
G0 F2625 X131.04 Y116.898
G1 F900 X140.03 Y125.888 E9.36442
G1 X140.118 Y125.976
G0 F2625 X140.613 Y125.763
G1 F900 X131.169 Y116.319 E9.80826
G1 X131.081 Y116.231
G0 F2625 X131.327 Y115.771
G1 F900 X135.356 Y119.8 E9.99761
G1 X135.444 Y119.888
G0 F2625 X135.054 Y118.791
G1 F900 X131.514 Y115.25 E10.16401
G1 X131.426 Y115.162
G0 F2625 X131.736 Y114.765
G1 F900 X135.003 Y118.033 E10.31757
G1 X135.091 Y118.121
G0 F2625 X135.102 Y117.424
G1 F900 X131.987 Y114.309 E10.46397
G1 X131.899 Y114.221
G0 F2625 X132.256 Y113.871
G1 F900 X135.258 Y116.874 E10.60507
G1 X135.346 Y116.962
G0 F2625 X135.481 Y116.389
G1 F900 X132.551 Y113.459 E10.74278
G1 X132.463 Y113.371
G0 F2625 X132.872 Y113.073
G1 F900 X135.771 Y115.972 E10.87902
G1 X135.859 Y116.06
G0 F2625 X136.09 Y115.584
G1 F900 X133.212 Y112.706 E11.01428
G1 X133.124 Y112.618
G0 F2625 X133.577 Y112.364
G1 F900 X136.471 Y115.258 E11.15029
G1 X136.559 Y115.346
G0 F2625 X136.899 Y114.979
G1 F900 X133.968 Y112.048 E11.28804
G1 X133.88 Y111.96
G0 F2625 X134.379 Y111.751
G1 F900 X137.401 Y114.774 E11.43009
G1 X137.489 Y114.862
G0 F2625 X137.936 Y114.602
G1 F900 X134.818 Y111.483 E11.57665
G1 X134.73 Y111.395
G0 F2625 X135.276 Y111.234
