;Generated by Cura LulzBot Edition GCodeWriter Version: 3.2.27
;FLAVOR:Marlin
;TIME:521
;Filament used: 0.204753m
;Layer height: 0.25
;Generated with Cura_SteamEngine 3.2.27
M82 ;absolute extrusion mode
;This G-Code has been generated specifically for the LulzBot TAZ 6 with standard extruder
M75 ; start GLCD timer
G26 ; clear potential 'probe fail' condition
G21 ; set units to Millimetres
M107 ; disable fans
M420 S0 ; disable previous leveling matrix
G90 ; absolute positioning
M82 ; set extruder to absolute mode
G92 E0 ; set extruder position to 0
M140 S60 ; start bed heating up
M109 R140 ; soften filament before homing Z
G28 ; Home all axis
G1 E-30 F100 ; retract filament
M109 R140 ; wait for extruder to reach wiping temp
G1 X-15 Y100 F3000 ; move above wiper pad
G1 Z1 ; push nozzle into wiper
G1 X-17 Y95 F1000 ; slow wipe
G1 X-17 Y90 F1000 ; slow wipe
G1 X-17 Y85 F1000 ; slow wipe
G1 X-15 Y90 F1000 ; slow wipe
G1 X-17 Y80 F1000 ; slow wipe
G1 X-15 Y95 F1000 ; slow wipe
G1 X-17 Y75 F2000 ; fast wipe
G1 X-15 Y65 F2000 ; fast wipe
G1 X-17 Y70 F2000 ; fast wipe
G1 X-15 Y60 F2000 ; fast wipe
G1 X-17 Y55 F2000 ; fast wipe
G1 X-15 Y50 F2000 ; fast wipe
G1 X-17 Y40 F2000 ; fast wipe
G1 X-15 Y45 F2000 ; fast wipe
G1 X-17 Y35 F2000 ; fast wipe
G1 X-15 Y40 F2000 ; fast wipe
G1 X-17 Y70 F2000 ; fast wipe
G1 X-15 Y30 Z2 F2000 ; fast wipe
G1 X-17 Y35 F2000 ; fast wipe
G1 X-15 Y25 F2000 ; fast wipe
G1 X-17 Y30 F2000 ; fast wipe
G1 X-15 Y25 Z1.5 F1000 ; slow wipe
G1 X-17 Y23 F1000 ; slow wipe
G1 Z10 ; raise extruder
M109 R140 ; wait for extruder to reach probe temp
G1 X-9 Y-9 ; move above first probe point
M204 S100 ; set probing acceleration
G29 ; start auto-leveling sequence
M420 S1 ; activate bed level matrix
M425 Z			     ; use measured Z backlash for compensation
M425 Z F0		     ; turn off measured Z backlash compensation. (if activated in the quality settings, this command will automatically be ignored)
M204 S500 ; restore standard acceleration
G1 X0 Y0 Z15 F5000 ; move up off last probe point
G4 S1 ; pause
M400 ; wait for moves to finish
M117 Heating... ; progress indicator message on LCD
M109 R220 ; wait for extruder to reach printing temp
M190 S60 ; wait for bed to reach printing temp
G1 Z2 E0 F75 ; prime tiny bit of filament into the nozzle
M117 TAZ 6 Printing... ; progress indicator message on LCD

M221 S100
;LAYER_COUNT:20
;LAYER:0
M107
G0 F2625 X130.331 Y131.344 Z0.424
;TYPE:SKIRT
G1 F900 X131.597 Y130.109 E0.05877
G1 X132.172 Y129.649 E0.08325
G1 X133.689 Y128.663 E0.14337
G1 X134.199 Y128.385 E0.16267
G1 X135.207 Y127.933 E0.19939
G1 X135.706 Y127.751 E0.21704
G1 X137.155 Y127.335 E0.26713
G1 X137.766 Y127.213 E0.28784
G1 X139.295 Y127.039 E0.33898
G1 X139.803 Y127.016 E0.35588
G1 X140.735 Y127.037 E0.38686
G1 X141.283 Y127.09 E0.40516
G1 X143.061 Y127.394 E0.4651
G1 X143.619 Y127.534 E0.48422
G1 X144.713 Y127.9 E0.52255
G1 X145.278 Y128.142 E0.54298
G1 X146.79 Y128.943 E0.59984
G1 X147.191 Y129.189 E0.61548
G1 X147.709 Y129.553 E0.63651
G1 X148.057 Y129.83 E0.6513
G1 X149.273 Y130.921 E0.70559
G1 X149.785 Y131.484 E0.73088
G1 X151.014 Y133.148 E0.79962
G1 X151.307 Y133.611 E0.81783
G1 X151.462 Y133.94 E0.82992
G1 X152.371 Y136.133 E0.90881
G1 X152.566 Y136.75 E0.93031
G1 X152.775 Y137.684 E0.96212
G1 X152.855 Y138.219 E0.98009
G1 X152.974 Y139.787 E1.03235
G1 X152.973 Y140.371 E1.05176
G1 X152.864 Y141.729 E1.09703
G1 X152.781 Y142.269 E1.11519
G1 X152.5 Y143.491 E1.15686
G1 X152.402 Y143.839 E1.16887
G1 X150.353 Y149.976 E1.38388
G1 X148.931 Y155.241 E1.56512
G1 X148.337 Y157.879 E1.65498
G1 X147.824 Y160.514 E1.74419
G1 X147.003 Y165.925 E1.92607
G1 X146.483 Y171.453 E2.11058
G1 X146.253 Y174.399 E2.20878
G1 X146.123 Y175.127 E2.23336
G1 X145.603 Y176.966 E2.29687
G1 X145.412 Y177.488 E2.31534
G1 X145.13 Y178.113 E2.33813
G1 X144.94 Y178.479 E2.35183
G1 X144.188 Y179.751 E2.40094
G1 X143.814 Y180.275 E2.42233
G1 X142.749 Y181.525 E2.4769
G1 X142.277 Y181.989 E2.4989
G1 X141.01 Y183.031 E2.55341
G1 X140.658 Y183.288 E2.5679
G1 X140.074 Y183.664 E2.59098
G1 X139.637 Y183.906 E2.60758
G1 X138.207 Y184.577 E2.66007
G1 X137.603 Y184.799 E2.68146
G1 X136.053 Y185.223 E2.73486
G1 X135.337 Y185.346 E2.759
G1 X133.392 Y185.488 E2.82381
G1 X132.793 Y185.484 E2.84372
G1 X131.784 Y185.396 E2.87738
G1 X131.386 Y185.339 E2.89074
G1 X130.456 Y185.156 E2.92224
G1 X130.154 Y185.084 E2.93255
G1 X129.539 Y184.909 E2.9538
G1 X129.121 Y184.763 E2.96852
G1 X127.736 Y184.185 E3.01839
G1 X127.283 Y183.959 E3.03521
G1 X126.483 Y183.49 E3.06603
G1 X126.158 Y183.275 E3.07898
G1 X125.261 Y182.615 E3.11599
G1 X124.871 Y182.285 E3.13297
G1 X123.905 Y181.347 E3.17771
G1 X123.49 Y180.871 E3.1987
G1 X122.446 Y179.444 E3.25746
G1 X122.059 Y178.782 E3.28294
G1 X121.238 Y176.976 E3.34887
G1 X121.035 Y176.413 E3.36876
G1 X120.759 Y175.403 E3.40355
G1 X120.651 Y174.848 E3.42234
G1 X120.461 Y173.218 E3.47688
G1 X120.444 Y172.536 E3.49955
G1 X120.561 Y170.768 E3.55843
G1 X120.676 Y170.062 E3.5822
G1 X121.12 Y168.375 E3.64017
G1 X121.206 Y168.095 E3.64991
G1 X122.254 Y165.089 E3.7557
G1 X123.821 Y159.856 E3.93723
G1 X125.096 Y154.525 E4.11939
G1 X125.603 Y151.903 E4.20814
G1 X126.422 Y146.471 E4.39069
G1 X126.707 Y143.827 E4.47907
G1 X127.15 Y138.169 E4.66767
G1 X127.254 Y137.541 E4.68882
G1 X127.617 Y136.109 E4.73792
G1 X127.772 Y135.632 E4.75458
G1 X128.156 Y134.676 E4.78882
G1 X128.374 Y134.224 E4.8055
G1 X129.069 Y132.999 E4.8523
G1 X129.292 Y132.653 E4.86598
G1 X129.714 Y132.069 E4.88993
G1 X129.869 Y131.868 E4.89836
G1 X130.066 Y131.631 E4.9086
G1 X130.331 Y131.344 E4.92158
G0 F2625 X130.681 Y131.702
G1 F900 X131.947 Y130.467 E4.98036
G1 X132.445 Y130.068 E5.00156
G1 X133.962 Y129.082 E5.06169
G1 X134.403 Y128.841 E5.07839
G1 X135.411 Y128.389 E5.1151
G1 X135.844 Y128.231 E5.13042
G1 X137.293 Y127.815 E5.18052
G1 X137.823 Y127.71 E5.19847
G1 X139.352 Y127.536 E5.24961
G1 X139.792 Y127.516 E5.26425
G1 X140.724 Y127.537 E5.29523
G1 X141.199 Y127.582 E5.31109
G1 X142.977 Y127.886 E5.37103
G1 X143.46 Y128.008 E5.38759
G1 X144.554 Y128.374 E5.42592
G1 X145.044 Y128.584 E5.44364
G1 X146.556 Y129.385 E5.5005
G1 X146.904 Y129.598 E5.51406
G1 X147.422 Y129.962 E5.5351
G1 X147.723 Y130.202 E5.54789
G1 X148.939 Y131.293 E5.60218
G1 X149.383 Y131.781 E5.62411
G1 X150.612 Y133.445 E5.69285
G1 X150.882 Y133.877 E5.70978
G1 X151 Y134.132 E5.71912
G1 X151.909 Y136.325 E5.79801
G1 X152.079 Y136.859 E5.81663
G1 X152.288 Y137.793 E5.84844
G1 X152.357 Y138.257 E5.86403
G1 X152.476 Y139.825 E5.91629
G1 X152.475 Y140.331 E5.9331
G1 X152.366 Y141.689 E5.97838
G1 X152.293 Y142.157 E5.99412
G1 X152.012 Y143.379 E6.03579
G1 X151.928 Y143.681 E6.0462
G1 X149.876 Y149.824 E6.26144
G1 X148.446 Y155.122 E6.4438
G1 X147.841 Y157.811 E6.53539
G1 X147.329 Y160.437 E6.6243
G1 X146.507 Y165.857 E6.80648
G1 X145.985 Y171.406 E6.9917
G1 X145.754 Y174.36 E7.09017
G1 X145.641 Y174.991 E7.11147
G1 X145.121 Y176.83 E7.17498
G1 X144.956 Y177.283 E7.191
G1 X144.674 Y177.908 E7.21379
G1 X144.51 Y178.225 E7.22565
G1 X143.758 Y179.497 E7.27475
G1 X143.434 Y179.951 E7.29329
G1 X142.369 Y181.201 E7.34786
G1 X141.959 Y181.603 E7.36694
G1 X140.692 Y182.645 E7.42146
G1 X140.387 Y182.868 E7.43401
G1 X139.803 Y183.244 E7.4571
G1 X139.425 Y183.453 E7.47145
G1 X137.995 Y184.124 E7.52394
G1 X137.472 Y184.317 E7.54247
G1 X135.922 Y184.741 E7.59587
G1 X135.301 Y184.847 E7.61681
G1 X133.356 Y184.989 E7.68162
G1 X132.837 Y184.986 E7.69886
G1 X131.828 Y184.898 E7.73252
G1 X131.483 Y184.849 E7.7441
G1 X130.553 Y184.666 E7.7756
G1 X130.291 Y184.603 E7.78455
G1 X129.676 Y184.428 E7.8058
G1 X129.313 Y184.301 E7.81858
G1 X127.928 Y183.723 E7.86846
G1 X127.536 Y183.528 E7.88301
G1 X126.736 Y183.059 E7.91382
G1 X126.454 Y182.873 E7.92505
G1 X125.557 Y182.213 E7.96206
G1 X125.219 Y181.927 E7.97677
G1 X124.253 Y180.989 E8.02152
G1 X123.894 Y180.576 E8.03971
G1 X122.85 Y179.149 E8.09846
G1 X122.514 Y178.575 E8.12057
G1 X121.693 Y176.769 E8.18649
G1 X121.517 Y176.281 E8.20373
G1 X121.241 Y175.271 E8.23853
G1 X121.148 Y174.79 E8.25481
G1 X120.958 Y173.16 E8.30934
G1 X120.943 Y172.569 E8.32899
G1 X121.06 Y170.801 E8.38787
G1 X121.16 Y170.189 E8.40848
G1 X121.604 Y168.502 E8.46645
G1 X121.678 Y168.259 E8.47489
G1 X122.733 Y165.232 E8.58142
G1 X124.302 Y159.995 E8.7631
G1 X125.587 Y154.62 E8.94676
G1 X126.094 Y151.998 E9.0355
G1 X126.919 Y146.529 E9.21931
G1 X127.207 Y143.853 E9.30875
G1 X127.649 Y138.208 E9.49692
G1 X127.739 Y137.663 E9.51527
G1 X128.102 Y136.231 E9.56437
G1 X128.236 Y135.819 E9.57876
G1 X128.62 Y134.863 E9.613
G1 X128.809 Y134.47 E9.62749
G1 X129.504 Y133.245 E9.6743
G1 X129.697 Y132.945 E9.68615
G1 X130.119 Y132.361 E9.7101
G1 X130.254 Y132.188 E9.71739
G1 X130.451 Y131.951 E9.72763
G1 X130.681 Y131.702 E9.7389
G1 F600 E8.7389
G0 F2625 X133.765 Y132.292
G0 X134.706 Y133.374
G0 X145.198 Y136.048
G0 X145.293 Y136.076
;TYPE:WALL-INNER
G1 F600 E9.7389
G1 F900 X146.007 Y137.521 E9.79246
G1 X146.047 Y137.622 E9.79607
G1 X146.051 Y137.634 E9.79649
G1 X146.133 Y137.884 E9.80523
G1 X146.183 Y138.036 E9.81055
G1 X146.026 Y138.027
G1 X145.757 Y138.009 E9.81322
G1 X145.745 Y138.012 E9.81363
G1 X145.212 Y138.154 E9.83196
G1 X144.835 Y138.429 E9.84747
G1 X144.615 Y138.588 E9.85649
G1 X144.549 Y138.654 E9.85959
G1 X144.536 Y138.619
G1 X144.44 Y138.365 E9.86563
G1 X144.286 Y137.961 E9.88
G1 X144.097 Y137.606 E9.89336
G1 X143.722 Y137.063 E9.91529
G1 X143.434 Y136.721 E9.93015
G1 X143.204 Y136.53 E9.94009
G1 X142.726 Y136.107 E9.9613
G1 X142.425 Y135.929 E9.97292
G1 X142.304 Y135.874 E9.97734
G1 X141.747 Y135.581 E9.99825
G1 X141.359 Y135.464 E10.01172
G1 X140.723 Y135.306 E10.0335
G1 X140.321 Y135.268 E10.04691
G1 X139.564 Y135.271 E10.07207
G1 X139.271 Y135.306 E10.08188
G1 X138.427 Y135.519 E10.11081
G1 X138.231 Y135.59 E10.11773
G1 X137.299 Y136.086 E10.15282
G1 X137.016 Y136.324 E10.16511
G1 X136.528 Y136.755 E10.18674
G1 X136.272 Y137.066 E10.20013
G1 X135.9 Y137.606 E10.22192
G1 X135.712 Y137.961 E10.23527
G1 X135.479 Y138.572 E10.257
G1 X135.36 Y138.967 E10.27071
G1 X135.323 Y139.345 E10.28333
G1 X135.244 Y139.99 E10.30493
G1 X135.282 Y140.392 E10.31835
G1 X135.361 Y141.042 E10.34011
G1 X135.479 Y141.428 E10.35352
G1 X135.711 Y142.038 E10.37521
G1 X135.899 Y142.393 E10.38856
G1 X136.305 Y142.978 E10.41222
G1 X136.537 Y143.254 E10.4242
G1 X136.803 Y143.478 E10.43576
G1 X137.289 Y143.908 E10.45732
G1 X138.23 Y144.409 E10.49275
G1 X138.426 Y144.48 E10.49968
G1 X139.27 Y144.693 E10.52861
G1 X139.561 Y144.728 E10.53835
G1 X140.32 Y144.733 E10.56357
G1 X140.723 Y144.694 E10.57702
G1 X141.357 Y144.537 E10.59873
G1 X141.728 Y144.426 E10.6116
G1 X141.892 Y144.35 E10.61761
G1 X142.44 Y144.062 E10.63818
G1 X142.716 Y143.899 E10.64883
G1 X142.982 Y143.675 E10.66039
G1 X143.468 Y143.244 E10.68197
G1 X143.724 Y142.933 E10.69536
G1 X144.096 Y142.395 E10.7171
G1 X144.285 Y142.04 E10.73046
G1 X144.439 Y141.635 E10.74486
G1 X144.534 Y141.382 E10.75384
G1 X144.548 Y141.345 E10.75516
G1 X144.614 Y141.411
G1 X144.833 Y141.57 E10.76118
G1 X145.211 Y141.845 E10.77671
G1 X145.755 Y141.99 E10.79542
G1 X146.387 Y141.952 E10.81646
G1 X146.738 Y141.858 E10.82854
G1 X147.206 Y141.601 E10.84628
G1 X147.691 Y141.098 E10.8695
G1 X147.916 Y140.402 E10.89381
G1 X147.995 Y140.113 E10.90377
G1 X148.03 Y139.982 E10.90827
G1 X147.989 Y139.853 E10.91277
G1 X147.796 Y139.255 E10.93365
G1 X147.743 Y139.062 E10.9403
G1 X147.704 Y138.916 E10.94533
G1 X147.548 Y138.754 E10.9528
G1 X147.652 Y138.727
G1 X147.798 Y138.688 E10.95675
G1 X148.139 Y138.596 E10.96848
G1 X148.366 Y138.535 E10.97629
G1 X148.386 Y138.628 E10.97946
G1 X148.412 Y138.861 E10.98485
G1 X148.479 Y139.455 E11.00471
G1 X148.488 Y139.835 E11.01734
G1 X148.49 Y139.971 E11.02168
G1 X148.492 Y140.027 E11.02355
G1 X148.492 Y140.163 E11.02791
G1 X148.491 Y140.303 E11.03256
G1 X148.45 Y140.882 E11.05185
G1 X148.422 Y141.117 E11.05971
G1 X148.324 Y141.699 E11.07933
G1 X148.261 Y141.976 E11.08877
G1 X148.094 Y142.588 E11.10985
G1 X148.006 Y142.842 E11.11878
G1 X147.834 Y143.294 E11.13485
G1 X147.468 Y144.056 E11.16294
G1 X147.023 Y144.785 E11.19133
G1 X146.511 Y145.461 E11.21951
G1 X146.292 Y145.71 E11.23053
G1 X145.94 Y146.075 E11.24738
G1 X145.457 Y146.506 E11.26889
G1 X145.236 Y146.693 E11.27851
G1 X144.849 Y146.975 E11.29443
G1 X144.625 Y147.127 E11.30342
G1 X144.377 Y147.284 E11.31318
G1 X144.146 Y147.417 E11.32203
G1 X143.901 Y147.547 E11.33125
G1 X143.489 Y147.748 E11.34649
G1 X143.135 Y147.895 E11.35922
G1 X142.59 Y148.093 E11.37849
G1 X142.335 Y148.166 E11.38731
G1 X141.774 Y148.311 E11.40656
G1 X140.947 Y148.447 E11.43442
G1 X140.783 Y148.462 E11.43989
G1 X140.097 Y148.499 E11.46272
G1 X139.863 Y148.499 E11.47049
G1 X139.262 Y148.467 E11.4905
G1 X138.942 Y148.433 E11.50119
G1 X138.427 Y148.352 E11.51851
G1 X138.023 Y148.267 E11.53223
G1 X137.621 Y148.158 E11.54608
G1 X137.074 Y147.979 E11.5652
G1 X136.815 Y147.877 E11.57445
G1 X136.217 Y147.609 E11.59623
G1 X135.959 Y147.476 E11.60588
G1 X135.563 Y147.25 E11.62103
G1 X135.092 Y146.939 E11.63978
G1 X134.871 Y146.78 E11.64883
G1 X134.219 Y146.231 E11.67716
G1 X133.624 Y145.621 E11.70548
G1 X133.412 Y145.368 E11.71644
G1 X133.105 Y144.97 E11.73315
G1 X132.78 Y144.479 E11.75272
G1 X132.647 Y144.265 E11.76109
G1 X132.447 Y143.899 E11.77495
G1 X132.262 Y143.516 E11.78908
G1 X132.041 Y142.978 E11.80841
G1 X131.949 Y142.719 E11.81755
G1 X131.785 Y142.184 E11.83614
G1 X131.722 Y141.916 E11.84529
G1 X131.61 Y141.363 E11.86404
G1 X131.575 Y141.091 E11.87316
G1 X131.517 Y140.53 E11.8919
G1 X131.505 Y139.678 E11.92021
G1 X131.578 Y138.847 E11.94794
G1 X131.737 Y138.009 E11.97628
G1 X131.89 Y137.465 E11.99506
G1 X131.97 Y137.212 E12.00388
G1 X132.181 Y136.669 E12.02324
G1 X132.406 Y136.179 E12.04116
G1 X132.548 Y135.911 E12.05124
G1 X132.669 Y135.701 E12.05929
G1 X132.985 Y135.201 E12.07895
G1 X133.353 Y134.7 E12.09961
G1 X133.485 Y134.541 E12.10647
G1 X134.069 Y133.91 E12.13504
G1 X134.694 Y133.359 E12.16273
G1 X135.038 Y133.104 E12.17696
G1 X135.373 Y132.87 E12.19054
G1 X136.148 Y132.424 E12.22026
G1 X136.623 Y132.204 E12.23765
G1 X137.038 Y132.033 E12.25257
G1 X137.405 Y131.91 E12.26543
G1 X137.945 Y131.752 E12.28413
G1 X138.501 Y131.636 E12.30301
G1 X138.839 Y131.581 E12.31439
G1 X139.339 Y131.531 E12.33109
G1 X139.772 Y131.504 E12.3455
G1 X140.158 Y131.509 E12.35833
G1 X140.747 Y131.533 E12.37792
G1 X141.586 Y131.65 E12.40607
G1 X142.528 Y131.885 E12.43834
G1 X143.193 Y132.123 E12.46181
G1 X143.404 Y132.213 E12.46943
G1 X143.954 Y132.48 E12.48975
G1 X144.318 Y132.681 E12.50357
G1 X144.682 Y132.91 E12.51786
G1 X145.187 Y133.27 E12.53847
G1 X145.381 Y133.425 E12.54672
G1 X145.774 Y133.766 E12.56401
G1 X146.259 Y134.251 E12.58681
G1 X146.367 Y134.373 E12.59222
G1 X146.755 Y134.859 E12.61289
G1 X146.906 Y135.048 E12.62093
G1 X146.953 Y135.118 E12.62373
G1 X146.744 Y135.239 E12.62921
G1 X145.293 Y136.076 E12.68488
G0 F2625 X145.198 Y136.048
G0 X146.104 Y137.975
G0 X146.838 Y138.427
;TYPE:WALL-OUTER
G1 F900 X146.935 Y138.401 E12.68822
G1 X148.491 Y137.982 E12.74177
G1 X148.744 Y137.915 E12.75046
G1 X148.799 Y138.171 E12.75602
G1 X148.88 Y138.545 E12.76873
G1 X148.979 Y139.421 E12.79803
G1 X148.992 Y140.029 E12.81824
G1 X148.991 Y140.325 E12.82808
G1 X148.949 Y140.917 E12.8478
G1 X148.915 Y141.2 E12.85727
G1 X148.812 Y141.81 E12.87783
G1 X148.749 Y142.087 E12.88727
G1 X148.569 Y142.744 E12.90991
G1 X148.479 Y143.005 E12.91908
G1 X148.292 Y143.495 E12.93651
G1 X147.906 Y144.299 E12.96615
G1 X147.437 Y145.067 E12.99605
G1 X146.9 Y145.776 E13.02561
G1 X146.664 Y146.045 E13.0375
G1 X146.287 Y146.436 E13.05555
G1 X145.78 Y146.888 E13.07813
G1 X145.552 Y147.081 E13.08805
G1 X145.14 Y147.381 E13.10499
G1 X144.893 Y147.549 E13.11492
G1 X144.644 Y147.707 E13.12472
G1 X144.38 Y147.859 E13.13484
G1 X144.131 Y147.991 E13.1442
G1 X143.696 Y148.204 E13.1603
G1 X143.311 Y148.363 E13.17414
G1 X142.741 Y148.57 E13.1943
G1 X142.473 Y148.647 E13.20356
G1 X141.88 Y148.8 E13.22391
G1 X141.004 Y148.944 E13.25342
G1 X140.827 Y148.96 E13.25932
G1 X140.106 Y148.999 E13.28332
G1 X139.855 Y148.999 E13.29166
G1 X139.223 Y148.965 E13.31269
