;Generated by Cura LulzBot Edition GCodeWriter Version: 3.2.27
;FLAVOR:Marlin
;TIME:1032
;Filament used: 0.38947m
;Layer height: 0.25
;Generated with Cura_SteamEngine 3.2.27
M82 ;absolute extrusion mode
;This G-Code has been generated specifically for the LulzBot TAZ 6 with standard extruder
M75 ; start GLCD timer
G26 ; clear potential 'probe fail' condition
G21 ; set units to Millimetres
M107 ; disable fans
M420 S0 ; disable previous leveling matrix
G90 ; absolute positioning
M82 ; set extruder to absolute mode
G92 E0 ; set extruder position to 0
M140 S60 ; start bed heating up
M109 R140 ; soften filament before homing Z
G28 ; Home all axis
G1 E-30 F100 ; retract filament
M109 R140 ; wait for extruder to reach wiping temp
G1 X-15 Y100 F3000 ; move above wiper pad
G1 Z1 ; push nozzle into wiper
G1 X-17 Y95 F1000 ; slow wipe
G1 X-17 Y90 F1000 ; slow wipe
G1 X-17 Y85 F1000 ; slow wipe
G1 X-15 Y90 F1000 ; slow wipe
G1 X-17 Y80 F1000 ; slow wipe
G1 X-15 Y95 F1000 ; slow wipe
G1 X-17 Y75 F2000 ; fast wipe
G1 X-15 Y65 F2000 ; fast wipe
G1 X-17 Y70 F2000 ; fast wipe
G1 X-15 Y60 F2000 ; fast wipe
G1 X-17 Y55 F2000 ; fast wipe
G1 X-15 Y50 F2000 ; fast wipe
G1 X-17 Y40 F2000 ; fast wipe
G1 X-15 Y45 F2000 ; fast wipe
G1 X-17 Y35 F2000 ; fast wipe
G1 X-15 Y40 F2000 ; fast wipe
G1 X-17 Y70 F2000 ; fast wipe
G1 X-15 Y30 Z2 F2000 ; fast wipe
G1 X-17 Y35 F2000 ; fast wipe
G1 X-15 Y25 F2000 ; fast wipe
G1 X-17 Y30 F2000 ; fast wipe
G1 X-15 Y25 Z1.5 F1000 ; slow wipe
G1 X-17 Y23 F1000 ; slow wipe
G1 Z10 ; raise extruder
M109 R140 ; wait for extruder to reach probe temp
G1 X-9 Y-9 ; move above first probe point
M204 S100 ; set probing acceleration
G29 ; start auto-leveling sequence
M420 S1 ; activate bed level matrix
M425 Z			     ; use measured Z backlash for compensation
M425 Z F0		     ; turn off measured Z backlash compensation. (if activated in the quality settings, this command will automatically be ignored)
M204 S500 ; restore standard acceleration
G1 X0 Y0 Z15 F5000 ; move up off last probe point
G4 S1 ; pause
M400 ; wait for moves to finish
M117 Heating... ; progress indicator message on LCD
M109 R220 ; wait for extruder to reach printing temp
M190 S60 ; wait for bed to reach printing temp
G1 Z2 E0 F75 ; prime tiny bit of filament into the nozzle
M117 TAZ 6 Printing... ; progress indicator message on LCD

M221 S100
;LAYER_COUNT:58
;LAYER:0
M107
G0 F2625 X134.776 Y115.031 Z0.424
;TYPE:WALL-INNER
G1 F900 X135.099 Y115.061 E0.01078
G1 X135.711 Y115.148 E0.03132
G1 X136.035 Y115.21 E0.04229
G1 X136.634 Y115.353 E0.06275
G1 X136.928 Y115.438 E0.07292
G1 X137.763 Y115.736 E0.10238
G1 X138.447 Y116.045 E0.12733
G1 X139.097 Y116.398 E0.15191
G1 X139.355 Y116.555 E0.16194
G1 X139.904 Y116.931 E0.18406
G1 X140.053 Y117.041 E0.19021
G1 X140.765 Y117.637 E0.22107
G1 X141.172 Y118.035 E0.23999
G1 X141.593 Y118.496 E0.26073
G1 X141.777 Y118.719 E0.27034
G1 X142.126 Y119.176 E0.28945
G1 X142.283 Y119.404 E0.29865
G1 X142.62 Y119.933 E0.31949
G1 X142.738 Y120.144 E0.32753
G1 X143.036 Y120.719 E0.34905
G1 X143.134 Y120.941 E0.35711
G1 X143.378 Y121.531 E0.37833
G1 X143.576 Y122.122 E0.39904
G1 X143.64 Y122.343 E0.40669
G1 X143.839 Y123.229 E0.43687
G1 X143.959 Y124.116 E0.46661
G1 X144 Y125 E0.49602
G1 X143.96 Y125.876 E0.52516
G1 X143.84 Y126.77 E0.55514
G1 X143.644 Y127.644 E0.5849
G1 X143.58 Y127.866 E0.59258
G1 X143.382 Y128.459 E0.61336
G1 X143.026 Y129.301 E0.64374
G1 X142.587 Y130.123 E0.67471
G1 X142.288 Y130.589 E0.69311
G1 X142.129 Y130.82 E0.70243
G1 X141.754 Y131.311 E0.72296
G1 X141.595 Y131.502 E0.73122
G1 X141.164 Y131.972 E0.75241
G1 X140.766 Y132.362 E0.77093
G1 X140.054 Y132.958 E0.80178
G1 X139.905 Y133.069 E0.80796
G1 X139.386 Y133.424 E0.82885
G1 X139.01 Y133.652 E0.84347
G1 X138.456 Y133.951 E0.86439
G1 X137.764 Y134.263 E0.88961
G1 X136.932 Y134.559 E0.91896
G1 X136.629 Y134.647 E0.92944
G1 X136.036 Y134.789 E0.94971
G1 X135.712 Y134.851 E0.96067
G1 X135.1 Y134.938 E0.98121
G1 X134.794 Y134.966 E0.99142
G1 X134 Y134.999 E1.01783
G1 X133.216 Y134.968 E1.04391
G1 X132.917 Y134.941 E1.05388
G1 X132.288 Y134.851 E1.075
G1 X131.985 Y134.795 E1.08524
G1 X131.366 Y134.647 E1.10639
G1 X131.066 Y134.56 E1.11677
G1 X130.461 Y134.353 E1.13802
G1 X130.248 Y134.27 E1.14562
G1 X129.565 Y133.962 E1.17052
G1 X128.906 Y133.604 E1.19544
G1 X128.684 Y133.471 E1.20404
G1 X127.913 Y132.934 E1.23526
G1 X127.303 Y132.425 E1.26166
G1 X126.726 Y131.86 E1.2885
G1 X126.411 Y131.509 E1.30417
G1 X126.247 Y131.312 E1.31269
G1 X125.871 Y130.82 E1.33327
G1 X125.722 Y130.603 E1.34202
G1 X125.375 Y130.058 E1.36349
G1 X125.258 Y129.849 E1.37145
G1 X124.963 Y129.279 E1.39278
G1 X124.861 Y129.048 E1.40117
G1 X124.626 Y128.478 E1.42166
G1 X124.355 Y127.637 E1.45102
G1 X124.161 Y126.771 E1.48051
G1 X124.04 Y125.877 E1.51049
G1 X124 Y125 E1.53967
G1 X124.04 Y124.124 E1.56881
G1 X124.16 Y123.23 E1.59879
G1 X124.356 Y122.357 E1.62852
G1 X124.627 Y121.515 E1.65792
G1 X124.852 Y120.971 E1.67748
G1 X124.973 Y120.699 E1.68737
G1 X125.249 Y120.167 E1.70729
G1 X125.391 Y119.914 E1.71693
G1 X125.749 Y119.358 E1.73891
G1 X125.894 Y119.146 E1.74744
G1 X126.255 Y118.679 E1.76706
G1 X126.41 Y118.492 E1.77513
G1 X126.731 Y118.135 E1.79108
G1 X127.028 Y117.835 E1.80511
G1 X127.295 Y117.581 E1.81736
G1 X127.58 Y117.339 E1.82978
G1 X127.928 Y117.056 E1.84469
G1 X128.672 Y116.538 E1.87482
G1 X129.168 Y116.249 E1.89389
G1 X129.552 Y116.045 E1.90834
G1 X130.254 Y115.728 E1.93394
G1 X130.46 Y115.648 E1.94128
G1 X131.065 Y115.441 E1.96253
G1 X131.372 Y115.352 E1.97316
G1 X131.993 Y115.205 E1.99436
G1 X132.287 Y115.15 E2.0043
G1 X132.916 Y115.06 E2.02542
G1 X133.216 Y115.033 E2.03543
G1 X134.026 Y115 E2.06237
G1 X134.776 Y115.031 E2.08731
G0 F2625 X134.77 Y115.13
G0 X134.007 Y121.886
G0 X134.007 Y121.986
G1 F900 X132.98 Y122.174 E2.12201
G1 X132.586 Y122.357 E2.13645
G1 X132.278 Y122.562 E2.14874
G1 X131.705 Y123.064 E2.17406
G1 X131.348 Y123.599 E2.19543
G1 X131.125 Y124.138 E2.21482
G1 X131.059 Y124.634 E2.23145
G1 X130.991 Y124.974 E2.24297
G1 X131.062 Y125.53 E2.2616
G1 X131.135 Y125.885 E2.27364
G1 X131.349 Y126.403 E2.29227
G1 X131.553 Y126.703 E2.30432
G1 X131.667 Y126.832 E2.31004
G1 X131.855 Y127.112 E2.32125
G1 X132.298 Y127.45 E2.33977
G1 X132.586 Y127.644 E2.35131
G1 X132.949 Y127.81 E2.36457
G1 X133.172 Y127.879 E2.37233
G1 X133.633 Y127.941 E2.38779
G1 X133.945 Y128.004 E2.39836
G1 X134.276 Y127.986 E2.40938
G1 X134.883 Y127.866 E2.42994
G1 X135.39 Y127.657 E2.44817
G1 X135.588 Y127.533 E2.45593
G1 X135.818 Y127.342 E2.46587
G1 X136.112 Y127.145 E2.47763
G1 X136.449 Y126.703 E2.4961
G1 X136.652 Y126.402 E2.50816
G1 X136.874 Y125.862 E2.52757
G1 X136.94 Y125.372 E2.544
G1 X137.009 Y125.025 E2.55575
G1 X136.938 Y124.47 E2.57435
G1 X136.866 Y124.116 E2.58635
G1 X136.653 Y123.599 E2.60493
G1 X136.432 Y123.271 E2.61808
G1 X135.87 Y122.658 E2.64571
G1 X135.376 Y122.332 E2.66538
G1 X134.594 Y122.072 E2.69277
G1 X134.353 Y122.056 E2.7008
G1 X134.007 Y121.986 E2.71253
G0 F2625 X134.002 Y122.495
;TYPE:WALL-OUTER
G1 F900 X133.133 Y122.654 E2.74189
G1 X132.832 Y122.794 E2.75292
G1 X132.583 Y122.96 E2.76286
G1 X132.084 Y123.397 E2.78491
G1 X131.791 Y123.836 E2.80245
G1 X131.612 Y124.269 E2.81802
G1 X131.554 Y124.706 E2.83267
G1 X131.497 Y124.991 E2.84232
G1 X131.556 Y125.448 E2.85764
G1 X131.615 Y125.738 E2.86747
G1 X131.791 Y126.164 E2.88279
G1 X131.949 Y126.396 E2.89212
G1 X132.063 Y126.525 E2.89784
G1 X132.224 Y126.765 E2.90744
G1 X132.589 Y127.043 E2.92269
G1 X132.831 Y127.206 E2.93239
G1 X133.128 Y127.342 E2.94324
G1 X133.28 Y127.389 E2.94853
G1 X133.706 Y127.446 E2.96281
G1 X133.982 Y127.501 E2.97216
G1 X134.214 Y127.489 E2.97988
G1 X134.738 Y127.385 E2.99764
G1 X135.16 Y127.211 E3.01281
G1 X135.294 Y127.127 E3.01806
G1 X135.521 Y126.939 E3.02786
G1 X135.765 Y126.776 E3.03761
G1 X136.043 Y126.411 E3.05286
G1 X136.209 Y126.165 E3.06272
G1 X136.387 Y125.731 E3.07831
G1 X136.447 Y125.29 E3.0931
G1 X136.503 Y125.008 E3.10265
G1 X136.444 Y124.552 E3.11793
G1 X136.385 Y124.262 E3.12777
G1 X136.21 Y123.836 E3.14307
G1 X136.038 Y123.581 E3.15329
G1 X135.543 Y123.041 E3.17764
G1 X135.156 Y122.786 E3.19304
G1 X134.497 Y122.567 E3.21612
G1 X134.287 Y122.553 E3.22311
G1 X134.002 Y122.495 E3.23278
G0 F2625 X133.756 Y122.54
G0 X133.649 Y121.95
G0 X134.601 Y122.033
G0 X135.393 Y122.297
G0 X135.895 Y122.628
G0 X136.463 Y123.247
G0 X136.688 Y123.581
G0 X136.904 Y124.105
G0 X137.048 Y125.026
G0 X135.089 Y134.839
G0 X135.153 Y135.435
G1 F900 X134.824 Y135.466 E3.24376
G1 X134.001 Y135.5 E3.27113
G1 X133.191 Y135.468 E3.29807
G1 X132.861 Y135.438 E3.30908
G1 X132.215 Y135.346 E3.33077
G1 X131.879 Y135.283 E3.34213
G1 X131.237 Y135.13 E3.36406
G1 X130.91 Y135.035 E3.37537
G1 X130.291 Y134.823 E3.39712
G1 X130.054 Y134.731 E3.40557
G1 X129.344 Y134.411 E3.43145
G1 X128.659 Y134.039 E3.45735
G1 X128.41 Y133.889 E3.46701
G1 X127.627 Y133.344 E3.49871
G1 X127.482 Y133.231 E3.50482
G1 X126.969 Y132.798 E3.52713
G1 X126.365 Y132.206 E3.55524
G1 X126.039 Y131.843 E3.57145
G1 X125.854 Y131.621 E3.58106
G1 X125.468 Y131.117 E3.60215
G1 X125.3 Y130.872 E3.61202
G1 X124.953 Y130.327 E3.6335
G1 X124.814 Y130.079 E3.64294
G1 X124.516 Y129.503 E3.6645
G1 X124.404 Y129.25 E3.67369
G1 X124.156 Y128.65 E3.69527
G1 X123.872 Y127.768 E3.72606
G1 X123.667 Y126.856 E3.75712
G1 X123.543 Y125.933 E3.78807
G1 X123.5 Y125 E3.81911
G1 X123.542 Y124.068 E3.85011
G1 X123.666 Y123.145 E3.88106
G1 X123.871 Y122.233 E3.91212
G1 X124.156 Y121.346 E3.94309
G1 X124.395 Y120.768 E3.96387
G1 X124.516 Y120.495 E3.97379
G1 X124.813 Y119.922 E3.99524
G1 X124.959 Y119.662 E4.00515
G1 X125.337 Y119.075 E4.02835
G1 X125.498 Y118.84 E4.03782
G1 X125.859 Y118.373 E4.05744
G1 X126.038 Y118.158 E4.06673
G1 X126.367 Y117.792 E4.08309
G1 X126.684 Y117.472 E4.09806
G1 X126.961 Y117.209 E4.11075
G1 X127.256 Y116.958 E4.12362
G1 X127.629 Y116.655 E4.13959
G1 X128.405 Y116.115 E4.17101
G1 X128.916 Y115.817 E4.19067
G1 X129.341 Y115.591 E4.20666
G1 X130.053 Y115.27 E4.23262
G1 X130.29 Y115.178 E4.24107
G1 X130.909 Y114.966 E4.26281
G1 X131.257 Y114.865 E4.27485
G1 X131.878 Y114.718 E4.29606
G1 X132.214 Y114.655 E4.30742
G1 X132.86 Y114.563 E4.3291
G1 X133.191 Y114.533 E4.34015
G1 X134.009 Y114.5 E4.36736
G1 X134.171 Y114.501 E4.37274
G1 X134.823 Y114.533 E4.39443
G1 X135.152 Y114.564 E4.40541
G1 X135.793 Y114.655 E4.42693
G1 X136.134 Y114.72 E4.43847
G1 X136.763 Y114.87 E4.45995
G1 X137.087 Y114.964 E4.47117
G1 X137.954 Y115.273 E4.50175
G1 X138.668 Y115.596 E4.5278
G1 X139.341 Y115.961 E4.55324
G1 X139.638 Y116.142 E4.5648
G1 X140.187 Y116.518 E4.58691
G1 X140.374 Y116.657 E4.59465
G1 X141.096 Y117.261 E4.62593
G1 X141.529 Y117.685 E4.64607
G1 X141.979 Y118.178 E4.66826
G1 X142.163 Y118.401 E4.67786
G1 X142.538 Y118.892 E4.6984
G1 X142.695 Y119.12 E4.7076
G1 X143.047 Y119.673 E4.72938
G1 X143.182 Y119.914 E4.73856
G1 X143.484 Y120.497 E4.76038
G1 X143.596 Y120.75 E4.76957
G1 X143.847 Y121.356 E4.79137
G1 X144.057 Y121.984 E4.81338
G1 X144.126 Y122.224 E4.82168
G1 X144.333 Y123.144 E4.85301
G1 X144.457 Y124.067 E4.88396
G1 X144.5 Y125 E4.915
G1 X144.458 Y125.932 E4.946
G1 X144.334 Y126.855 E4.97695
G1 X144.127 Y127.775 E5.00829
G1 X144.061 Y128.005 E5.01624
G1 X143.846 Y128.647 E5.03874
G1 X143.481 Y129.511 E5.06991
G1 X143.16 Y130.123 E5.09288
G1 X143.017 Y130.379 E5.10262
G1 X142.701 Y130.871 E5.12205
G1 X142.532 Y131.117 E5.13197
G1 X142.147 Y131.62 E5.15302
G1 X141.964 Y131.84 E5.16253
G1 X141.53 Y132.314 E5.18389
G1 X141.097 Y132.738 E5.20403
G1 X140.375 Y133.342 E5.23531
G1 X140.188 Y133.481 E5.24305
G1 X139.651 Y133.849 E5.26469
G1 X139.267 Y134.081 E5.2796
G1 X138.67 Y134.403 E5.30214
G1 X137.955 Y134.726 E5.32821
G1 X137.087 Y135.035 E5.35883
G1 X136.764 Y135.129 E5.37001
G1 X136.135 Y135.279 E5.3915
G1 X135.794 Y135.344 E5.40303
G1 X135.153 Y135.435 E5.42455
G0 F2625 X134.904 Y135.458
G0 X134.768 Y134.476
;TYPE:SKIN
G1 F900 X134 Y134.509 E5.4501
G1 X133.24 Y134.478 E5.47537
G1 X132.973 Y134.454 E5.48428
G1 X132.367 Y134.367 E5.50463
G1 X132.074 Y134.313 E5.51453
G1 X131.493 Y134.174 E5.53438
G1 X131.225 Y134.096 E5.54366
G1 X130.629 Y133.892 E5.56459
G1 X130.44 Y133.819 E5.57132
G1 X129.782 Y133.521 E5.59533
G1 X129.14 Y133.173 E5.6196
G1 X128.957 Y133.064 E5.62667
G1 X128.211 Y132.544 E5.65689
G1 X127.634 Y132.063 E5.68186
G1 X127.078 Y131.519 E5.70771
G1 X126.776 Y131.182 E5.72275
G1 X126.636 Y131.013 E5.73004
G1 X126.261 Y130.522 E5.75057
G1 X126.126 Y130.325 E5.75851
G1 X125.796 Y129.807 E5.77892
G1 X125.686 Y129.61 E5.78641
G1 X125.404 Y129.065 E5.80681
G1 X125.088 Y128.314 E5.83388
G1 X124.828 Y127.503 E5.86219
G1 X124.645 Y126.689 E5.88991
G1 X124.529 Y125.834 E5.91859
G1 X124.491 Y125 E5.94633
G1 X124.53 Y124.166 E5.97408
G1 X124.644 Y123.313 E6.00267
G1 X124.829 Y122.491 E6.03067
G1 X125.088 Y121.683 E6.05887
G1 X125.305 Y121.159 E6.07772
G1 X125.408 Y120.924 E6.08625
G1 X125.676 Y120.406 E6.10563
G1 X125.811 Y120.166 E6.11478
G1 X126.282 Y119.446 E6.14337
G1 X126.638 Y118.985 E6.16273
G1 X126.781 Y118.812 E6.17019
G1 X127.079 Y118.479 E6.18504
G1 X127.377 Y118.18 E6.19906
G1 X127.617 Y117.951 E6.21009
G1 X128.218 Y117.451 E6.23607
G1 X128.936 Y116.951 E6.26515
G1 X129.398 Y116.682 E6.28291
G1 X129.764 Y116.488 E6.29668
G1 X130.451 Y116.177 E6.32174
G1 X130.619 Y116.112 E6.32772
G1 X131.224 Y115.905 E6.34897
G1 X131.494 Y115.827 E6.35831
G1 X132.094 Y115.685 E6.3788
G1 X132.382 Y115.631 E6.38854
G1 X132.972 Y115.547 E6.40835
G1 X133.238 Y115.523 E6.41722
G1 X134.026 Y115.49 E6.44343
G1 X134.75 Y115.521 E6.46751
G1 X135.03 Y115.547 E6.47686
G1 X135.634 Y115.633 E6.49713
G1 X135.943 Y115.692 E6.50759
G1 X136.506 Y115.826 E6.52682
G1 X136.781 Y115.905 E6.53633
G1 X137.569 Y116.187 E6.56414
G1 X138.237 Y116.489 E6.5885
G1 X138.842 Y116.817 E6.61137
G1 X139.1 Y116.974 E6.62141
G1 X139.739 Y117.417 E6.64725
G1 X140.425 Y117.991 E6.67697
G1 X140.819 Y118.376 E6.69528
G1 X141.223 Y118.818 E6.71518
G1 X141.387 Y119.017 E6.72375
G1 X141.736 Y119.474 E6.74286
G1 X141.879 Y119.682 E6.75125
G1 X142.199 Y120.184 E6.77103
G1 X142.303 Y120.37 E6.77811
G1 X142.594 Y120.931 E6.79911
G1 X142.922 Y121.711 E6.82723
G1 X143.109 Y122.268 E6.84676
G1 X143.162 Y122.451 E6.85309
G1 X143.354 Y123.305 E6.88218
G1 X143.469 Y124.155 E6.91068
G1 X143.508 Y125 E6.93879
G1 X143.47 Y125.834 E6.96654
G1 X143.356 Y126.69 E6.99524
G1 X143.171 Y127.516 E7.02337
G1 X143.115 Y127.711 E7.03011
G1 X142.92 Y128.295 E7.05057
G1 X142.59 Y129.075 E7.07871
G1 X142.159 Y129.883 E7.10915
G1 X141.884 Y130.311 E7.12605
G1 X141.739 Y130.522 E7.13456
G1 X141.364 Y131.013 E7.15509
G1 X141.228 Y131.177 E7.16217
G1 X140.814 Y131.629 E7.18254
G1 X140.435 Y132 E7.20017
G1 X139.75 Y132.574 E7.22987
G1 X139.62 Y132.671 E7.23526
G1 X139.125 Y133.009 E7.25518
G1 X138.767 Y133.226 E7.26909
G1 X138.247 Y133.507 E7.28873
G1 X137.578 Y133.809 E7.31312
G1 X136.77 Y134.096 E7.34162
G1 X136.501 Y134.174 E7.35093
G1 X135.944 Y134.307 E7.36996
G1 X135.635 Y134.366 E7.38041
G1 X135.031 Y134.452 E7.40068
G1 X134.768 Y134.476 E7.40946
G0 F2625 X134.337 Y128.474
G1 F900 X135.026 Y128.337 E7.43281
G1 X135.615 Y128.094 E7.45398
G1 X135.876 Y127.931 E7.46421
G1 X136.109 Y127.737 E7.47428
G1 X136.453 Y127.507 E7.48803
G1 X136.847 Y126.989 E7.50966
G1 X137.087 Y126.635 E7.52387
G1 X137.351 Y125.99 E7.54703
G1 X137.426 Y125.437 E7.56558
G1 X137.505 Y125.043 E7.57893
G1 X137.422 Y124.39 E7.60081
G1 X137.337 Y123.973 E7.61495
G1 X137.087 Y123.366 E7.63677
G1 X136.818 Y122.967 E7.65276
G1 X136.19 Y122.282 E7.68364
G1 X135.592 Y121.887 E7.70746
G1 X134.69 Y121.588 E7.73904
G1 X134.424 Y121.57 E7.7479
G1 X134.011 Y121.487 E7.7619
G1 X132.831 Y121.703 E7.80176
G1 X132.345 Y121.928 E7.81956
G1 X131.98 Y122.172 E7.83415
G1 X131.333 Y122.738 E7.86272
G1 X130.913 Y123.367 E7.88785
G1 X130.647 Y124.01 E7.91098
G1 X130.573 Y124.566 E7.92962
G1 X130.495 Y124.956 E7.94283
G1 X130.578 Y125.61 E7.96474
G1 X130.665 Y126.03 E7.979
G1 X130.916 Y126.636 E8.00079
G1 X131.165 Y127.004 E8.01556
G1 X131.279 Y127.133 E8.02128
G1 X131.493 Y127.453 E8.03407
G1 X132.012 Y127.848 E8.05575
