;Generated by Cura LulzBot Edition GCodeWriter Version: 3.2.27
;FLAVOR:Marlin
;TIME:586
;Filament used: 0.203395m
;Layer height: 0.25
;Generated with Cura_SteamEngine 3.2.27
M82 ;absolute extrusion mode
;This G-Code has been generated specifically for the LulzBot TAZ 6 with standard extruder
M75 ; start GLCD timer
G26 ; clear potential 'probe fail' condition
G21 ; set units to Millimetres
M107 ; disable fans
M420 S0 ; disable previous leveling matrix
G90 ; absolute positioning
M82 ; set extruder to absolute mode
G92 E0 ; set extruder position to 0
M140 S85 ; start bed heating up
M109 R170 ; soften filament before homing Z
G28 ; Home all axis
G1 E-30 F100 ; retract filament
M109 R170 ; wait for extruder to reach wiping temp
G1 X-15 Y100 F3000 ; move above wiper pad
G1 Z1 ; push nozzle into wiper
G1 X-17 Y95 F1000 ; slow wipe
G1 X-17 Y90 F1000 ; slow wipe
G1 X-17 Y85 F1000 ; slow wipe
G1 X-15 Y90 F1000 ; slow wipe
G1 X-17 Y80 F1000 ; slow wipe
G1 X-15 Y95 F1000 ; slow wipe
G1 X-17 Y75 F2000 ; fast wipe
G1 X-15 Y65 F2000 ; fast wipe
G1 X-17 Y70 F2000 ; fast wipe
G1 X-15 Y60 F2000 ; fast wipe
G1 X-17 Y55 F2000 ; fast wipe
G1 X-15 Y50 F2000 ; fast wipe
G1 X-17 Y40 F2000 ; fast wipe
G1 X-15 Y45 F2000 ; fast wipe
G1 X-17 Y35 F2000 ; fast wipe
G1 X-15 Y40 F2000 ; fast wipe
G1 X-17 Y70 F2000 ; fast wipe
G1 X-15 Y30 Z2 F2000 ; fast wipe
G1 X-17 Y35 F2000 ; fast wipe
G1 X-15 Y25 F2000 ; fast wipe
G1 X-17 Y30 F2000 ; fast wipe
G1 X-15 Y25 Z1.5 F1000 ; slow wipe
G1 X-17 Y23 F1000 ; slow wipe
G1 Z10 ; raise extruder
M109 R170 ; wait for extruder to reach probe temp
G1 X-9 Y-9 ; move above first probe point
M204 S100 ; set probing acceleration
G29 ; start auto-leveling sequence
M420 S1 ; activate bed level matrix
M425 Z			     ; use measured Z backlash for compensation
M425 Z F0		     ; turn off measured Z backlash compensation. (if activated in the quality settings, this command will automatically be ignored)
M204 S500 ; restore standard acceleration
G1 X0 Y0 Z15 F5000 ; move up off last probe point
G4 S1 ; pause
M400 ; wait for moves to finish
M117 Heating... ; progress indicator message on LCD
M109 R235 ; wait for extruder to reach printing temp
M190 S85 ; wait for bed to reach printing temp
G1 Z2 E0 F75 ; prime tiny bit of filament into the nozzle
M117 TAZ 6 Printing... ; progress indicator message on LCD

M221 S100
;LAYER_COUNT:29
;LAYER:0
M107
G0 F2625 X130.699 Y129.596 Z0.424
;TYPE:SKIRT
G1 F900 X131.181 Y129.174 E0.02022
G1 X131.842 Y128.669 E0.04649
G1 X132.301 Y128.359 E0.06397
G1 X133.478 Y127.66 E0.10719
G1 X134.183 Y127.316 E0.13195
G1 X135.738 Y126.712 E0.18462
G1 X136.562 Y126.475 E0.21169
G1 X138.181 Y126.164 E0.26374
G1 X138.959 Y126.08 E0.28844
G1 X140.331 Y126.046 E0.33177
G1 X140.97 Y126.074 E0.35196
G1 X142.131 Y126.202 E0.38884
G1 X142.874 Y126.344 E0.41272
G1 X144.573 Y126.813 E0.46836
G1 X145.155 Y127.015 E0.48781
G1 X145.452 Y127.153 E0.49815
G1 X147.161 Y128.017 E0.55861
G1 X147.822 Y128.422 E0.58308
G1 X148.685 Y129.053 E0.61683
G1 X149.204 Y129.493 E0.63831
G1 X150.354 Y130.619 E0.68912
G1 X150.932 Y131.303 E0.7174
G1 X152.005 Y132.848 E0.77678
G1 X152.371 Y133.471 E0.79959
G1 X152.77 Y134.287 E0.82827
G1 X152.984 Y134.798 E0.84576
G1 X153.403 Y135.989 E0.88562
G1 X153.566 Y136.569 E0.90464
G1 X153.798 Y137.651 E0.93957
G1 X153.889 Y138.267 E0.95923
G1 X153.991 Y139.537 E0.99946
G1 X154 Y140.164 E1.01925
G1 X153.937 Y141.373 E1.05747
G1 X153.866 Y141.979 E1.07674
G1 X153.66 Y143.108 E1.11297
G1 X153.518 Y143.68 E1.13157
G1 X153.171 Y144.783 E1.16808
G1 X152.939 Y145.378 E1.18824
G1 X152.383 Y146.561 E1.22951
G1 X152.01 Y147.214 E1.25325
G1 X151.095 Y148.558 E1.30458
G1 X150.716 Y149.045 E1.32406
G1 X150.177 Y149.65 E1.34964
G1 X149.744 Y150.076 E1.36882
G1 X148.589 Y151.079 E1.41711
G1 X147.935 Y151.556 E1.44267
G1 X146.541 Y152.4 E1.49411
G1 X145.793 Y152.768 E1.52043
G1 X144.274 Y153.355 E1.57184
G1 X143.467 Y153.587 E1.59835
G1 X141.885 Y153.894 E1.64923
G1 X141.185 Y153.977 E1.67148
G1 X140.051 Y154.026 E1.70732
G1 X139.422 Y154.011 E1.72718
G1 X138.106 Y153.893 E1.76889
G1 X137.351 Y153.763 E1.79308
G1 X135.747 Y153.352 E1.84536
G1 X134.992 Y153.09 E1.87059
G1 X133.621 Y152.479 E1.91797
G1 X132.982 Y152.133 E1.94091
G1 X131.902 Y151.437 E1.98148
G1 X131.401 Y151.065 E2.00118
G1 X130.515 Y150.313 E2.03786
G1 X129.973 Y149.772 E2.06204
G1 X128.801 Y148.396 E2.1191
G1 X128.316 Y147.713 E2.14555
G1 X127.572 Y146.44 E2.1921
G1 X127.295 Y145.886 E2.21165
G1 X126.943 Y145.05 E2.24029
G1 X126.72 Y144.386 E2.2624
G1 X126.266 Y142.614 E2.32015
G1 X126.152 Y142.008 E2.33962
G1 X126.124 Y141.692 E2.34964
G1 X126.025 Y139.864 E2.40743
G1 X126.041 Y139.144 E2.43017
G1 X126.133 Y138.204 E2.45999
G1 X126.264 Y137.469 E2.48356
G1 X126.766 Y135.543 E2.54639
G1 X127.063 Y134.72 E2.57401
G1 X127.652 Y133.467 E2.61772
G1 X128.04 Y132.792 E2.6423
G1 X128.974 Y131.437 E2.69426
G1 X129.519 Y130.781 E2.72118
G1 X130.699 Y129.596 E2.77398
G0 F2625 X131.053 Y129.949
G1 F900 X131.485 Y129.571 E2.7921
G1 X132.146 Y129.066 E2.81836
G1 X132.556 Y128.789 E2.83398
G1 X133.733 Y128.09 E2.8772
G1 X134.364 Y127.782 E2.89937
G1 X135.919 Y127.178 E2.95203
G1 X136.656 Y126.966 E2.97625
G1 X138.275 Y126.655 E3.02829
G1 X138.972 Y126.58 E3.05042
G1 X140.344 Y126.546 E3.09375
G1 X140.915 Y126.571 E3.1118
G1 X142.076 Y126.699 E3.14867
G1 X142.741 Y126.826 E3.17004
G1 X144.44 Y127.295 E3.22569
G1 X145.227 Y127.599 E3.25232
G1 X146.936 Y128.463 E3.31278
G1 X147.526 Y128.825 E3.33463
G1 X148.389 Y129.456 E3.36839
G1 X148.854 Y129.85 E3.38763
G1 X150.004 Y130.976 E3.43844
G1 X150.522 Y131.589 E3.46377
G1 X151.595 Y133.134 E3.52316
G1 X151.922 Y133.691 E3.54355
G1 X152.321 Y134.507 E3.57223
G1 X152.512 Y134.964 E3.58786
G1 X152.931 Y136.155 E3.62772
G1 X153.078 Y136.674 E3.64475
G1 X153.31 Y137.756 E3.67969
G1 X153.39 Y138.307 E3.69727
G1 X153.492 Y139.577 E3.73749
G1 X153.5 Y140.138 E3.7552
G1 X153.437 Y141.347 E3.79342
G1 X153.374 Y141.889 E3.81065
G1 X153.168 Y143.018 E3.84688
G1 X153.041 Y143.53 E3.86354
G1 X152.694 Y144.633 E3.90004
G1 X152.486 Y145.166 E3.9181
G1 X151.93 Y146.349 E3.95937
G1 X151.597 Y146.933 E3.98059
G1 X150.682 Y148.277 E4.03192
G1 X150.342 Y148.712 E4.04935
G1 X149.803 Y149.317 E4.07494
G1 X149.417 Y149.699 E4.09208
G1 X148.262 Y150.702 E4.14037
G1 X147.676 Y151.129 E4.16326
G1 X146.282 Y151.973 E4.21471
G1 X145.613 Y152.301 E4.23823
G1 X144.094 Y152.888 E4.28965
G1 X143.372 Y153.096 E4.31337
G1 X141.79 Y153.403 E4.36424
G1 X141.163 Y153.477 E4.38417
G1 X140.029 Y153.526 E4.42001
G1 X139.466 Y153.513 E4.43779
G1 X138.15 Y153.395 E4.4795
G1 X137.475 Y153.279 E4.50112
G1 X135.871 Y152.868 E4.5534
G1 X135.196 Y152.633 E4.57596
G1 X133.825 Y152.022 E4.62335
G1 X133.253 Y151.712 E4.64389
G1 X132.173 Y151.016 E4.68445
G1 X131.725 Y150.684 E4.70206
G1 X130.839 Y149.932 E4.73874
G1 X130.354 Y149.448 E4.76038
G1 X129.182 Y148.072 E4.81744
G1 X128.748 Y147.46 E4.84112
G1 X128.004 Y146.187 E4.88767
G1 X127.756 Y145.692 E4.90515
G1 X127.404 Y144.856 E4.93379
G1 X127.204 Y144.262 E4.95358
G1 X126.75 Y142.49 E5.01133
G1 X126.623 Y141.665 E5.03768
G1 X126.524 Y139.837 E5.09547
G1 X126.538 Y139.193 E5.11581
G1 X126.63 Y138.253 E5.14563
G1 X126.747 Y137.595 E5.16673
G1 X127.249 Y135.669 E5.22956
G1 X127.516 Y134.933 E5.25428
G1 X128.105 Y133.68 E5.29799
G1 X128.452 Y133.076 E5.31998
G1 X129.386 Y131.721 E5.37194
G1 X129.873 Y131.134 E5.39602
G1 X131.053 Y129.949 E5.44881
G0 F2625 X131.408 Y130.302
G1 F900 X131.788 Y129.968 E5.46479
G1 X132.449 Y129.463 E5.49105
G1 X132.811 Y129.219 E5.50483
G1 X133.988 Y128.52 E5.54805
G1 X134.545 Y128.248 E5.56762
G1 X136.1 Y127.644 E5.62028
G1 X136.751 Y127.457 E5.64166
G1 X138.37 Y127.146 E5.69371
G1 X138.984 Y127.08 E5.71321
G1 X140.356 Y127.046 E5.75653
G1 X140.86 Y127.068 E5.77246
G1 X142.021 Y127.196 E5.80934
G1 X142.608 Y127.308 E5.8282
G1 X144.307 Y127.777 E5.88385
G1 X145.001 Y128.045 E5.90733
G1 X146.71 Y128.909 E5.96779
G1 X147.231 Y129.229 E5.98709
G1 X148.094 Y129.86 E6.02085
G1 X148.505 Y130.208 E6.03785
G1 X149.655 Y131.334 E6.08866
G1 X150.111 Y131.874 E6.11097
G1 X151.184 Y133.419 E6.17036
G1 X151.473 Y133.911 E6.18837
G1 X151.872 Y134.727 E6.21705
G1 X152.04 Y135.129 E6.2308
G1 X152.459 Y136.32 E6.27066
G1 X152.589 Y136.779 E6.28572
G1 X152.821 Y137.861 E6.32066
G1 X152.892 Y138.347 E6.33616
G1 X152.994 Y139.617 E6.37639
G1 X153.001 Y140.112 E6.39202
G1 X152.938 Y141.321 E6.43024
G1 X152.882 Y141.799 E6.44543
G1 X152.676 Y142.928 E6.48166
G1 X152.564 Y143.38 E6.49636
G1 X152.217 Y144.483 E6.53287
G1 X152.034 Y144.953 E6.54879
G1 X151.478 Y146.136 E6.59006
G1 X151.184 Y146.651 E6.60878
G1 X150.269 Y147.995 E6.66011
G1 X149.969 Y148.38 E6.67552
G1 X149.43 Y148.985 E6.7011
G1 X149.089 Y149.321 E6.71621
G1 X147.934 Y150.324 E6.76451
G1 X147.417 Y150.701 E6.78471
G1 X146.023 Y151.545 E6.83615
G1 X145.433 Y151.835 E6.85691
G1 X143.914 Y152.422 E6.90832
G1 X143.276 Y152.605 E6.92928
G1 X141.694 Y152.912 E6.98015
G1 X141.142 Y152.978 E6.9977
G1 X140.008 Y153.027 E7.03354
G1 X139.511 Y153.015 E7.04923
G1 X138.195 Y152.897 E7.09095
G1 X137.599 Y152.795 E7.11003
G1 X135.995 Y152.384 E7.16231
G1 X135.4 Y152.176 E7.18221
G1 X134.029 Y151.565 E7.2296
G1 X133.524 Y151.292 E7.24772
G1 X132.444 Y150.596 E7.28828
G1 X132.048 Y150.303 E7.30383
G1 X131.162 Y149.551 E7.34052
G1 X130.734 Y149.124 E7.35961
G1 X129.562 Y147.748 E7.41667
G1 X129.179 Y147.208 E7.43757
G1 X128.435 Y145.935 E7.48412
G1 X128.217 Y145.498 E7.49954
G1 X127.865 Y144.662 E7.52818
G1 X127.688 Y144.138 E7.54564
G1 X127.234 Y142.366 E7.60339
G1 X127.122 Y141.638 E7.62664
G1 X127.023 Y139.81 E7.68444
G1 X127.036 Y139.242 E7.70237
G1 X127.128 Y138.302 E7.73219
G1 X127.231 Y137.721 E7.75082
G1 X127.733 Y135.795 E7.81365
G1 X127.968 Y135.146 E7.83545
G1 X128.557 Y133.893 E7.87916
G1 X128.863 Y133.36 E7.89856
G1 X129.797 Y132.005 E7.95051
G1 X130.228 Y131.487 E7.97179
G1 X131.408 Y130.302 E8.02458
G0 F2625 X131.762 Y130.655
G1 F900 X132.092 Y130.365 E8.03845
G1 X132.753 Y129.86 E8.06472
G1 X133.066 Y129.649 E8.07663
G1 X134.243 Y128.95 E8.11985
G1 X134.726 Y128.715 E8.13681
G1 X136.281 Y128.111 E8.18947
G1 X136.845 Y127.948 E8.20801
G1 X138.464 Y127.637 E8.26005
G1 X138.996 Y127.58 E8.27695
G1 X140.368 Y127.546 E8.32027
G1 X140.805 Y127.565 E8.33408
G1 X141.966 Y127.693 E8.37096
G1 X142.475 Y127.79 E8.38732
G1 X144.174 Y128.259 E8.44296
G1 X144.775 Y128.492 E8.46331
G1 X146.484 Y129.356 E8.52377
G1 X146.936 Y129.632 E8.54049
G1 X147.799 Y130.263 E8.57424
G1 X148.155 Y130.565 E8.58898
G1 X149.305 Y131.691 E8.63979
G1 X149.7 Y132.159 E8.65912
G1 X150.773 Y133.704 E8.71851
G1 X151.024 Y134.13 E8.73412
G1 X151.423 Y134.946 E8.76279
G1 X151.569 Y135.295 E8.77474
G1 X151.988 Y136.486 E8.8146
G1 X152.1 Y136.884 E8.82765
G1 X152.332 Y137.966 E8.86258
G1 X152.394 Y138.387 E8.87602
G1 X152.496 Y139.657 E8.91624
G1 X152.502 Y140.086 E8.92979
G1 X152.439 Y141.295 E8.96801
G1 X152.39 Y141.709 E8.98117
G1 X152.184 Y142.838 E9.0174
G1 X152.087 Y143.23 E9.03015
G1 X151.74 Y144.333 E9.06665
G1 X151.581 Y144.74 E9.08045
G1 X151.025 Y145.923 E9.12172
G1 X150.771 Y146.37 E9.13795
G1 X149.856 Y147.714 E9.18928
G1 X149.596 Y148.047 E9.20262
G1 X149.057 Y148.652 E9.2282
G1 X148.761 Y148.944 E9.24132
G1 X147.606 Y149.947 E9.28962
G1 X147.158 Y150.273 E9.30711
G1 X145.764 Y151.117 E9.35856
G1 X145.252 Y151.369 E9.37657
G1 X143.733 Y151.956 E9.42798
G1 X143.181 Y152.114 E9.44611
G1 X141.599 Y152.421 E9.49699
G1 X141.12 Y152.478 E9.51221
G1 X139.986 Y152.527 E9.54805
G1 X139.556 Y152.517 E9.56163
G1 X138.24 Y152.399 E9.60334
G1 X137.723 Y152.31 E9.6199
G1 X136.119 Y151.899 E9.67218
G1 X135.603 Y151.72 E9.68942
G1 X134.232 Y151.109 E9.73681
G1 X133.794 Y150.872 E9.75253
G1 X132.714 Y150.176 E9.79309
G1 X132.372 Y149.922 E9.80654
G1 X131.486 Y149.17 E9.84323
G1 X131.115 Y148.799 E9.85979
G1 X129.943 Y147.423 E9.91686
G1 X129.611 Y146.956 E9.93495
G1 X128.867 Y145.683 E9.9815
G1 X128.678 Y145.304 E9.99487
G1 X128.326 Y144.468 E10.0235
G1 X128.173 Y144.014 E10.03863
G1 X127.719 Y142.242 E10.09638
G1 X127.622 Y141.611 E10.11653
G1 X127.523 Y139.783 E10.17433
G1 X127.533 Y139.29 E10.1899
G1 X127.625 Y138.35 E10.21971
G1 X127.715 Y137.847 E10.23585
G1 X128.217 Y135.921 E10.29868
G1 X128.421 Y135.358 E10.31759
G1 X129.01 Y134.105 E10.3613
G1 X129.275 Y133.644 E10.37808
G1 X130.209 Y132.289 E10.43004
G1 X130.582 Y131.84 E10.44847
G1 X131.762 Y130.655 E10.50126
G0 F2625 X132.116 Y131.008
G1 F900 X132.395 Y130.763 E10.51299
G1 X133.056 Y130.258 E10.53925
G1 X133.322 Y130.079 E10.54937
G1 X134.499 Y129.38 E10.59259
G1 X134.907 Y129.181 E10.60692
G1 X136.462 Y128.577 E10.65958
G1 X136.939 Y128.439 E10.67526
G1 X138.558 Y128.128 E10.72731
G1 X139.009 Y128.08 E10.74162
G1 X140.381 Y128.046 E10.78495
G1 X140.75 Y128.062 E10.79661
G1 X141.911 Y128.19 E10.83349
G1 X142.342 Y128.272 E10.84734
G1 X144.041 Y128.741 E10.90298
G1 X144.55 Y128.938 E10.92021
G1 X146.259 Y129.802 E10.98067
G1 X146.641 Y130.036 E10.99481
G1 X147.504 Y130.667 E11.02856
G1 X147.805 Y130.922 E11.04102
G1 X148.955 Y132.048 E11.09183
G1 X149.29 Y132.444 E11.10821
G1 X150.363 Y133.989 E11.16759
G1 X150.574 Y134.35 E11.18079
G1 X150.973 Y135.166 E11.20947
G1 X151.097 Y135.461 E11.21957
G1 X151.516 Y136.652 E11.25943
G1 X151.611 Y136.988 E11.27045
G1 X151.843 Y138.07 E11.30539
G1 X151.895 Y138.427 E11.31678
G1 X151.997 Y139.697 E11.357
G1 X152.002 Y140.06 E11.36846
G1 X151.939 Y141.269 E11.40668
G1 X151.898 Y141.62 E11.41784
G1 X151.692 Y142.749 E11.45407
G1 X151.61 Y143.08 E11.46484
G1 X151.263 Y144.183 E11.50134
G1 X151.129 Y144.528 E11.51303
G1 X150.573 Y145.711 E11.55429
G1 X150.357 Y146.089 E11.56804
G1 X149.442 Y147.433 E11.61937
G1 X149.222 Y147.714 E11.63064
G1 X148.683 Y148.319 E11.65622
G1 X148.433 Y148.566 E11.66731
G1 X147.278 Y149.569 E11.71561
G1 X146.899 Y149.845 E11.73041
G1 X145.505 Y150.689 E11.78185
G1 X145.072 Y150.902 E11.79709
G1 X143.553 Y151.489 E11.8485
G1 X143.086 Y151.624 E11.86385
G1 X141.504 Y151.931 E11.91472
G1 X141.099 Y151.978 E11.92759
G1 X139.965 Y152.027 E11.96343
G1 X139.6 Y152.019 E11.97495
G1 X138.284 Y151.901 E12.01667
G1 X137.847 Y151.826 E12.03067
G1 X136.243 Y151.415 E12.08294
G1 X135.807 Y151.263 E12.09752
G1 X134.436 Y150.652 E12.1449
G1 X134.065 Y150.452 E12.15821
G1 X132.985 Y149.756 E12.19877
G1 X132.695 Y149.541 E12.21017
G1 X131.809 Y148.789 E12.24686
G1 X131.495 Y148.475 E12.26088
G1 X130.323 Y147.099 E12.31794
G1 X130.043 Y146.704 E12.33323
G1 X129.299 Y145.431 E12.37978
G1 X129.139 Y145.11 E12.3911
G1 X128.787 Y144.274 E12.41974
G1 X128.657 Y143.89 E12.43254
G1 X128.203 Y142.118 E12.49028
G1 X128.121 Y141.584 E12.50734
G1 X128.022 Y139.756 E12.56514
G1 X128.031 Y139.339 E12.5783
G1 X128.123 Y138.399 E12.60812
G1 X128.199 Y137.973 E12.62178
G1 X128.701 Y136.047 E12.68462
G1 X128.873 Y135.571 E12.7006
G1 X129.462 Y134.318 E12.74431
G1 X129.687 Y133.927 E12.75855
G1 X130.621 Y132.572 E12.81051
G1 X130.936 Y132.193 E12.82606
G1 X132.116 Y131.008 E12.87886
G0 F2625 X132.471 Y131.36
G1 F900 X132.699 Y131.16 E12.88843
G1 X133.36 Y130.655 E12.9147
G1 X133.577 Y130.508 E12.92297
G1 X134.754 Y129.809 E12.96619
G1 X135.088 Y129.647 E12.97791
G1 X136.643 Y129.043 E13.03057
G1 X137.034 Y128.93 E13.04342
G1 X138.653 Y128.619 E13.09547
G1 X139.021 Y128.58 E13.10715
G1 X140.393 Y128.546 E13.15048
G1 X140.696 Y128.559 E13.16005
G1 X141.857 Y128.687 E13.19693
G1 X142.209 Y128.754 E13.20824
G1 X143.908 Y129.223 E13.26389
G1 X144.324 Y129.384 E13.27797
G1 X146.033 Y130.248 E13.33843
G1 X146.346 Y130.44 E13.35002
G1 X147.209 Y131.071 E13.38377
G1 X147.455 Y131.279 E13.39394
G1 X148.605 Y132.405 E13.44475
G1 X148.879 Y132.73 E13.45817
G1 X149.952 Y134.275 E13.51756
G1 X150.125 Y134.57 E13.52835
G1 X150.524 Y135.386 E13.55703
G1 X150.625 Y135.627 E13.56528
G1 X151.044 Y136.818 E13.60514
G1 X151.122 Y137.093 E13.61416
G1 X151.354 Y138.175 E13.6491
G1 X151.397 Y138.467 E13.65842
G1 X151.499 Y139.737 E13.69864
G1 X151.503 Y140.034 E13.70802
G1 X151.44 Y141.243 E13.74624
G1 X151.406 Y141.53 E13.75536
G1 X151.2 Y142.659 E13.79159
G1 X151.133 Y142.93 E13.80041
