;Generated by Cura LulzBot Edition GCodeWriter Version: 3.2.27
;FLAVOR:Marlin
;TIME:529
;Filament used: 0.200551m
;Layer height: 0.25
;Generated with Cura_SteamEngine 3.2.27
M82 ;absolute extrusion mode
;This G-Code has been generated specifically for the LulzBot TAZ 6 with standard extruder
M75 ; start GLCD timer
G26 ; clear potential 'probe fail' condition
G21 ; set units to Millimetres
M107 ; disable fans
M420 S0 ; disable previous leveling matrix
G90 ; absolute positioning
M82 ; set extruder to absolute mode
G92 E0 ; set extruder position to 0
M140 S60 ; start bed heating up
M109 R140 ; soften filament before homing Z
G28 ; Home all axis
G1 E-30 F100 ; retract filament
M109 R140 ; wait for extruder to reach wiping temp
G1 X-15 Y100 F3000 ; move above wiper pad
G1 Z1 ; push nozzle into wiper
G1 X-17 Y95 F1000 ; slow wipe
G1 X-17 Y90 F1000 ; slow wipe
G1 X-17 Y85 F1000 ; slow wipe
G1 X-15 Y90 F1000 ; slow wipe
G1 X-17 Y80 F1000 ; slow wipe
G1 X-15 Y95 F1000 ; slow wipe
G1 X-17 Y75 F2000 ; fast wipe
G1 X-15 Y65 F2000 ; fast wipe
G1 X-17 Y70 F2000 ; fast wipe
G1 X-15 Y60 F2000 ; fast wipe
G1 X-17 Y55 F2000 ; fast wipe
G1 X-15 Y50 F2000 ; fast wipe
G1 X-17 Y40 F2000 ; fast wipe
G1 X-15 Y45 F2000 ; fast wipe
G1 X-17 Y35 F2000 ; fast wipe
G1 X-15 Y40 F2000 ; fast wipe
G1 X-17 Y70 F2000 ; fast wipe
G1 X-15 Y30 Z2 F2000 ; fast wipe
G1 X-17 Y35 F2000 ; fast wipe
G1 X-15 Y25 F2000 ; fast wipe
G1 X-17 Y30 F2000 ; fast wipe
G1 X-15 Y25 Z1.5 F1000 ; slow wipe
G1 X-17 Y23 F1000 ; slow wipe
G1 Z10 ; raise extruder
M109 R140 ; wait for extruder to reach probe temp
G1 X-9 Y-9 ; move above first probe point
M204 S100 ; set probing acceleration
G29 ; start auto-leveling sequence
M420 S1 ; activate bed level matrix
M425 Z			     ; use measured Z backlash for compensation
M425 Z F0		     ; turn off measured Z backlash compensation. (if activated in the quality settings, this command will automatically be ignored)
M204 S500 ; restore standard acceleration
G1 X0 Y0 Z15 F5000 ; move up off last probe point
G4 S1 ; pause
M400 ; wait for moves to finish
M117 Heating... ; progress indicator message on LCD
M109 R220 ; wait for extruder to reach printing temp
M190 S60 ; wait for bed to reach printing temp
G1 Z2 E0 F75 ; prime tiny bit of filament into the nozzle
M117 TAZ 6 Printing... ; progress indicator message on LCD

M221 S100
;LAYER_COUNT:29
;LAYER:0
M107
G0 F2625 X132.471 Y131.36 Z0.424
;TYPE:SKIRT
G1 F900 X132.699 Y131.16 E0.01008
G1 X133.36 Y130.655 E0.03772
G1 X133.577 Y130.508 E0.04643
G1 X134.754 Y129.809 E0.09192
G1 X135.088 Y129.647 E0.10426
G1 X136.643 Y129.043 E0.1597
G1 X137.034 Y128.93 E0.17322
G1 X138.653 Y128.619 E0.22801
G1 X139.021 Y128.58 E0.24031
G1 X140.393 Y128.546 E0.28592
G1 X140.696 Y128.559 E0.29599
G1 X141.857 Y128.687 E0.33481
G1 X142.209 Y128.754 E0.34672
G1 X143.908 Y129.223 E0.40529
G1 X144.324 Y129.384 E0.42011
G1 X146.033 Y130.248 E0.48375
G1 X146.346 Y130.44 E0.49596
G1 X147.209 Y131.071 E0.53148
G1 X147.455 Y131.279 E0.54219
G1 X148.605 Y132.405 E0.59567
G1 X148.879 Y132.73 E0.6098
G1 X149.952 Y134.275 E0.67231
G1 X150.125 Y134.57 E0.68368
G1 X150.524 Y135.386 E0.71386
G1 X150.625 Y135.627 E0.72255
G1 X151.044 Y136.818 E0.7645
G1 X151.122 Y137.093 E0.774
G1 X151.354 Y138.175 E0.81078
G1 X151.397 Y138.467 E0.82059
G1 X151.499 Y139.737 E0.86293
G1 X151.503 Y140.034 E0.8728
G1 X151.44 Y141.243 E0.91303
G1 X151.406 Y141.53 E0.92263
G1 X151.2 Y142.659 E0.96077
G1 X151.133 Y142.93 E0.97005
G1 X150.786 Y144.033 E1.00847
G1 X150.676 Y144.315 E1.01853
G1 X150.12 Y145.498 E1.06197
G1 X149.944 Y145.807 E1.07379
G1 X149.029 Y147.151 E1.12782
G1 X148.849 Y147.382 E1.13755
G1 X148.31 Y147.987 E1.16448
G1 X148.105 Y148.189 E1.17405
G1 X146.95 Y149.192 E1.22488
G1 X146.64 Y149.418 E1.23763
G1 X145.246 Y150.262 E1.29178
G1 X144.892 Y150.436 E1.30489
G1 X143.373 Y151.023 E1.35901
G1 X142.991 Y151.133 E1.37222
G1 X141.409 Y151.44 E1.42577
G1 X141.077 Y151.479 E1.43688
G1 X139.943 Y151.528 E1.4746
G1 X139.645 Y151.521 E1.48451
G1 X138.329 Y151.403 E1.52842
G1 X137.972 Y151.342 E1.54045
G1 X136.368 Y150.931 E1.59548
G1 X136.01 Y150.806 E1.60808
G1 X134.639 Y150.195 E1.65796
G1 X134.336 Y150.031 E1.66941
G1 X133.256 Y149.335 E1.71211
G1 X133.019 Y149.159 E1.72192
G1 X132.133 Y148.407 E1.76054
G1 X131.876 Y148.151 E1.77259
G1 X130.704 Y146.775 E1.83266
G1 X130.474 Y146.451 E1.84586
G1 X129.73 Y145.178 E1.89486
G1 X129.599 Y144.916 E1.9046
G1 X129.247 Y144.08 E1.93474
G1 X129.141 Y143.765 E1.94579
G1 X128.687 Y141.993 E2.00658
G1 X128.62 Y141.557 E2.02124
G1 X128.521 Y139.729 E2.08207
G1 X128.529 Y139.388 E2.09341
G1 X128.621 Y138.448 E2.1248
G1 X128.683 Y138.1 E2.13654
G1 X129.185 Y136.174 E2.20269
G1 X129.326 Y135.784 E2.21647
G1 X129.915 Y134.531 E2.26248
G1 X130.098 Y134.211 E2.27473
G1 X131.032 Y132.856 E2.32942
G1 X131.291 Y132.545 E2.34287
G1 X132.471 Y131.36 E2.39844
G0 F2625 X132.825 Y131.713
G1 F900 X133.003 Y131.557 E2.40631
G1 X133.664 Y131.052 E2.43395
G1 X133.832 Y130.938 E2.4407
G1 X135.009 Y130.239 E2.48619
G1 X135.269 Y130.113 E2.49579
G1 X136.824 Y129.509 E2.55123
G1 X137.128 Y129.421 E2.56175
G1 X138.747 Y129.11 E2.61653
G1 X139.034 Y129.08 E2.62612
G1 X140.406 Y129.046 E2.67173
G1 X140.641 Y129.056 E2.67955
G1 X141.802 Y129.184 E2.71836
G1 X142.076 Y129.236 E2.72763
G1 X143.775 Y129.705 E2.7862
G1 X144.099 Y129.83 E2.79774
G1 X145.808 Y130.694 E2.86138
G1 X146.051 Y130.843 E2.87086
G1 X146.914 Y131.474 E2.90638
G1 X147.105 Y131.637 E2.91473
G1 X148.255 Y132.763 E2.96821
G1 X148.468 Y133.015 E2.97918
G1 X149.541 Y134.56 E3.04169
G1 X149.676 Y134.789 E3.05052
G1 X150.075 Y135.605 E3.08071
G1 X150.154 Y135.793 E3.08749
G1 X150.573 Y136.984 E3.12944
G1 X150.633 Y137.198 E3.13683
G1 X150.865 Y138.28 E3.1736
G1 X150.898 Y138.507 E3.18123
G1 X151 Y139.777 E3.22357
G1 X151.004 Y140.008 E3.23124
G1 X150.941 Y141.217 E3.27148
G1 X150.915 Y141.44 E3.27894
G1 X150.709 Y142.569 E3.31708
G1 X150.656 Y142.78 E3.32431
G1 X150.309 Y143.883 E3.36273
G1 X150.224 Y144.102 E3.37054
G1 X149.668 Y145.285 E3.41398
G1 X149.531 Y145.526 E3.42319
G1 X148.616 Y146.87 E3.47722
G1 X148.476 Y147.049 E3.48477
G1 X147.937 Y147.654 E3.5117
G1 X147.777 Y147.811 E3.51915
G1 X146.622 Y148.814 E3.56999
G1 X146.381 Y148.99 E3.5799
G1 X144.987 Y149.834 E3.63406
G1 X144.712 Y149.969 E3.64424
G1 X143.193 Y150.556 E3.69836
G1 X142.895 Y150.642 E3.70866
G1 X141.313 Y150.949 E3.76222
G1 X141.056 Y150.979 E3.77082
G1 X139.922 Y151.028 E3.80854
G1 X139.69 Y151.023 E3.81625
G1 X138.374 Y150.905 E3.86016
G1 X138.096 Y150.857 E3.86953
G1 X136.492 Y150.446 E3.92456
G1 X136.214 Y150.349 E3.93434
G1 X134.843 Y149.738 E3.98422
G1 X134.607 Y149.611 E3.99313
G1 X133.527 Y148.915 E4.03583
G1 X133.343 Y148.778 E4.04345
G1 X132.457 Y148.026 E4.08207
G1 X132.257 Y147.827 E4.09145
G1 X131.085 Y146.451 E4.15151
G1 X130.906 Y146.199 E4.16178
G1 X130.162 Y144.926 E4.21078
G1 X130.06 Y144.722 E4.21836
G1 X129.708 Y143.886 E4.24851
G1 X129.626 Y143.641 E4.25709
G1 X129.172 Y141.869 E4.31788
G1 X129.12 Y141.53 E4.32928
G1 X129.021 Y139.702 E4.39012
G1 X129.026 Y139.437 E4.39892
G1 X129.118 Y138.497 E4.43031
G1 X129.167 Y138.226 E4.43946
G1 X129.669 Y136.3 E4.50561
G1 X129.778 Y135.997 E4.51631
G1 X130.367 Y134.744 E4.56232
G1 X130.51 Y134.495 E4.57186
G1 X131.444 Y133.14 E4.62655
G1 X131.645 Y132.898 E4.63701
G1 X132.825 Y131.713 E4.69258
G0 F2625 X133.179 Y132.066
G1 F900 X133.306 Y131.955 E4.69818
G1 X133.967 Y131.45 E4.72583
G1 X134.088 Y131.368 E4.73069
G1 X135.265 Y130.669 E4.77618
G1 X135.45 Y130.579 E4.78301
G1 X137.005 Y129.975 E4.83845
G1 X137.222 Y129.912 E4.84596
G1 X138.841 Y129.601 E4.90075
G1 X139.046 Y129.579 E4.9076
G1 X140.418 Y129.545 E4.95321
G1 X140.586 Y129.553 E4.9588
G1 X141.747 Y129.681 E4.99761
G1 X141.943 Y129.718 E5.00424
G1 X143.642 Y130.187 E5.06281
G1 X143.873 Y130.276 E5.07104
G1 X145.582 Y131.14 E5.13468
G1 X145.756 Y131.247 E5.14147
G1 X146.619 Y131.878 E5.17699
G1 X146.756 Y131.994 E5.18296
G1 X147.906 Y133.12 E5.23645
G1 X148.058 Y133.3 E5.24428
G1 X149.131 Y134.845 E5.30679
G1 X149.227 Y135.009 E5.3131
G1 X149.626 Y135.825 E5.34329
G1 X149.682 Y135.959 E5.34811
G1 X150.101 Y137.15 E5.39007
G1 X150.144 Y137.303 E5.39535
G1 X150.376 Y138.385 E5.43213
G1 X150.4 Y138.547 E5.43757
G1 X150.502 Y139.817 E5.47991
G1 X150.504 Y139.982 E5.48539
G1 X150.441 Y141.191 E5.52562
G1 X150.423 Y141.35 E5.53094
G1 X150.217 Y142.479 E5.56908
G1 X150.179 Y142.63 E5.57426
G1 X149.832 Y143.733 E5.61268
G1 X149.771 Y143.89 E5.61828
G1 X149.215 Y145.073 E5.66172
G1 X149.117 Y145.244 E5.66827
G1 X148.202 Y146.588 E5.7223
G1 X148.102 Y146.717 E5.72772
G1 X147.563 Y147.322 E5.75465
G1 X147.45 Y147.434 E5.75994
G1 X146.295 Y148.437 E5.81077
G1 X146.122 Y148.562 E5.81787
G1 X144.728 Y149.406 E5.87202
G1 X144.532 Y149.503 E5.87929
G1 X143.013 Y150.09 E5.93341
G1 X142.8 Y150.151 E5.94077
G1 X141.218 Y150.458 E5.99432
G1 X141.034 Y150.48 E6.00048
G1 X139.9 Y150.529 E6.0382
G1 X139.734 Y150.525 E6.04372
G1 X138.418 Y150.407 E6.08763
G1 X138.22 Y150.373 E6.0943
G1 X136.616 Y149.962 E6.14933
G1 X136.417 Y149.893 E6.15633
G1 X135.046 Y149.282 E6.20621
G1 X134.878 Y149.191 E6.21256
G1 X133.798 Y148.495 E6.25526
G1 X133.666 Y148.397 E6.26072
G1 X132.78 Y147.645 E6.29934
G1 X132.637 Y147.503 E6.30604
G1 X131.465 Y146.127 E6.3661
G1 X131.338 Y145.947 E6.37342
G1 X130.594 Y144.674 E6.42242
G1 X130.521 Y144.528 E6.42785
G1 X130.169 Y143.692 E6.45799
G1 X130.11 Y143.517 E6.46413
G1 X129.656 Y141.745 E6.52492
G1 X129.619 Y141.503 E6.53305
G1 X129.52 Y139.675 E6.59389
G1 X129.524 Y139.485 E6.60021
G1 X129.616 Y138.545 E6.63159
G1 X129.65 Y138.352 E6.63811
G1 X130.152 Y136.426 E6.70425
G1 X130.231 Y136.209 E6.71192
G1 X130.82 Y134.956 E6.75793
G1 X130.922 Y134.779 E6.76472
G1 X131.856 Y133.424 E6.81941
G1 X131.999 Y133.251 E6.82687
G1 X133.179 Y132.066 E6.88245
G0 F2625 X133.534 Y132.419
G1 F900 X133.61 Y132.352 E6.88581
G1 X134.271 Y131.847 E6.91346
G1 X134.343 Y131.798 E6.91635
G1 X135.52 Y131.099 E6.96184
G1 X135.631 Y131.045 E6.96595
G1 X137.186 Y130.441 E7.02138
G1 X137.317 Y130.403 E7.02592
G1 X138.936 Y130.092 E7.0807
G1 X139.058 Y130.079 E7.08478
G1 X140.43 Y130.045 E7.13039
G1 X140.531 Y130.05 E7.13375
G1 X141.692 Y130.178 E7.17256
G1 X141.81 Y130.2 E7.17655
G1 X143.509 Y130.669 E7.23513
G1 X143.647 Y130.723 E7.24005
G1 X145.356 Y131.587 E7.30369
G1 X145.461 Y131.651 E7.30778
G1 X146.324 Y132.282 E7.3433
G1 X146.406 Y132.351 E7.34686
G1 X147.556 Y133.477 E7.40035
G1 X147.647 Y133.585 E7.40504
G1 X148.72 Y135.13 E7.46755
G1 X148.778 Y135.229 E7.47137
G1 X149.177 Y136.045 E7.50155
G1 X149.21 Y136.125 E7.50443
G1 X149.629 Y137.316 E7.54639
G1 X149.655 Y137.408 E7.54956
G1 X149.887 Y138.49 E7.58634
G1 X149.902 Y138.587 E7.5896
G1 X150.004 Y139.857 E7.63194
G1 X150.005 Y139.956 E7.63523
G1 X149.942 Y141.165 E7.67546
G1 X149.931 Y141.261 E7.67867
G1 X149.725 Y142.39 E7.71681
G1 X149.702 Y142.48 E7.7199
G1 X149.355 Y143.583 E7.75832
G1 X149.319 Y143.677 E7.76167
G1 X148.763 Y144.86 E7.80511
G1 X148.704 Y144.963 E7.80905
G1 X147.789 Y146.307 E7.86309
G1 X147.729 Y146.384 E7.86633
G1 X147.19 Y146.989 E7.89326
G1 X147.122 Y147.056 E7.89643
G1 X145.967 Y148.059 E7.94726
G1 X145.863 Y148.135 E7.95154
G1 X144.469 Y148.979 E8.0057
G1 X144.351 Y149.037 E8.01007
G1 X142.832 Y149.624 E8.06419
G1 X142.705 Y149.66 E8.06857
G1 X141.123 Y149.967 E8.12213
G1 X141.012 Y149.98 E8.12584
G1 X139.878 Y150.029 E8.16356
G1 X139.779 Y150.027 E8.16685
G1 X138.463 Y149.909 E8.21076
G1 X138.344 Y149.889 E8.21477
G1 X136.74 Y149.478 E8.2698
G1 X136.621 Y149.436 E8.27399
G1 X135.25 Y148.825 E8.32387
G1 X135.149 Y148.77 E8.32769
G1 X134.069 Y148.074 E8.37039
G1 X133.99 Y148.016 E8.37365
G1 X133.104 Y147.264 E8.41227
G1 X133.018 Y147.178 E8.41631
G1 X131.846 Y145.802 E8.47637
G1 X131.769 Y145.694 E8.48078
G1 X131.025 Y144.421 E8.52978
G1 X130.982 Y144.334 E8.53301
G1 X130.63 Y143.498 E8.56315
G1 X130.594 Y143.393 E8.56684
G1 X130.14 Y141.621 E8.62763
G1 X130.118 Y141.476 E8.6325
G1 X130.019 Y139.648 E8.69334
G1 X130.022 Y139.534 E8.69713
G1 X130.114 Y138.594 E8.72852
G1 X130.134 Y138.478 E8.73243
G1 X130.636 Y136.552 E8.79857
G1 X130.683 Y136.422 E8.80317
G1 X131.272 Y135.169 E8.84918
G1 X131.333 Y135.062 E8.85327
G1 X132.267 Y133.707 E8.90796
G1 X132.354 Y133.604 E8.91244
G1 X133.534 Y132.419 E8.96801
G0 F2625 X133.888 Y132.772
G1 F900 X133.913 Y132.749 E8.96914
G1 X134.574 Y132.244 E8.99679
G1 X134.598 Y132.228 E8.99775
G1 X135.775 Y131.529 E9.04324
G1 X135.812 Y131.511 E9.0446
G1 X137.367 Y130.907 E9.10004
G1 X137.411 Y130.894 E9.10157
G1 X139.03 Y130.583 E9.15635
G1 X139.071 Y130.579 E9.15772
G1 X140.443 Y130.545 E9.20333
G1 X140.476 Y130.547 E9.20443
G1 X141.637 Y130.675 E9.24324
G1 X141.677 Y130.682 E9.24459
G1 X143.376 Y131.151 E9.30317
G1 X143.422 Y131.169 E9.30481
G1 X145.131 Y132.033 E9.36845
G1 X145.166 Y132.054 E9.3698
G1 X146.029 Y132.685 E9.40533
G1 X146.056 Y132.708 E9.40651
G1 X147.206 Y133.834 E9.46
G1 X147.236 Y133.87 E9.46155
G1 X148.309 Y135.415 E9.52406
G1 X148.329 Y135.448 E9.52535
G1 X148.728 Y136.264 E9.55553
G1 X148.739 Y136.291 E9.5565
G1 X149.158 Y137.482 E9.59846
G1 X149.166 Y137.513 E9.59952
G1 X149.398 Y138.595 E9.6363
G1 X149.403 Y138.627 E9.63737
G1 X149.505 Y139.897 E9.67971
G1 X149.506 Y139.93 E9.68081
G1 X149.443 Y141.139 E9.72104
G1 X149.439 Y141.171 E9.72211
G1 X149.233 Y142.3 E9.76025
G1 X149.225 Y142.33 E9.76128
G1 X148.878 Y143.433 E9.79971
G1 X148.866 Y143.464 E9.80082
G1 X148.31 Y144.647 E9.84425
G1 X148.291 Y144.682 E9.84558
G1 X147.376 Y146.026 E9.89961
G1 X147.356 Y146.051 E9.90067
G1 X146.817 Y146.656 E9.9276
G1 X146.794 Y146.679 E9.92868
G1 X145.639 Y147.682 E9.97952
G1 X145.604 Y147.707 E9.98095
G1 X144.21 Y148.551 E10.0351
G1 X144.171 Y148.57 E10.03654
G1 X142.652 Y149.157 E10.09066
G1 X142.61 Y149.169 E10.09211
G1 X141.028 Y149.476 E10.14567
G1 X140.991 Y149.481 E10.14691
G1 X139.857 Y149.53 E10.18463
G1 X139.824 Y149.529 E10.18572
G1 X138.508 Y149.411 E10.22963
G1 X138.468 Y149.404 E10.23098
G1 X136.864 Y148.993 E10.28601
G1 X136.824 Y148.979 E10.28742
G1 X135.453 Y148.368 E10.3373
G1 X135.42 Y148.35 E10.33855
G1 X134.34 Y147.654 E10.38124
G1 X134.313 Y147.635 E10.38234
G1 X133.427 Y146.883 E10.42096
G1 X133.399 Y146.854 E10.4223
G1 X132.227 Y145.478 E10.48237
G1 X132.201 Y145.442 E10.48384
G1 X131.457 Y144.169 E10.53284
G1 X131.443 Y144.14 E10.53391
G1 X131.091 Y143.304 E10.56406
G1 X131.079 Y143.269 E10.56529
G1 X130.625 Y141.497 E10.62607
G1 X130.617 Y141.449 E10.62769
G1 X130.518 Y139.621 E10.68853
G1 X130.519 Y139.583 E10.68979
G1 X130.611 Y138.643 E10.72118
G1 X130.618 Y138.604 E10.7225
G1 X131.12 Y136.678 E10.78864
G1 X131.136 Y136.635 E10.79016
G1 X131.725 Y135.382 E10.83617
G1 X131.745 Y135.346 E10.83754
G1 X132.679 Y133.991 E10.89223
G1 X132.708 Y133.957 E10.89372
G1 X133.888 Y132.772 E10.94929
G0 F2625 X134.865 Y132.651
;TYPE:WALL-OUTER
G1 F900 X135.294 Y132.366 E10.96641
G1 X136.01 Y131.97 E10.9936
G1 X136.752 Y131.643 E11.02055
G1 X137.522 Y131.382 E11.04756
G1 X138.307 Y131.194 E11.07439
G1 X139.096 Y131.078 E11.10089
G1 X139.916 Y131.033 E11.12818
G1 X140.437 Y131.045 E11.1455
G1 X140.724 Y131.061 E11.15505
G1 X141.295 Y131.127 E11.17416
G1 X141.563 Y131.168 E11.18316
G1 X142.041 Y131.267 E11.19939
G1 X142.311 Y131.334 E11.20863
G1 X142.816 Y131.482 E11.22612
G1 X143.218 Y131.625 E11.2403
G1 X143.583 Y131.773 E11.25339
G1 X143.812 Y131.879 E11.26177
G1 X144.309 Y132.126 E11.28022
G1 X144.878 Y132.463 E11.30219
G1 X145.42 Y132.843 E11.32419
G1 X145.718 Y133.076 E11.33676
G1 X146.254 Y133.553 E11.36061
G1 X146.84 Y134.174 E11.38898
G1 X147.134 Y134.539 E11.40456
G1 X147.406 Y134.907 E11.41976
G1 X147.743 Y135.431 E11.44047
G1 X147.883 Y135.675 E11.44982
G1 X148.13 Y136.155 E11.46776
G1 X148.272 Y136.469 E11.47921
G1 X148.468 Y136.961 E11.49681
G1 X148.68 Y137.629 E11.5201
G1 X148.809 Y138.155 E11.5381
G1 X148.906 Y138.681 E11.55587
G1 X148.966 Y139.19 E11.5729
G1 X149.006 Y139.918 E11.59713
G1 X148.998 Y140.453 E11.61491
G1 X148.945 Y141.091 E11.63619
G1 X148.835 Y141.781 E11.65941
G1 X148.746 Y142.19 E11.67332
