;Generated by Cura LulzBot Edition GCodeWriter Version: 3.2.27
;FLAVOR:Marlin
;TIME:566
;Filament used: 0.206295m
;Layer height: 0.25
;Generated with Cura_SteamEngine 3.2.27
M82 ;absolute extrusion mode
;This G-Code has been generated specifically for the LulzBot TAZ 6 with standard extruder
M75 ; start GLCD timer
G26 ; clear potential 'probe fail' condition
G21 ; set units to Millimetres
M107 ; disable fans
M420 S0 ; disable previous leveling matrix
G90 ; absolute positioning
M82 ; set extruder to absolute mode
G92 E0 ; set extruder position to 0
M140 S85 ; start bed heating up
M109 R170 ; soften filament before homing Z
G28 ; Home all axis
G1 E-30 F100 ; retract filament
M109 R170 ; wait for extruder to reach wiping temp
G1 X-15 Y100 F3000 ; move above wiper pad
G1 Z1 ; push nozzle into wiper
G1 X-17 Y95 F1000 ; slow wipe
G1 X-17 Y90 F1000 ; slow wipe
G1 X-17 Y85 F1000 ; slow wipe
G1 X-15 Y90 F1000 ; slow wipe
G1 X-17 Y80 F1000 ; slow wipe
G1 X-15 Y95 F1000 ; slow wipe
G1 X-17 Y75 F2000 ; fast wipe
G1 X-15 Y65 F2000 ; fast wipe
G1 X-17 Y70 F2000 ; fast wipe
G1 X-15 Y60 F2000 ; fast wipe
G1 X-17 Y55 F2000 ; fast wipe
G1 X-15 Y50 F2000 ; fast wipe
G1 X-17 Y40 F2000 ; fast wipe
G1 X-15 Y45 F2000 ; fast wipe
G1 X-17 Y35 F2000 ; fast wipe
G1 X-15 Y40 F2000 ; fast wipe
G1 X-17 Y70 F2000 ; fast wipe
G1 X-15 Y30 Z2 F2000 ; fast wipe
G1 X-17 Y35 F2000 ; fast wipe
G1 X-15 Y25 F2000 ; fast wipe
G1 X-17 Y30 F2000 ; fast wipe
G1 X-15 Y25 Z1.5 F1000 ; slow wipe
G1 X-17 Y23 F1000 ; slow wipe
G1 Z10 ; raise extruder
M109 R170 ; wait for extruder to reach probe temp
G1 X-9 Y-9 ; move above first probe point
M204 S100 ; set probing acceleration
G29 ; start auto-leveling sequence
M420 S1 ; activate bed level matrix
M425 Z			     ; use measured Z backlash for compensation
M425 Z F0		     ; turn off measured Z backlash compensation. (if activated in the quality settings, this command will automatically be ignored)
M204 S500 ; restore standard acceleration
G1 X0 Y0 Z15 F5000 ; move up off last probe point
G4 S1 ; pause
M400 ; wait for moves to finish
M117 Heating... ; progress indicator message on LCD
M109 R235 ; wait for extruder to reach printing temp
M190 S85 ; wait for bed to reach printing temp
G1 Z2 E0 F75 ; prime tiny bit of filament into the nozzle
M117 TAZ 6 Printing... ; progress indicator message on LCD

M221 S100
;LAYER_COUNT:20
;LAYER:0
M107
G0 F2625 X132.038 Y131.707 Z0.424
;TYPE:SKIRT
G1 F900 X132.281 Y131.486 E0.01037
G1 X133.574 Y130.47 E0.06228
G1 X133.843 Y130.288 E0.07254
G1 X134.687 Y129.803 E0.10327
G1 X134.903 Y129.694 E0.11091
G1 X135.873 Y129.268 E0.14435
G1 X136.116 Y129.177 E0.15255
G1 X137.101 Y128.874 E0.18508
G1 X137.341 Y128.815 E0.19288
G1 X138.335 Y128.625 E0.22483
G1 X138.576 Y128.592 E0.23251
G1 X139.578 Y128.511 E0.26425
G1 X139.827 Y128.505 E0.27211
G1 X140.881 Y128.537 E0.3054
G1 X141.207 Y128.571 E0.31575
G1 X142.708 Y128.838 E0.36388
G1 X143.004 Y128.912 E0.37351
G1 X144.161 Y129.285 E0.41189
G1 X144.522 Y129.437 E0.42426
G1 X146.148 Y130.296 E0.48231
G1 X146.435 Y130.476 E0.49301
G1 X147.206 Y131.046 E0.52328
G1 X147.409 Y131.216 E0.53164
G1 X148.333 Y132.085 E0.57168
G1 X148.595 Y132.378 E0.58409
G1 X149.73 Y133.899 E0.64401
G1 X149.951 Y134.261 E0.6574
G1 X150.099 Y134.658 E0.67077
G1 X150.171 Y135.076 E0.68416
G1 X150.163 Y135.5 E0.69755
G1 X150.111 Y135.786 E0.70673
G1 X150.104 Y135.814 E0.70764
G1 X150.133 Y135.832 E0.70872
G1 X150.473 Y136.085 E0.7221
G1 X150.759 Y136.397 E0.73546
G1 X150.982 Y136.758 E0.74886
G1 X151.134 Y137.154 E0.76225
G1 X151.188 Y137.402 E0.77026
G1 X151.451 Y139.055 E0.8231
G1 X151.477 Y139.491 E0.83689
G1 X151.41 Y141.321 E0.8947
G1 X151.349 Y141.769 E0.90898
G1 X150.899 Y143.624 E0.96924
G1 X150.77 Y144.004 E0.98191
G1 X150.182 Y145.334 E1.02782
G1 X149.982 Y145.694 E1.04082
G1 X148.948 Y147.207 E1.09868
G1 X148.655 Y147.553 E1.11299
G1 X147.268 Y148.896 E1.17394
G1 X146.947 Y149.155 E1.18696
G1 X145.743 Y149.954 E1.23258
G1 X145.456 Y150.115 E1.24297
G1 X144.356 Y150.632 E1.28134
G1 X144.123 Y150.726 E1.28927
G1 X143.264 Y151.018 E1.31792
G1 X142.986 Y151.093 E1.32701
G1 X141.487 Y151.396 E1.37529
G1 X141.182 Y151.437 E1.385
G1 X140.257 Y151.495 E1.41426
G1 X139.987 Y151.495 E1.42279
G1 X138.711 Y151.422 E1.46314
G1 X138.439 Y151.39 E1.47178
G1 X137.444 Y151.21 E1.50371
G1 X137.191 Y151.149 E1.51192
G1 X136.168 Y150.838 E1.54568
G1 X135.846 Y150.712 E1.55659
G1 X134.203 Y149.921 E1.61416
G1 X133.917 Y149.757 E1.62457
G1 X133.148 Y149.236 E1.6539
G1 X132.878 Y149.021 E1.66479
G1 X131.541 Y147.778 E1.72243
G1 X131.248 Y147.446 E1.7364
G1 X130.171 Y145.953 E1.79452
G1 X129.946 Y145.563 E1.80874
G1 X129.192 Y143.894 E1.86656
G1 X129.049 Y143.472 E1.88062
G1 X128.639 Y141.69 E1.93835
G1 X128.585 Y141.299 E1.95081
G1 X128.508 Y139.772 E1.99908
G1 X128.526 Y139.354 E2.01229
G1 X128.774 Y137.543 E2.07
G1 X128.867 Y137.14 E2.08306
G1 X129.355 Y135.668 E2.13201
G1 X129.517 Y135.296 E2.14482
G1 X130.392 Y133.697 E2.20237
G1 X130.575 Y133.415 E2.21298
G1 X131.135 Y132.679 E2.24218
G1 X131.293 Y132.493 E2.24988
G1 X132.038 Y131.707 E2.28407
G0 F2625 X132.401 Y132.051
G1 F900 X132.59 Y131.879 E2.29214
G1 X133.883 Y130.863 E2.34406
G1 X134.092 Y130.722 E2.35202
G1 X134.936 Y130.237 E2.38275
G1 X135.104 Y130.152 E2.38869
G1 X136.074 Y129.726 E2.42214
G1 X136.263 Y129.655 E2.42851
G1 X137.248 Y129.352 E2.46105
G1 X137.434 Y129.306 E2.46709
G1 X138.428 Y129.116 E2.49904
G1 X138.616 Y129.091 E2.50503
G1 X139.618 Y129.01 E2.53677
G1 X139.812 Y129.005 E2.54289
G1 X140.866 Y129.037 E2.57619
G1 X141.119 Y129.063 E2.58421
G1 X142.62 Y129.33 E2.63235
G1 X142.851 Y129.387 E2.63986
G1 X144.008 Y129.76 E2.67824
G1 X144.288 Y129.879 E2.68784
G1 X145.914 Y130.738 E2.7459
G1 X146.137 Y130.878 E2.75421
G1 X146.908 Y131.448 E2.78448
G1 X147.067 Y131.58 E2.791
G1 X147.991 Y132.449 E2.83105
G1 X148.195 Y132.677 E2.84071
G1 X149.33 Y134.198 E2.90062
G1 X149.52 Y134.52 E2.91243
G1 X149.637 Y134.875 E2.92423
G1 X149.677 Y135.246 E2.93601
G1 X149.626 Y135.666 E2.94936
G1 X149.575 Y135.872 E2.95606
G1 X149.507 Y136.058 E2.96232
G1 X149.691 Y136.149 E2.9688
G1 X149.874 Y136.26 E2.97555
G1 X150.171 Y136.486 E2.98734
G1 X150.413 Y136.771 E2.99914
G1 X150.589 Y137.101 E3.01095
G1 X150.694 Y137.481 E3.02339
G1 X150.957 Y139.134 E3.07624
G1 X150.978 Y139.473 E3.08696
G1 X150.911 Y141.303 E3.14477
G1 X150.863 Y141.652 E3.15589
G1 X150.413 Y143.507 E3.21615
G1 X150.313 Y143.802 E3.22599
G1 X149.725 Y145.132 E3.2719
G1 X149.569 Y145.411 E3.28199
G1 X148.535 Y146.924 E3.33984
G1 X148.307 Y147.194 E3.351
G1 X146.92 Y148.537 E3.41195
G1 X146.671 Y148.738 E3.42205
G1 X145.467 Y149.537 E3.46767
G1 X145.243 Y149.663 E3.47579
G1 X144.143 Y150.18 E3.51416
G1 X143.962 Y150.253 E3.52032
G1 X143.103 Y150.545 E3.54896
G1 X142.887 Y150.603 E3.55602
G1 X141.388 Y150.906 E3.60431
G1 X141.151 Y150.938 E3.61186
G1 X140.226 Y150.996 E3.64112
G1 X140.016 Y150.996 E3.64775
G1 X138.74 Y150.923 E3.68809
G1 X138.528 Y150.898 E3.69483
G1 X137.533 Y150.718 E3.72676
G1 X137.336 Y150.67 E3.73316
G1 X136.313 Y150.359 E3.76691
G1 X136.063 Y150.262 E3.77538
G1 X134.42 Y149.471 E3.83295
G1 X134.197 Y149.343 E3.84107
G1 X133.428 Y148.822 E3.87039
G1 X133.218 Y148.655 E3.87886
G1 X131.881 Y147.412 E3.93649
G1 X131.654 Y147.154 E3.94734
G1 X130.577 Y145.661 E4.00546
G1 X130.401 Y145.357 E4.01655
G1 X129.647 Y143.688 E4.07437
G1 X129.537 Y143.36 E4.08529
G1 X129.127 Y141.578 E4.14302
G1 X129.084 Y141.274 E4.15271
G1 X129.007 Y139.747 E4.20098
G1 X129.021 Y139.422 E4.21125
G1 X129.269 Y137.611 E4.26896
G1 X129.342 Y137.297 E4.27914
G1 X129.83 Y135.825 E4.3281
G1 X129.956 Y135.536 E4.33805
G1 X130.831 Y133.937 E4.39559
G1 X130.973 Y133.717 E4.40386
G1 X131.533 Y132.981 E4.43306
G1 X131.656 Y132.837 E4.43904
G1 X132.401 Y132.051 E4.47323
G0 F2625 X132.764 Y132.395
G1 F900 X132.899 Y132.272 E4.47899
G1 X134.192 Y131.256 E4.53091
G1 X134.341 Y131.155 E4.53659
G1 X135.185 Y130.67 E4.56732
G1 X135.305 Y130.61 E4.57156
G1 X136.275 Y130.184 E4.605
G1 X136.41 Y130.133 E4.60956
G1 X137.395 Y129.83 E4.64209
G1 X137.528 Y129.797 E4.64642
G1 X138.522 Y129.607 E4.67837
G1 X138.656 Y129.589 E4.68264
G1 X139.658 Y129.508 E4.71437
G1 X139.797 Y129.505 E4.71876
G1 X140.851 Y129.537 E4.75205
G1 X141.032 Y129.555 E4.7578
G1 X142.533 Y129.822 E4.80593
G1 X142.698 Y129.863 E4.8113
G1 X143.855 Y130.236 E4.84967
G1 X144.055 Y130.321 E4.85653
G1 X145.681 Y131.18 E4.91459
G1 X145.84 Y131.28 E4.92052
G1 X146.611 Y131.85 E4.95079
G1 X146.724 Y131.944 E4.95543
G1 X147.648 Y132.813 E4.99548
G1 X147.794 Y132.976 E5.00238
G1 X148.929 Y134.497 E5.0623
G1 X149.084 Y134.772 E5.07227
G1 X149.166 Y135.077 E5.08224
G1 X149.14 Y135.545 E5.09703
G1 X149.089 Y135.751 E5.10373
G1 X148.975 Y136.046 E5.11372
G1 X148.791 Y136.302 E5.12367
G1 X148.654 Y136.411 E5.1292
G1 X148.771 Y136.395 E5.13293
G1 X149.084 Y136.432 E5.14288
G1 X149.431 Y136.576 E5.15474
G1 X149.614 Y136.687 E5.16149
G1 X149.861 Y136.884 E5.17147
G1 X150.051 Y137.136 E5.18143
G1 X150.2 Y137.56 E5.19562
G1 X150.463 Y139.213 E5.24846
G1 X150.478 Y139.455 E5.25612
G1 X150.411 Y141.285 E5.31393
G1 X150.377 Y141.534 E5.32186
G1 X149.927 Y143.389 E5.38213
G1 X149.855 Y143.599 E5.38913
G1 X149.267 Y144.929 E5.43504
G1 X149.156 Y145.129 E5.44227
G1 X148.122 Y146.642 E5.50012
G1 X147.96 Y146.835 E5.50808
G1 X146.573 Y148.178 E5.56903
G1 X146.394 Y148.322 E5.57628
G1 X145.19 Y149.121 E5.6219
G1 X145.031 Y149.21 E5.62765
G1 X143.931 Y149.727 E5.66602
G1 X143.801 Y149.779 E5.67044
G1 X142.942 Y150.071 E5.69909
G1 X142.788 Y150.113 E5.70413
G1 X141.289 Y150.416 E5.75241
G1 X141.119 Y150.439 E5.75782
G1 X140.194 Y150.497 E5.78708
G1 X140.045 Y150.497 E5.79179
G1 X138.769 Y150.424 E5.83214
G1 X138.617 Y150.406 E5.83697
G1 X137.622 Y150.226 E5.86889
G1 X137.481 Y150.192 E5.87347
G1 X136.458 Y149.881 E5.90723
G1 X136.28 Y149.811 E5.91326
G1 X134.637 Y149.02 E5.97083
G1 X134.478 Y148.929 E5.97662
G1 X133.709 Y148.408 E6.00594
G1 X133.559 Y148.288 E6.01201
G1 X132.222 Y147.045 E6.06964
G1 X132.059 Y146.861 E6.0774
G1 X130.982 Y145.368 E6.13552
G1 X130.857 Y145.152 E6.1434
G1 X130.103 Y143.483 E6.20121
G1 X130.024 Y143.248 E6.20904
G1 X129.614 Y141.466 E6.26677
G1 X129.584 Y141.249 E6.27369
G1 X129.507 Y139.722 E6.32196
G1 X129.517 Y139.489 E6.32932
G1 X129.765 Y137.678 E6.38703
G1 X129.817 Y137.455 E6.39425
G1 X130.305 Y135.983 E6.44321
G1 X130.394 Y135.776 E6.45033
G1 X131.269 Y134.177 E6.50787
G1 X131.371 Y134.02 E6.51378
G1 X131.931 Y133.284 E6.54298
G1 X132.019 Y133.181 E6.54726
G1 X132.764 Y132.395 E6.58145
G0 F2625 X133.127 Y132.739
G1 F900 X133.208 Y132.665 E6.58491
G1 X134.501 Y131.649 E6.63682
G1 X134.59 Y131.589 E6.64021
G1 X135.434 Y131.104 E6.67095
G1 X135.506 Y131.067 E6.6735
G1 X136.476 Y130.641 E6.70695
G1 X136.557 Y130.611 E6.70967
G1 X137.542 Y130.308 E6.74221
G1 X137.622 Y130.288 E6.74481
G1 X138.616 Y130.098 E6.77676
G1 X138.697 Y130.087 E6.77934
G1 X139.699 Y130.006 E6.81108
G1 X139.782 Y130.004 E6.8137
G1 X140.836 Y130.036 E6.84699
G1 X140.944 Y130.048 E6.85042
G1 X142.445 Y130.315 E6.89855
G1 X142.544 Y130.339 E6.90177
G1 X143.701 Y130.712 E6.94015
G1 X143.821 Y130.763 E6.94426
G1 X145.447 Y131.622 E7.00232
G1 X145.543 Y131.682 E7.00589
G1 X146.314 Y132.252 E7.03616
G1 X146.382 Y132.309 E7.03896
G1 X147.306 Y133.178 E7.07901
G1 X147.393 Y133.275 E7.08312
G1 X148.528 Y134.796 E7.14304
G1 X148.64 Y135.013 E7.15075
G1 X148.677 Y135.255 E7.15848
G1 X148.655 Y135.425 E7.16389
G1 X148.604 Y135.631 E7.17059
G1 X148.508 Y135.856 E7.17831
G1 X148.251 Y136.1 E7.1895
G1 X147.252 Y136.677 E7.22592
G1 X147.43 Y137.049 E7.23894
G1 X147.465 Y137.137 E7.24193
G1 X147.491 Y137.216 E7.24455
G1 X148.588 Y136.921 E7.28042
G1 X148.831 Y136.897 E7.28813
G1 X149.172 Y137.004 E7.29941
G1 X149.355 Y137.115 E7.30617
G1 X149.54 Y137.274 E7.31387
G1 X149.665 Y137.484 E7.32158
G1 X149.707 Y137.638 E7.32662
G1 X149.97 Y139.291 E7.37947
G1 X149.978 Y139.436 E7.38405
G1 X149.911 Y141.266 E7.44186
G1 X149.891 Y141.416 E7.44664
G1 X149.441 Y143.271 E7.5069
G1 X149.398 Y143.397 E7.5111
G1 X148.81 Y144.727 E7.55701
G1 X148.743 Y144.847 E7.56135
G1 X147.709 Y146.36 E7.61921
G1 X147.612 Y146.476 E7.62398
G1 X146.225 Y147.819 E7.68493
G1 X146.118 Y147.905 E7.68927
G1 X144.914 Y148.704 E7.73489
G1 X144.818 Y148.758 E7.73836
G1 X143.718 Y149.275 E7.77674
G1 X143.64 Y149.306 E7.77939
G1 X142.781 Y149.598 E7.80803
G1 X142.689 Y149.623 E7.81104
G1 X141.19 Y149.926 E7.85932
G1 X141.088 Y149.94 E7.86257
G1 X140.163 Y149.998 E7.89183
G1 X140.073 Y149.998 E7.89467
G1 X138.797 Y149.925 E7.93502
G1 X138.706 Y149.914 E7.93791
G1 X137.711 Y149.734 E7.96984
G1 X137.627 Y149.714 E7.97256
G1 X136.604 Y149.403 E8.00632
G1 X136.497 Y149.361 E8.00995
G1 X134.854 Y148.57 E8.06752
G1 X134.758 Y148.515 E8.07101
G1 X133.989 Y147.994 E8.10033
G1 X133.899 Y147.922 E8.10397
G1 X132.562 Y146.679 E8.16161
G1 X132.465 Y146.569 E8.16624
G1 X131.388 Y145.076 E8.22435
G1 X131.313 Y144.946 E8.22909
G1 X130.559 Y143.277 E8.28691
G1 X130.511 Y143.136 E8.29161
G1 X130.101 Y141.354 E8.34934
G1 X130.083 Y141.224 E8.35348
G1 X130.006 Y139.697 E8.40175
G1 X130.012 Y139.557 E8.40618
G1 X130.26 Y137.746 E8.46389
G1 X130.291 Y137.612 E8.46823
G1 X130.779 Y136.14 E8.51719
G1 X130.833 Y136.016 E8.52146
G1 X131.708 Y134.417 E8.579
G1 X131.769 Y134.323 E8.58254
G1 X132.329 Y133.587 E8.61174
G1 X132.382 Y133.525 E8.61431
G1 X133.127 Y132.739 E8.6485
G0 F2625 X133.49 Y133.083
G1 F900 X133.517 Y133.058 E8.64966
G1 X134.81 Y132.042 E8.70158
G1 X134.839 Y132.022 E8.70269
G1 X135.683 Y131.537 E8.73342
G1 X135.707 Y131.525 E8.73427
G1 X136.677 Y131.099 E8.76771
G1 X136.704 Y131.089 E8.76862
G1 X137.689 Y130.786 E8.80116
G1 X137.716 Y130.779 E8.80204
G1 X138.71 Y130.589 E8.83399
G1 X138.737 Y130.586 E8.83485
G1 X139.739 Y130.505 E8.86658
G1 X139.767 Y130.504 E8.86747
G1 X140.821 Y130.536 E8.90076
G1 X140.857 Y130.54 E8.9019
G1 X142.358 Y130.807 E8.95003
G1 X142.391 Y130.815 E8.9511
G1 X143.548 Y131.188 E8.98948
G1 X143.588 Y131.205 E8.99085
G1 X145.214 Y132.064 E9.04891
G1 X145.246 Y132.084 E9.0501
G1 X146.017 Y132.654 E9.08037
G1 X146.039 Y132.673 E9.08129
G1 X146.963 Y133.542 E9.12134
G1 X146.992 Y133.574 E9.1227
G1 X148.127 Y135.095 E9.18261
G1 X148.176 Y135.227 E9.18706
G1 X148.17 Y135.305 E9.18953
G1 X148.119 Y135.511 E9.19623
G1 X148.001 Y135.667 E9.2024
G1 X146.602 Y136.475 E9.25341
G1 X146.979 Y137.264 E9.28101
G1 X146.99 Y137.294 E9.28202
G1 X147.164 Y137.823 E9.2996
G1 X148.718 Y137.404 E9.35042
G1 X148.913 Y137.431 E9.35663
G1 X149.096 Y137.542 E9.36339
G1 X149.19 Y137.645 E9.36779
G1 X149.213 Y137.717 E9.37018
G1 X149.476 Y139.37 E9.42302
G1 X149.479 Y139.418 E9.42454
G1 X149.412 Y141.248 E9.48235
G1 X149.405 Y141.298 E9.48394
G1 X148.955 Y143.153 E9.54421
G1 X148.941 Y143.195 E9.5456
G1 X148.353 Y144.525 E9.59151
G1 X148.33 Y144.565 E9.59297
G1 X147.296 Y146.078 E9.65082
G1 X147.264 Y146.117 E9.65242
G1 X145.877 Y147.46 E9.71337
G1 X145.841 Y147.488 E9.71481
G1 X144.637 Y148.287 E9.76043
G1 X144.605 Y148.305 E9.76159
G1 X143.505 Y148.822 E9.79996
G1 X143.479 Y148.833 E9.80085
G1 X142.62 Y149.125 E9.82949
G1 X142.59 Y149.133 E9.83047
G1 X141.091 Y149.436 E9.87875
G1 X141.057 Y149.441 E9.87984
G1 X140.132 Y149.499 E9.9091
G1 X140.102 Y149.499 E9.91005
G1 X138.826 Y149.426 E9.95039
G1 X138.795 Y149.422 E9.95138
G1 X137.8 Y149.242 E9.9833
G1 X137.772 Y149.235 E9.98422
G1 X136.749 Y148.924 E10.01797
G1 X136.714 Y148.91 E10.01916
G1 X135.071 Y148.119 E10.07673
G1 X135.039 Y148.101 E10.07789
G1 X134.27 Y147.58 E10.10721
G1 X134.24 Y147.556 E10.10843
G1 X132.903 Y146.313 E10.16606
G1 X132.87 Y146.276 E10.16762
G1 X131.793 Y144.783 E10.22574
G1 X131.768 Y144.74 E10.22731
G1 X131.014 Y143.071 E10.28513
G1 X130.998 Y143.024 E10.2867
G1 X130.588 Y141.242 E10.34443
G1 X130.582 Y141.199 E10.3458
G1 X130.505 Y139.672 E10.39407
G1 X130.507 Y139.625 E10.39555
G1 X130.755 Y137.814 E10.45326
G1 X130.766 Y137.769 E10.45472
G1 X131.254 Y136.297 E10.50368
G1 X131.272 Y136.256 E10.5051
G1 X132.147 Y134.657 E10.56264
G1 X132.167 Y134.626 E10.5638
G1 X132.727 Y133.89 E10.593
