;Generated by Cura LulzBot Edition GCodeWriter Version: 3.2.27
;FLAVOR:Marlin
;TIME:2500
;Filament used: 1.01835m
;Layer height: 0.25
;Generated with Cura_SteamEngine 3.2.27
M82 ;absolute extrusion mode
;This G-Code has been generated specifically for the LulzBot TAZ 6 with standard extruder
M75 ; start GLCD timer
G26 ; clear potential 'probe fail' condition
G21 ; set units to Millimetres
M107 ; disable fans
M420 S0 ; disable previous leveling matrix
G90 ; absolute positioning
M82 ; set extruder to absolute mode
G92 E0 ; set extruder position to 0
M140 S60 ; start bed heating up
M109 R140 ; soften filament before homing Z
G28 ; Home all axis
G1 E-30 F100 ; retract filament
M109 R140 ; wait for extruder to reach wiping temp
G1 X-15 Y100 F3000 ; move above wiper pad
G1 Z1 ; push nozzle into wiper
G1 X-17 Y95 F1000 ; slow wipe
G1 X-17 Y90 F1000 ; slow wipe
G1 X-17 Y85 F1000 ; slow wipe
G1 X-15 Y90 F1000 ; slow wipe
G1 X-17 Y80 F1000 ; slow wipe
G1 X-15 Y95 F1000 ; slow wipe
G1 X-17 Y75 F2000 ; fast wipe
G1 X-15 Y65 F2000 ; fast wipe
G1 X-17 Y70 F2000 ; fast wipe
G1 X-15 Y60 F2000 ; fast wipe
G1 X-17 Y55 F2000 ; fast wipe
G1 X-15 Y50 F2000 ; fast wipe
G1 X-17 Y40 F2000 ; fast wipe
G1 X-15 Y45 F2000 ; fast wipe
G1 X-17 Y35 F2000 ; fast wipe
G1 X-15 Y40 F2000 ; fast wipe
G1 X-17 Y70 F2000 ; fast wipe
G1 X-15 Y30 Z2 F2000 ; fast wipe
G1 X-17 Y35 F2000 ; fast wipe
G1 X-15 Y25 F2000 ; fast wipe
G1 X-17 Y30 F2000 ; fast wipe
G1 X-15 Y25 Z1.5 F1000 ; slow wipe
G1 X-17 Y23 F1000 ; slow wipe
G1 Z10 ; raise extruder
M109 R140 ; wait for extruder to reach probe temp
G1 X-9 Y-9 ; move above first probe point
M204 S100 ; set probing acceleration
G29 ; start auto-leveling sequence
M420 S1 ; activate bed level matrix
M425 Z			     ; use measured Z backlash for compensation
M425 Z F0		     ; turn off measured Z backlash compensation. (if activated in the quality settings, this command will automatically be ignored)
M204 S500 ; restore standard acceleration
G1 X0 Y0 Z15 F5000 ; move up off last probe point
G4 S1 ; pause
M400 ; wait for moves to finish
M117 Heating... ; progress indicator message on LCD
M109 R223 ; wait for extruder to reach printing temp
M190 S60 ; wait for bed to reach printing temp
G1 Z2 E0 F75 ; prime tiny bit of filament into the nozzle
M117 TAZ 6 Printing... ; progress indicator message on LCD

M221 S100
;LAYER_COUNT:67
;LAYER:0
M107
G0 F2625 X83.027 Y108.618 Z0.424
;TYPE:SKIRT
G1 F900 X85.253 Y106.913 E0.09318
G1 X85.765 Y106.571 E0.11364
G1 X86.331 Y106.292 E0.13461
G1 X88.927 Y105.222 E0.22792
G1 X89.511 Y105.025 E0.24841
G1 X90.124 Y104.904 E0.26917
G1 X92.905 Y104.542 E0.36237
G1 X93.52 Y104.502 E0.38285
G1 X94.144 Y104.543 E0.40363
G1 X96.928 Y104.913 E0.49696
G1 X97.532 Y105.034 E0.51743
G1 X98.127 Y105.236 E0.53831
G1 X100.718 Y106.314 E0.63157
G1 X101.27 Y106.587 E0.65204
G1 X101.791 Y106.936 E0.67288
G1 X104.012 Y108.646 E0.76603
G1 X104.475 Y109.053 E0.78651
G1 X104.885 Y109.521 E0.80719
G1 X106.591 Y111.748 E0.90042
G1 X106.933 Y112.261 E0.92091
G1 X107.212 Y112.827 E0.94188
G1 X108.282 Y115.423 E1.03519
G1 X108.479 Y116.007 E1.05567
G1 X108.6 Y116.62 E1.07643
G1 X108.962 Y119.401 E1.16963
G1 X109.002 Y120.016 E1.19011
G1 X108.961 Y120.64 E1.21089
G1 X108.591 Y123.423 E1.30419
G1 X108.47 Y124.027 E1.32466
G1 X108.268 Y124.621 E1.34551
G1 X107.19 Y127.213 E1.4388
G1 X106.917 Y127.765 E1.45927
G1 X106.568 Y128.287 E1.48013
G1 X104.857 Y130.509 E1.57333
G1 X104.45 Y130.972 E1.59382
G1 X103.981 Y131.382 E1.61452
G1 X101.755 Y133.087 E1.7077
G1 X101.243 Y133.429 E1.72816
G1 X100.677 Y133.708 E1.74913
G1 X98.081 Y134.778 E1.84244
G1 X97.497 Y134.975 E1.86292
G1 X96.884 Y135.096 E1.88369
G1 X94.103 Y135.458 E1.97689
G1 X93.488 Y135.498 E1.99737
G1 X92.864 Y135.457 E2.01815
G1 X90.08 Y135.087 E2.11148
G1 X89.476 Y134.966 E2.13195
G1 X88.881 Y134.764 E2.15283
G1 X86.29 Y133.686 E2.24609
G1 X85.738 Y133.413 E2.26656
G1 X85.217 Y133.063 E2.28741
G1 X82.994 Y131.351 E2.38066
G1 X82.531 Y130.945 E2.40112
G1 X82.12 Y130.476 E2.42185
G1 X80.415 Y128.249 E2.51505
G1 X80.073 Y127.736 E2.53554
G1 X79.795 Y127.171 E2.55647
G1 X78.726 Y124.577 E2.6497
G1 X78.529 Y123.993 E2.67019
G1 X78.408 Y123.38 E2.69095
G1 X78.046 Y120.599 E2.78415
G1 X78.006 Y119.984 E2.80463
G1 X78.047 Y119.36 E2.82541
G1 X78.417 Y116.577 E2.91871
G1 X78.538 Y115.973 E2.93918
G1 X78.74 Y115.379 E2.96003
G1 X79.818 Y112.787 E3.05332
G1 X80.091 Y112.235 E3.07379
G1 X80.44 Y111.713 E3.09465
G1 X82.151 Y109.491 E3.18785
G1 X82.558 Y109.028 E3.20833
G1 X83.027 Y108.618 E3.22904
G0 F2625 X83.331 Y109.015
G1 F900 X85.557 Y107.31 E3.32222
G1 X86.043 Y106.988 E3.34159
G1 X86.521 Y106.755 E3.35926
G1 X89.117 Y105.685 E3.45257
G1 X89.67 Y105.5 E3.47195
G1 X90.188 Y105.4 E3.48948
G1 X92.969 Y105.038 E3.58268
G1 X93.551 Y105.002 E3.60206
G1 X94.078 Y105.039 E3.61962
G1 X96.862 Y105.409 E3.71295
G1 X97.433 Y105.525 E3.73231
G1 X97.935 Y105.698 E3.74996
G1 X100.526 Y106.776 E3.84322
G1 X101.047 Y107.036 E3.86257
G1 X101.486 Y107.332 E3.88016
G1 X103.707 Y109.042 E3.97331
G1 X104.143 Y109.429 E3.99268
G1 X104.488 Y109.825 E4.01014
G1 X106.194 Y112.052 E4.10337
G1 X106.516 Y112.538 E4.12274
G1 X106.749 Y113.017 E4.14044
G1 X107.819 Y115.613 E4.23375
G1 X108.004 Y116.166 E4.25313
G1 X108.104 Y116.684 E4.27066
G1 X108.466 Y119.465 E4.36386
G1 X108.502 Y120.047 E4.38324
G1 X108.465 Y120.574 E4.40079
G1 X108.095 Y123.357 E4.49409
G1 X107.979 Y123.928 E4.51346
G1 X107.806 Y124.429 E4.53107
G1 X106.728 Y127.021 E4.62436
G1 X106.468 Y127.542 E4.64371
G1 X106.171 Y127.982 E4.66135
G1 X104.46 Y130.204 E4.75455
G1 X104.074 Y130.64 E4.7739
G1 X103.677 Y130.985 E4.79138
G1 X101.451 Y132.69 E4.88456
G1 X100.965 Y133.012 E4.90393
G1 X100.487 Y133.245 E4.9216
G1 X97.891 Y134.315 E5.01491
G1 X97.338 Y134.5 E5.03429
G1 X96.82 Y134.6 E5.05183
G1 X94.039 Y134.962 E5.14502
G1 X93.457 Y134.998 E5.1644
G1 X92.93 Y134.961 E5.18196
G1 X90.146 Y134.591 E5.27529
G1 X89.575 Y134.475 E5.29465
G1 X89.073 Y134.302 E5.3123
G1 X86.482 Y133.224 E5.40556
G1 X85.961 Y132.964 E5.42491
G1 X85.522 Y132.667 E5.44252
G1 X83.299 Y130.955 E5.53576
G1 X82.863 Y130.569 E5.55511
G1 X82.517 Y130.172 E5.57262
G1 X80.812 Y127.945 E5.66582
G1 X80.491 Y127.459 E5.68518
G1 X80.258 Y126.98 E5.70288
G1 X79.189 Y124.386 E5.79612
G1 X79.004 Y123.834 E5.81546
G1 X78.904 Y123.316 E5.833
G1 X78.542 Y120.535 E5.92619
G1 X78.506 Y119.953 E5.94557
G1 X78.543 Y119.426 E5.96313
G1 X78.913 Y116.643 E6.05643
G1 X79.029 Y116.072 E6.07579
G1 X79.202 Y115.571 E6.0934
G1 X80.28 Y112.979 E6.18669
G1 X80.54 Y112.458 E6.20604
G1 X80.837 Y112.018 E6.22368
G1 X82.548 Y109.796 E6.31688
G1 X82.934 Y109.36 E6.33623
G1 X83.331 Y109.015 E6.35371
G0 F2625 X83.635 Y109.412
G1 F900 X85.861 Y107.707 E6.44689
G1 X86.318 Y107.407 E6.46506
G1 X86.712 Y107.217 E6.47959
G1 X89.308 Y106.147 E6.57291
G1 X89.828 Y105.976 E6.5911
G1 X90.253 Y105.895 E6.60547
G1 X93.034 Y105.533 E6.69867
G1 X93.58 Y105.503 E6.71684
G1 X94.012 Y105.535 E6.73124
G1 X96.796 Y105.905 E6.82457
G1 X97.332 Y106.016 E6.84276
G1 X97.743 Y106.16 E6.85723
G1 X100.334 Y107.238 E6.95049
G1 X100.822 Y107.484 E6.96865
G1 X101.181 Y107.729 E6.9831
G1 X103.402 Y109.439 E7.07625
G1 X103.81 Y109.803 E7.09442
G1 X104.091 Y110.13 E7.10875
G1 X105.797 Y112.357 E7.20197
G1 X106.097 Y112.814 E7.22014
G1 X106.287 Y113.208 E7.23468
G1 X107.357 Y115.804 E7.32799
G1 X107.528 Y116.324 E7.34618
G1 X107.609 Y116.749 E7.36056
G1 X107.971 Y119.53 E7.45375
G1 X108.001 Y120.076 E7.47193
G1 X107.969 Y120.508 E7.48632
G1 X107.599 Y123.291 E7.57962
G1 X107.488 Y123.827 E7.59781
G1 X107.344 Y124.237 E7.61225
G1 X106.266 Y126.829 E7.70554
G1 X106.02 Y127.318 E7.72373
G1 X105.775 Y127.677 E7.73818
G1 X104.064 Y129.899 E7.83137
G1 X103.699 Y130.307 E7.84957
G1 X103.373 Y130.588 E7.86387
G1 X101.147 Y132.293 E7.95705
G1 X100.69 Y132.593 E7.97522
G1 X100.296 Y132.783 E7.98975
G1 X97.7 Y133.853 E8.08306
G1 X97.18 Y134.024 E8.10125
G1 X96.755 Y134.105 E8.11563
G1 X93.974 Y134.467 E8.20883
G1 X93.428 Y134.497 E8.227
G1 X92.996 Y134.465 E8.2414
G1 X90.212 Y134.095 E8.33473
G1 X89.676 Y133.984 E8.35292
G1 X89.265 Y133.84 E8.36739
G1 X86.674 Y132.762 E8.46065
G1 X86.186 Y132.516 E8.47881
G1 X85.827 Y132.271 E8.49326
G1 X83.604 Y130.559 E8.5865
G1 X83.196 Y130.194 E8.60469
G1 X82.914 Y129.868 E8.61902
G1 X81.209 Y127.641 E8.71222
G1 X80.909 Y127.183 E8.73042
G1 X80.72 Y126.79 E8.74491
G1 X79.651 Y124.196 E8.83815
G1 X79.48 Y123.676 E8.85634
G1 X79.399 Y123.251 E8.87072
G1 X79.037 Y120.47 E8.96391
G1 X79.007 Y119.924 E8.98209
G1 X79.039 Y119.492 E8.99648
G1 X79.409 Y116.709 E9.08978
G1 X79.52 Y116.173 E9.10797
G1 X79.664 Y115.763 E9.12241
G1 X80.742 Y113.171 E9.2157
G1 X80.988 Y112.682 E9.23389
G1 X81.233 Y112.323 E9.24833
G1 X82.944 Y110.101 E9.34153
G1 X83.309 Y109.693 E9.35972
G1 X83.635 Y109.412 E9.37403
G0 F2625 X83.939 Y109.809
G1 F900 X86.165 Y108.104 E9.46721
G1 X86.592 Y107.827 E9.48412
G1 X86.903 Y107.679 E9.49557
G1 X89.499 Y106.609 E9.58888
G1 X89.983 Y106.453 E9.60578
G1 X90.317 Y106.391 E9.61707
G1 X93.098 Y106.029 E9.71026
G1 X93.607 Y106.003 E9.7272
G1 X93.946 Y106.03 E9.7385
G1 X96.73 Y106.4 E9.83183
G1 X97.228 Y106.507 E9.84876
G1 X97.55 Y106.621 E9.86011
G1 X100.141 Y107.699 E9.95337
G1 X100.595 Y107.931 E9.97032
G1 X100.876 Y108.125 E9.98166
G1 X103.097 Y109.835 E10.07481
G1 X103.475 Y110.176 E10.09173
G1 X103.694 Y110.434 E10.10298
G1 X105.4 Y112.661 E10.1962
G1 X105.677 Y113.088 E10.21312
G1 X105.825 Y113.399 E10.22456
G1 X106.895 Y115.995 E10.31787
G1 X107.051 Y116.479 E10.33477
G1 X107.113 Y116.813 E10.34606
G1 X107.475 Y119.594 E10.43926
G1 X107.501 Y120.103 E10.4562
G1 X107.474 Y120.442 E10.4675
G1 X107.104 Y123.225 E10.5608
G1 X106.997 Y123.724 E10.57776
G1 X106.883 Y124.045 E10.58908
G1 X105.805 Y126.637 E10.68237
G1 X105.573 Y127.091 E10.69931
G1 X105.379 Y127.372 E10.71066
G1 X103.668 Y129.594 E10.80385
G1 X103.326 Y129.972 E10.82079
G1 X103.069 Y130.191 E10.83202
G1 X100.843 Y131.896 E10.9252
G1 X100.416 Y132.173 E10.94211
G1 X100.105 Y132.321 E10.95356
G1 X97.509 Y133.391 E11.04687
G1 X97.025 Y133.547 E11.06377
G1 X96.691 Y133.609 E11.07506
G1 X93.91 Y133.971 E11.16825
G1 X93.401 Y133.997 E11.18519
G1 X93.062 Y133.97 E11.19649
G1 X90.278 Y133.6 E11.28982
G1 X89.78 Y133.493 E11.30675
G1 X89.458 Y133.379 E11.3181
G1 X86.867 Y132.301 E11.41136
G1 X86.413 Y132.069 E11.4283
G1 X86.132 Y131.875 E11.43965
G1 X83.909 Y130.163 E11.5329
G1 X83.531 Y129.821 E11.54984
G1 X83.311 Y129.564 E11.56108
G1 X81.606 Y127.337 E11.65428
G1 X81.329 Y126.909 E11.67123
G1 X81.182 Y126.599 E11.68263
G1 X80.113 Y124.005 E11.77587
G1 X79.957 Y123.52 E11.7928
G1 X79.895 Y123.187 E11.80405
G1 X79.533 Y120.406 E11.89725
G1 X79.507 Y119.897 E11.91419
G1 X79.534 Y119.558 E11.92549
G1 X79.904 Y116.775 E12.01879
G1 X80.011 Y116.276 E12.03575
G1 X80.125 Y115.955 E12.04707
G1 X81.203 Y113.363 E12.14036
G1 X81.435 Y112.909 E12.1573
G1 X81.629 Y112.628 E12.16865
G1 X83.34 Y110.406 E12.26184
G1 X83.682 Y110.028 E12.27878
G1 X83.939 Y109.809 E12.29001
G0 F2625 X84.243 Y110.206
G1 F900 X86.469 Y108.501 E12.38319
G1 X86.864 Y108.249 E12.39876
G1 X87.093 Y108.142 E12.40716
G1 X89.689 Y107.072 E12.50047
G1 X90.136 Y106.93 E12.51605
G1 X90.382 Y106.887 E12.52435
G1 X93.163 Y106.525 E12.61755
G1 X93.631 Y106.504 E12.63312
G1 X93.88 Y106.526 E12.64143
G1 X96.664 Y106.896 E12.73476
G1 X97.122 Y106.997 E12.75034
G1 X97.358 Y107.083 E12.75869
G1 X99.949 Y108.161 E12.85195
G1 X100.365 Y108.377 E12.86753
G1 X100.571 Y108.521 E12.87588
G1 X102.792 Y110.231 E12.96903
G1 X103.137 Y110.547 E12.98458
G1 X103.297 Y110.738 E12.99286
G1 X105.003 Y112.965 E13.08608
G1 X105.255 Y113.36 E13.10165
G1 X105.362 Y113.589 E13.11005
G1 X106.432 Y116.185 E13.20336
G1 X106.574 Y116.632 E13.21895
G1 X106.617 Y116.878 E13.22725
G1 X106.979 Y119.659 E13.32045
G1 X107 Y120.127 E13.33602
G1 X106.978 Y120.376 E13.34432
G1 X106.608 Y123.159 E13.43762
G1 X106.507 Y123.617 E13.45321
G1 X106.421 Y123.853 E13.46155
G1 X105.343 Y126.445 E13.55484
G1 X105.127 Y126.861 E13.57042
G1 X104.983 Y127.067 E13.57877
G1 X103.272 Y129.289 E13.67197
G1 X102.955 Y129.634 E13.68754
G1 X102.765 Y129.794 E13.6958
G1 X100.539 Y131.499 E13.78898
G1 X100.144 Y131.751 E13.80455
G1 X99.915 Y131.858 E13.81295
G1 X97.319 Y132.928 E13.90626
G1 X96.872 Y133.07 E13.92184
G1 X96.626 Y133.113 E13.93014
G1 X93.845 Y133.475 E14.02334
G1 X93.377 Y133.496 E14.03891
G1 X93.128 Y133.474 E14.04722
G1 X90.344 Y133.104 E14.14055
G1 X89.886 Y133.003 E14.15613
G1 X89.65 Y132.917 E14.16448
G1 X87.059 Y131.839 E14.25774
G1 X86.643 Y131.623 E14.27332
G1 X86.437 Y131.479 E14.28167
G1 X84.214 Y129.767 E14.37491
G1 X83.869 Y129.45 E14.39048
G1 X83.708 Y129.26 E14.39876
G1 X82.003 Y127.033 E14.49197
G1 X81.751 Y126.638 E14.50754
G1 X81.644 Y126.409 E14.51594
G1 X80.575 Y123.815 E14.60917
G1 X80.434 Y123.368 E14.62475
G1 X80.391 Y123.122 E14.63305
G1 X80.029 Y120.341 E14.72625
G1 X80.008 Y119.873 E14.74181
G1 X80.03 Y119.624 E14.75012
G1 X80.4 Y116.841 E14.84342
G1 X80.501 Y116.383 E14.859
G1 X80.587 Y116.147 E14.86735
G1 X81.665 Y113.555 E14.96064
G1 X81.881 Y113.139 E14.97622
G1 X82.025 Y112.933 E14.98457
G1 X83.736 Y110.711 E15.07777
G1 X84.053 Y110.366 E15.09334
G1 X84.243 Y110.206 E15.10159
G0 F2625 X84.547 Y110.603
G1 F900 X86.773 Y108.898 E15.19477
G1 X87.284 Y108.604 E15.21436
G1 X89.88 Y107.534 E15.30768
G1 X90.447 Y107.383 E15.32718
G1 X93.228 Y107.021 E15.42037
G1 X93.814 Y107.022 E15.43985
G1 X96.598 Y107.392 E15.53318
G1 X97.166 Y107.545 E15.55273
G1 X99.757 Y108.623 E15.64599
G1 X100.266 Y108.917 E15.66552
G1 X102.487 Y110.627 E15.75867
G1 X102.9 Y111.042 E15.77813
G1 X104.606 Y113.269 E15.87135
G1 X104.9 Y113.78 E15.89095
G1 X105.97 Y116.376 E15.98426
G1 X106.121 Y116.943 E16.00376
G1 X106.483 Y119.724 E16.09695
G1 X106.482 Y120.311 E16.11646
G1 X106.112 Y123.094 E16.20976
G1 X105.959 Y123.661 E16.22928
G1 X104.881 Y126.253 E16.32257
G1 X104.587 Y126.762 E16.3421
G1 X102.876 Y128.984 E16.4353
G1 X102.461 Y129.397 E16.45475
G1 X100.235 Y131.102 E16.54793
G1 X99.724 Y131.396 E16.56753
G1 X97.128 Y132.466 E16.66084
G1 X96.561 Y132.617 E16.68034
G1 X93.78 Y132.979 E16.77353
G1 X93.194 Y132.978 E16.79301
G1 X90.41 Y132.608 E16.88634
G1 X89.842 Y132.455 E16.90589
G1 X87.251 Y131.377 E16.99915
G1 X86.742 Y131.083 E17.01868
G1 X84.519 Y129.371 E17.11192
G1 X84.105 Y128.956 E17.1314
G1 X82.4 Y126.729 E17.22461
G1 X82.107 Y126.218 E17.24419
G1 X81.038 Y123.624 E17.33742
G1 X80.887 Y123.057 E17.35692
G1 X80.525 Y120.276 E17.45012
G1 X80.526 Y119.689 E17.46963
G1 X80.896 Y116.906 E17.56293
G1 X81.049 Y116.339 E17.58244
G1 X82.127 Y113.747 E17.67573
G1 X82.421 Y113.238 E17.69527
G1 X84.132 Y111.016 E17.78846
G1 X84.547 Y110.603 E17.80792
G0 F2625 X84.851 Y111
G1 F900 X87.077 Y109.295 E17.9011
G1 X87.474 Y109.066 E17.91633
G1 X90.07 Y107.996 E18.00964
G1 X90.511 Y107.879 E18.0248
G1 X93.292 Y107.517 E18.118
G1 X93.749 Y107.517 E18.13319
G1 X96.533 Y107.887 E18.22652
G1 X96.974 Y108.006 E18.2417
G1 X99.565 Y109.084 E18.33496
G1 X99.961 Y109.313 E18.35016
G1 X102.182 Y111.023 E18.44331
G1 X102.503 Y111.346 E18.45844
G1 X104.209 Y113.573 E18.55167
G1 X104.438 Y113.97 E18.5669
G1 X105.508 Y116.566 E18.66021
G1 X105.625 Y117.007 E18.67538
G1 X105.987 Y119.788 E18.76857
G1 X105.987 Y120.245 E18.78376
G1 X105.617 Y123.028 E18.87706
G1 X105.498 Y123.469 E18.89224
G1 X104.42 Y126.061 E18.98553
G1 X104.191 Y126.457 E19.00073
G1 X102.48 Y128.679 E19.09393
G1 X102.157 Y129 E19.10906
G1 X99.931 Y130.705 E19.20224
G1 X99.534 Y130.934 E19.21747
G1 X96.938 Y132.004 E19.31078
G1 X96.497 Y132.121 E19.32594
G1 X93.716 Y132.483 E19.41914
G1 X93.259 Y132.483 E19.43433
G1 X90.475 Y132.113 E19.52766
G1 X90.034 Y131.994 E19.54284
G1 X87.443 Y130.916 E19.6361
G1 X87.047 Y130.686 E19.65132
G1 X84.824 Y128.974 E19.74456
G1 X84.502 Y128.652 E19.75969
G1 X82.797 Y126.425 E19.8529
G1 X82.569 Y126.028 E19.86811
G1 X81.5 Y123.434 E19.96135
G1 X81.383 Y122.993 E19.97651
G1 X81.021 Y120.212 E20.06971
G1 X81.021 Y119.755 E20.0849
G1 X81.391 Y116.972 E20.1782
G1 X81.51 Y116.531 E20.19338
G1 X82.588 Y113.939 E20.28667
